;FLAVOR:Marlin
;TIME:1029
;Filament used: 0.364656m
;Layer height: 0.2
;MINX:87.868
;MINY:86.808
;MINZ:0.2
;MAXX:133.03
;MAXY:132.763
;MAXZ:5.2
;Generated with Cura_SteamEngine 4.8.0
M140 S60
M105
M190 S60
M104 S220
M105
M109 S220
M82 ;absolute extrusion mode
; Ender 3 Custom Start G-code
G92 E0 ; Reset Extruder
G28 ; Home all axes
G1 Z2.0 F3000 ; Move Z Axis up little to prevent scratching of Heat Bed
G1 X0.1 Y20 Z0.3 F5000.0 ; Move to start position
G1 X0.1 Y200.0 Z0.3 F1500.0 E15 ; Draw the first line
G1 X0.4 Y200.0 Z0.3 F5000.0 ; Move to side a little
G1 X0.4 Y20 Z0.3 F1500.0 E30 ; Draw the second line
G92 E0 ; Reset Extruder
G1 Z2.0 F3000 ; Move Z Axis up little to prevent scratching of Heat Bed
G1 X5 Y20 Z0.3 F5000.0 ; Move over to prevent blob squish
G92 E0
G92 E0
G1 F1500 E-6.5
;LAYER_COUNT:31
;LAYER:0
M107
;MESH:bearingHousing.stl(1)
G0 F6000 X93.995 Y115.779 Z0.2
;TYPE:WALL-INNER
G1 F1500 E0
G1 F600 X93.854 Y115.772 E0.00517
G1 X93.418 Y115.747 E0.02114
G1 X92.982 Y115.771 E0.03712
G1 X92.841 Y115.778 E0.04228
G1 X92.808 Y115.78 E0.04349
G1 X92.206 Y115.888 E0.06587
G1 X91.917 Y115.974 E0.0769
G1 X91.819 Y116.004 E0.08065
G1 X91.819 Y115.888 E0.08222
G1 X91.819 Y115.649 E0.08871
G1 X92.206 Y115.649 E0.09943
G1 X92.807 Y115.649 E0.10958
G1 X92.833 Y115.648 E0.10981
G1 X92.833 Y115.507 E0.11371
G1 X92.834 Y112.148 E0.2366
G1 X94.002 Y112.148 E0.27933
G1 X94.002 Y115.507 E0.40223
G1 X94.002 Y115.648 E0.40613
G1 X94.027 Y115.648 E0.40705
G1 X94.63 Y115.648 E0.42911
G1 X95.017 Y115.648 E0.44327
G1 X95.017 Y115.888 E0.45205
G1 X95.017 Y116.004 E0.45629
G1 X94.92 Y115.975 E0.45732
G1 X94.63 Y115.888 E0.465
G1 X94.027 Y115.78 E0.47558
G1 X93.995 Y115.779 E0.47606
G1 F1500 E-6.02394
G0 F6000 X94.59 Y116.064
G0 X94.333 Y117.119
G0 X94.787 Y124.74
G0 X95.197 Y125.743
G0 X95.017 Y125.991
G1 F1500 E0.47606
G1 F600 X95.017 Y126.107 E0.4803
G1 X95.017 Y126.347 E0.48908
G1 X94.629 Y126.347 E0.50328
G1 X94.03 Y126.347 E0.52519
G1 X94.003 Y126.348 E0.52618
G1 X94.003 Y126.489 E0.53134
G1 X94.002 Y129.848 E0.65423
G1 X92.834 Y129.848 E0.69696
G1 X92.834 Y126.489 E0.81986
G1 X92.834 Y126.348 E0.82502
G1 X92.806 Y126.348 E0.82604
G1 X92.207 Y126.348 E0.84795
G1 X91.819 Y126.348 E0.86215
G1 X91.819 Y126.107 E0.87097
G1 X91.819 Y125.991 E0.87521
G1 X91.916 Y126.02 E0.87624
G1 X92.207 Y126.107 E0.88398
G1 X92.806 Y126.213 E0.8946
G1 X92.842 Y126.215 E0.89514
G1 X92.982 Y126.223 E0.89902
G1 X93.418 Y126.25 E0.91501
G1 X93.854 Y126.224 E0.93099
G1 X93.994 Y126.216 E0.93487
G1 X94.029 Y126.213 E0.93539
G1 X94.629 Y126.107 E0.94599
G1 X94.919 Y126.021 E0.95363
G1 X95.017 Y125.991 E0.95469
G1 F1500 E-5.54531
G0 F6000 X95.197 Y125.743
G0 X94.787 Y124.74
G0 X94.333 Y117.119
G0 X94.59 Y116.064
G0 X94.034 Y115.884
G0 X93.981 Y116.178
;TYPE:WALL-OUTER
G1 F1500 E0.95469
G1 F600 X93.418 Y116.148 E0.97532
G1 X92.854 Y116.178 E0.99598
G1 X92.299 Y116.278 E1.01661
G1 X91.759 Y116.44 E1.03724
G1 X91.24 Y116.662 E1.05789
G1 X90.752 Y116.945 E1.07853
G1 X90.3 Y117.281 E1.09914
G1 X89.888 Y117.669 E1.11984
G1 X89.527 Y118.102 E1.14047
G1 X89.217 Y118.573 E1.1611
G1 X88.963 Y119.076 E1.18171
G1 X88.77 Y119.607 E1.20238
G1 X88.64 Y120.156 E1.22303
G1 X88.575 Y120.715 E1.24362
G1 X88.575 Y121.28 E1.26429
G1 X88.64 Y121.84 E1.28491
G1 X88.77 Y122.388 E1.30552
G1 X88.963 Y122.919 E1.32619
G1 X89.217 Y123.423 E1.34684
G1 X89.527 Y123.894 E1.36747
G1 X89.888 Y124.326 E1.38806
G1 X90.3 Y124.714 E1.40877
G1 X90.752 Y125.05 E1.42938
G1 X91.24 Y125.333 E1.45001
G1 X91.759 Y125.555 E1.47067
G1 X92.3 Y125.717 E1.49133
G1 X92.853 Y125.815 E1.51188
G1 X93.418 Y125.849 E1.53258
G1 X93.982 Y125.815 E1.55326
G1 X94.536 Y125.717 E1.57384
G1 X95.076 Y125.555 E1.59447
G1 X95.595 Y125.333 E1.61512
G1 X96.083 Y125.05 E1.63576
G1 X96.536 Y124.714 E1.65639
G1 X96.947 Y124.326 E1.67707
G1 X97.309 Y123.894 E1.69769
G1 X97.618 Y123.423 E1.7183
G1 X97.872 Y122.919 E1.73895
G1 X98.065 Y122.388 E1.75962
G1 X98.195 Y121.84 E1.78023
G1 X98.261 Y121.281 E1.80082
G1 X98.261 Y120.714 E1.82156
G1 X98.195 Y120.156 E1.84212
G1 X98.065 Y119.607 E1.86276
G1 X97.872 Y119.076 E1.88343
G1 X97.618 Y118.573 E1.90405
G1 X97.309 Y118.102 E1.92466
G1 X96.947 Y117.669 E1.94531
G1 X96.536 Y117.281 E1.96599
G1 X96.083 Y116.945 E1.98662
G1 X95.595 Y116.662 E2.00726
G1 X95.076 Y116.44 E2.02791
G1 X94.537 Y116.278 E2.0485
G1 X93.981 Y116.178 E2.06917
G0 F6000 X94.031 Y115.741
G0 X94.402 Y115.248
G1 F600 X95.417 Y115.248 E2.10631
G1 X95.417 Y116.125 E2.13839
G1 X96.038 Y116.448 E2.164
G1 X96.422 Y116.693 E2.18067
G1 X96.794 Y116.978 E2.19781
G1 X97.135 Y117.291 E2.21475
G1 X97.436 Y117.62 E2.23106
G1 X97.718 Y117.985 E2.24794
G1 X97.962 Y118.372 E2.26468
G1 X98.176 Y118.78 E2.28153
G1 X98.35 Y119.201 E2.2982
G1 X98.49 Y119.643 E2.31516
G1 X98.589 Y120.093 E2.33202
G1 X98.646 Y120.518 E2.34771
G1 X98.667 Y120.998 E2.36529
G1 X98.646 Y121.469 E2.38253
G1 X98.589 Y121.903 E2.39855
G1 X98.49 Y122.352 E2.41537
G1 X98.35 Y122.794 E2.43233
G1 X98.175 Y123.219 E2.44915
G1 X97.967 Y123.618 E2.46561
G1 X97.719 Y124.009 E2.48255
G1 X97.443 Y124.367 E2.49909
G1 X97.13 Y124.709 E2.51605
G1 X96.794 Y125.017 E2.53273
G1 X96.422 Y125.302 E2.54987
G1 X96.04 Y125.546 E2.56646
G1 X95.417 Y125.87 E2.59215
G1 X95.417 Y126.747 E2.62423
G1 X94.403 Y126.748 E2.66133
G1 X94.402 Y130.248 E2.78938
G1 X92.434 Y130.248 E2.86139
G1 X92.434 Y126.748 E2.98944
G1 X91.419 Y126.748 E3.02657
G1 X91.419 Y125.87 E3.0587
G1 X90.796 Y125.546 E3.08439
G1 X90.414 Y125.302 E3.10097
G1 X90.036 Y125.012 E3.1184
G1 X89.705 Y124.709 E3.13482
G1 X89.391 Y124.367 E3.1518
G1 X89.12 Y124.012 E3.16814
G1 X88.868 Y123.617 E3.18529
G1 X88.659 Y123.216 E3.20183
G1 X88.487 Y122.799 E3.21833
G1 X88.347 Y122.356 E3.23533
G1 X88.246 Y121.901 E3.25238
G1 X88.19 Y121.47 E3.26829
G1 X88.169 Y120.998 E3.28557
G1 X88.19 Y120.518 E3.30315
G1 X88.246 Y120.094 E3.3188
G1 X88.347 Y119.639 E3.33585
G1 X88.487 Y119.196 E3.35285
G1 X88.657 Y118.784 E3.36915
G1 X88.872 Y118.372 E3.38615
G1 X89.111 Y117.996 E3.40245
G1 X89.4 Y117.62 E3.41981
G1 X89.706 Y117.286 E3.43638
G1 X90.042 Y116.978 E3.45305
G1 X90.414 Y116.693 E3.4702
G1 X90.798 Y116.448 E3.48686
G1 X91.419 Y116.125 E3.51247
G1 X91.419 Y115.249 E3.54452
G1 X92.433 Y115.248 E3.58162
G1 X92.434 Y111.748 E3.70967
G1 X94.402 Y111.748 E3.78167
G1 X94.402 Y115.248 E3.90973
G0 F6000 X93.612 Y115.367
;TYPE:SKIN
G1 F600 X93.223 Y115.367 E3.92538
G1 X93.224 Y112.538 E4.03923
G1 X93.612 Y112.538 E4.05485
G1 X93.612 Y115.367 E4.1687
G1 F1500 E-2.3313
G0 F6000 X93.597 Y115.646
G0 X94.59 Y116.064
G0 X94.333 Y117.119
G0 X94.332 Y124.876
G0 X94.591 Y125.93
G0 X93.892 Y126.63
G0 X93.613 Y126.629
G1 F1500 E4.1687
G1 F600 X93.612 Y129.458 E4.28255
G1 X93.224 Y129.458 E4.29817
G1 X93.224 Y126.629 E4.41202
G1 X93.613 Y126.629 E4.42768
G0 F6000 X93.803 Y126.63
G1 F1500 E-2.07232
;MESH:doubleSteeringKnuckle.stl
G0 F6000 X93.892 Y126.63
G0 X95.197 Y125.743
G0 X94.787 Y124.74
G0 X102.995 Y112.333
G0 X102.995 Y111.354
G0 X103.941 Y107.763
G0 X104.46 Y106.726
G0 X105.205 Y105.837
G0 X106.135 Y105.147
G0 X106.996 Y104.775
G0 X108.73 Y104.226
;TYPE:WALL-INNER
G1 F1500 E4.42768
G1 F600 X108.53 Y104.226 E4.43499
G1 X108.53 Y98.898 E4.62992
G1 X108.73 Y98.897 E4.63724
G1 X108.73 Y104.226 E4.73498
G0 F6000 X110.606 Y104.886
G0 X111.61 Y105.466
G0 X112.292 Y106.11
G0 X113.623 Y107.87
G1 F600 X113.739 Y107.87 E4.73922
G1 X113.979 Y107.87 E4.748
G1 X113.979 Y108.257 E4.76216
G1 X113.979 Y108.856 E4.78408
G1 X113.98 Y108.884 E4.7851
G1 X114.121 Y108.884 E4.79026
G1 X117.48 Y108.885 E4.91315
G1 X117.48 Y110.053 E4.95589
G1 X114.121 Y110.053 E5.07878
G1 X113.98 Y110.053 E5.08394
G1 X113.98 Y110.08 E5.08493
G1 X113.98 Y110.68 E5.10688
G1 X113.98 Y111.068 E5.12107
G1 X113.739 Y111.068 E5.12989
G1 X113.623 Y111.068 E5.13413
G1 X113.652 Y110.971 E5.13517
G1 X113.739 Y110.68 E5.1429
G1 X113.845 Y110.08 E5.15354
G1 X113.847 Y110.045 E5.15407
G1 X113.855 Y109.905 E5.15795
G1 X113.882 Y109.469 E5.17393
G1 X113.856 Y109.033 E5.18991
G1 X113.848 Y108.893 E5.19379
G1 X113.845 Y108.857 E5.19433
G1 X113.739 Y108.257 E5.20493
G1 X113.653 Y107.968 E5.21255
G1 X113.623 Y107.87 E5.21361
G0 F6000 X113.585 Y110.049
G0 X113.318 Y111.174
G0 X112.799 Y112.211
G0 X112.055 Y113.099
G0 X111.124 Y113.79
G0 X110.522 Y114.05
G0 X108.73 Y114.711
G1 F600 X108.73 Y120.039 E5.40854
G1 X108.53 Y120.04 E5.41585
G1 X108.53 Y114.711 E5.51359
G1 X108.73 Y114.711 E5.52091
G0 F6000 X106.653 Y114.051
G0 X105.65 Y113.472
G0 X104.807 Y112.675
G0 X104.169 Y111.708
G0 X103.775 Y110.62
G0 X103.667 Y109.689
G0 X103.636 Y107.87
G1 F600 X103.607 Y107.968 E5.52465
G1 X103.52 Y108.256 E5.53565
G1 X103.412 Y108.859 E5.55807
G1 X103.411 Y108.892 E5.55928
G1 X103.404 Y109.033 E5.56444
G1 X103.379 Y109.469 E5.58042
G1 X103.403 Y109.905 E5.59639
G1 X103.41 Y110.046 E5.60156
G1 X103.412 Y110.078 E5.60273
G1 X103.52 Y110.681 E5.62514
G1 X103.606 Y110.97 E5.63618
G1 X103.636 Y111.068 E5.63993
G1 X103.52 Y111.068 E5.64149
G1 X103.281 Y111.068 E5.64798
G1 X103.281 Y110.681 E5.65871
G1 X103.281 Y110.079 E5.66887
G1 X103.28 Y110.054 E5.66909
G1 X103.139 Y110.054 E5.67299
G1 X99.78 Y110.053 E5.79588
G1 X99.78 Y108.885 E5.83861
G1 X103.139 Y108.885 E5.9615
G1 X103.28 Y108.885 E5.96541
G1 X103.28 Y108.859 E5.96564
G1 X103.28 Y108.256 E5.97588
G1 X103.28 Y107.87 E5.98663
G1 X103.52 Y107.87 E5.99317
G1 X103.636 Y107.87 E5.99474
G1 F1500 E-0.50526
G0 F6000 X104.806 Y106.262
G0 X105.651 Y105.466
G0 X106.653 Y104.886
G0 X107.765 Y104.553
G0 X108.92 Y104.487
G0 X110.061 Y104.687
G0 X111.125 Y105.147
G0 X112.055 Y105.837
G0 X112.799 Y106.726
G0 X113.318 Y107.763
G0 X113.534 Y108.673
G0 X113.645 Y110.046
G0 X113.447 Y110.033
;TYPE:WALL-OUTER
G1 F1500 E5.99474
G1 F600 X113.481 Y109.469 E6.01541
G1 X113.447 Y108.904 E6.03612
G1 X113.349 Y108.35 E6.0567
G1 X113.187 Y107.81 E6.07733
G1 X112.966 Y107.291 E6.09797
G1 X112.682 Y106.803 E6.11863
G1 X112.346 Y106.351 E6.13923
G1 X111.959 Y105.939 E6.15991
G1 X111.527 Y105.578 E6.18051
G1 X111.055 Y105.268 E6.20117
G1 X110.551 Y105.014 E6.22182
G1 X110.021 Y104.821 E6.24246
G1 X109.472 Y104.691 E6.2631
G1 X108.912 Y104.626 E6.28372
G1 X108.347 Y104.626 E6.30439
G1 X107.788 Y104.691 E6.32498
G1 X107.239 Y104.821 E6.34562
G1 X106.708 Y105.014 E6.36629
G1 X106.205 Y105.268 E6.38691
G1 X105.734 Y105.578 E6.40754
G1 X105.301 Y105.939 E6.42817
G1 X104.913 Y106.351 E6.44887
G1 X104.577 Y106.803 E6.46948
G1 X104.294 Y107.291 E6.49012
G1 X104.072 Y107.81 E6.51077
G1 X103.91 Y108.349 E6.53136
G1 X103.81 Y108.905 E6.55203
G1 X103.78 Y109.469 E6.57269
G1 X103.81 Y110.032 E6.59332
G1 X103.91 Y110.588 E6.61399
G1 X104.072 Y111.127 E6.63458
G1 X104.294 Y111.646 E6.65523
G1 X104.577 Y112.134 E6.67587
G1 X104.914 Y112.586 E6.6965
G1 X105.3 Y112.997 E6.71713
G1 X105.733 Y113.36 E6.7378
G1 X106.205 Y113.669 E6.75844
G1 X106.708 Y113.923 E6.77905
G1 X107.239 Y114.116 E6.79973
G1 X107.788 Y114.246 E6.82037
G1 X108.347 Y114.311 E6.84096
G1 X108.912 Y114.311 E6.86163
G1 X109.472 Y114.246 E6.88225
G1 X110.021 Y114.116 E6.90289
G1 X110.551 Y113.923 E6.92353
G1 X111.055 Y113.669 E6.94418
G1 X111.527 Y113.36 E6.96482
G1 X111.959 Y112.997 E6.98546
G1 X112.345 Y112.586 E7.00609
G1 X112.682 Y112.134 E7.02672
G1 X112.966 Y111.646 E7.04738
G1 X113.187 Y111.127 E7.06801
G1 X113.349 Y110.587 E7.08864
G1 X113.447 Y110.033 E7.10922
G0 F6000 X113.883 Y110.084
G0 X114.38 Y110.453
G1 F600 X114.38 Y111.468 E7.14636
G1 X113.502 Y111.468 E7.17848
G1 X113.179 Y112.089 E7.20409
G1 X112.937 Y112.47 E7.22061
G1 X112.644 Y112.851 E7.23819
G1 X112.342 Y113.181 E7.25456
G1 X112.012 Y113.483 E7.27092
G1 X111.634 Y113.773 E7.28835
G1 X111.252 Y114.017 E7.30494
G1 X110.852 Y114.225 E7.32143
G1 X110.426 Y114.401 E7.33829
G1 X109.987 Y114.54 E7.35514
G1 X109.13 Y114.729 E7.38725
G1 X109.13 Y120.439 E7.59616
G1 X108.13 Y120.44 E7.63274
G1 X108.13 Y114.729 E7.84169
G1 X107.272 Y114.54 E7.87383
G1 X106.833 Y114.401 E7.89068
G1 X106.408 Y114.225 E7.90751
G1 X106.008 Y114.017 E7.924
G1 X105.626 Y113.773 E7.94058
G1 X105.248 Y113.483 E7.95802
G1 X104.917 Y113.18 E7.97443
G1 X104.615 Y112.851 E7.99077
G1 X104.322 Y112.47 E8.00836
G1 X104.08 Y112.089 E8.02487
G1 X103.757 Y111.468 E8.05048
G1 X102.881 Y111.468 E8.08253
G1 X102.88 Y110.454 E8.11963
G1 X99.38 Y110.453 E8.24768
G1 X99.38 Y108.485 E8.31968
G1 X102.88 Y108.485 E8.44773
G1 X102.88 Y107.47 E8.48487
G1 X103.757 Y107.47 E8.51695
G1 X104.08 Y106.849 E8.54256
G1 X104.322 Y106.468 E8.55908
G1 X104.61 Y106.093 E8.57638
G1 X104.918 Y105.757 E8.59305
G1 X105.254 Y105.449 E8.60973
G1 X105.626 Y105.164 E8.62687
G1 X106.01 Y104.919 E8.64354
G1 X106.408 Y104.712 E8.65995
G1 X106.833 Y104.536 E8.67678
G1 X107.27 Y104.398 E8.69355
G1 X108.13 Y104.206 E8.72579
G1 X108.13 Y98.498 E8.93462
G1 X109.13 Y98.497 E8.97121
G1 X109.13 Y104.206 E9.18008
G1 X109.989 Y104.398 E9.21228
G1 X110.427 Y104.536 E9.22908
G1 X110.852 Y104.712 E9.24591
G1 X111.25 Y104.919 E9.26232
G1 X111.634 Y105.164 E9.27899
G1 X112.012 Y105.454 E9.29642
G1 X112.341 Y105.756 E9.31276
G1 X112.644 Y106.087 E9.32918
G1 X112.937 Y106.468 E9.34676
G1 X113.179 Y106.849 E9.36327
G1 X113.502 Y107.47 E9.38888
G1 X114.379 Y107.47 E9.42097
G1 X114.38 Y108.484 E9.45807
G1 X117.88 Y108.485 E9.58612
G1 X117.88 Y110.453 E9.65812
G1 X114.38 Y110.453 E9.78617
G0 F6000 X114.261 Y109.663
;TYPE:SKIN
G1 F600 X114.261 Y109.274 E9.80183
G1 X117.09 Y109.275 E9.91568
G1 X117.09 Y109.663 E9.93129
G1 X114.261 Y109.663 E10.04515
G0 F6000 X113.982 Y109.647
G0 X113.091 Y111.708
G0 X112.452 Y112.675
G0 X111.61 Y113.472
G0 X110.606 Y114.051
G0 X109.495 Y114.384
G0 X108.339 Y114.45
G0 X107.199 Y114.25
G0 X106.135 Y113.79
G0 X105.204 Y113.099
G0 X104.602 Y112.38
G0 X102.998 Y109.943
G0 X102.999 Y109.664
G1 F600 X100.17 Y109.663 E10.159
G1 X100.17 Y109.275 E10.17461
G1 X102.999 Y109.275 E10.28847
G1 X102.999 Y109.664 E10.30412
G0 F6000 X103.262 Y110.072
G1 F1500 E3.80412
;MESH:steeringKnuckle.stl
G0 F6000 X103.941 Y107.763
G0 X104.46 Y106.726
G0 X105.666 Y105.28
G0 X108.261 Y104.311
G0 X109.016 Y98.611
G0 X109.995 Y98.611
G0 X116.867 Y94.244
G0 X117.845 Y94.243
G0 X118.486 Y93.957
;TYPE:WALL-INNER
G1 F1500 E10.30412
G1 F600 X118.37 Y93.957 E10.30837
G1 X118.131 Y93.957 E10.31711
G1 X118.131 Y93.57 E10.33127
G1 X118.131 Y92.968 E10.35329
G1 X118.13 Y92.943 E10.35421
G1 X117.989 Y92.943 E10.35937
G1 X114.63 Y92.942 E10.48226
G1 X114.63 Y91.774 E10.52499
G1 X117.989 Y91.774 E10.64789
G1 X118.13 Y91.774 E10.65305
G1 X118.13 Y91.748 E10.654
G1 X118.13 Y91.146 E10.67602
G1 X118.13 Y90.759 E10.69018
G1 X118.37 Y90.759 E10.69896
G1 X118.486 Y90.759 E10.7032
G1 X118.457 Y90.856 E10.70424
G1 X118.37 Y91.146 E10.71191
G1 X118.262 Y91.748 E10.72248
G1 X118.261 Y91.781 E10.72297
G1 X118.254 Y91.922 E10.72688
G1 X118.229 Y92.358 E10.74285
G1 X118.253 Y92.794 E10.75883
G1 X118.26 Y92.935 E10.76274
G1 X118.262 Y92.967 E10.76321
G1 X118.37 Y93.57 E10.77374
G1 X118.456 Y93.859 E10.78134
G1 X118.486 Y93.957 E10.78239
G0 F6000 X119.656 Y95.565
G0 X120.501 Y96.361
G0 X121.311 Y96.829
G0 X123.38 Y97.601
G1 F600 X123.58 Y97.601 E10.78971
G1 X123.58 Y102.928 E10.9846
G1 X123.38 Y102.929 E10.99192
G1 X123.38 Y97.601 E11.08964
G0 F6000 X125.456 Y96.94
G0 X126.459 Y96.361
G0 X127.142 Y95.717
G0 X128.473 Y93.957
G1 F600 X128.502 Y93.86 E11.09334
G1 X128.589 Y93.569 E11.10446
G1 X128.695 Y92.969 E11.12675
G1 X128.697 Y92.934 E11.12803
G1 X128.705 Y92.794 E11.13316
G1 X128.732 Y92.358 E11.14914
G1 X128.706 Y91.922 E11.16512
G1 X128.698 Y91.782 E11.17025
G1 X128.695 Y91.746 E11.17158
G1 X128.589 Y91.147 E11.19383
G1 X128.503 Y90.857 E11.2049
G1 X128.473 Y90.759 E11.20865
G1 X128.589 Y90.759 E11.21021
G1 X128.829 Y90.759 E11.21674
G1 X128.829 Y91.147 E11.22752
G1 X128.829 Y91.745 E11.23773
G1 X128.83 Y91.773 E11.23797
G1 X128.971 Y91.773 E11.24188
G1 X132.33 Y91.774 E11.36478
G1 X132.33 Y92.942 E11.40751
G1 X128.971 Y92.942 E11.5304
G1 X128.83 Y92.942 E11.53432
G1 X128.83 Y92.969 E11.53455
G1 X128.83 Y93.569 E11.54486
G1 X128.83 Y93.957 E11.55568
G1 X128.589 Y93.957 E11.56227
G1 X128.473 Y93.957 E11.56385
G0 F6000 X128.495 Y92.935
G0 X128.297 Y92.922
;TYPE:WALL-OUTER
