;FLAVOR:Marlin
;TIME:997
;Filament used: 0.647095m
;Layer height: 0.2
;MINX:100.046
;MINY:86.754
;MINZ:0.2
;MAXX:122.278
;MAXY:133.602
;MAXZ:10.48
;Generated with Cura_SteamEngine 4.8.0
M140 S60
M105
M190 S60
M104 S220
M105
M109 S220
M82 ;absolute extrusion mode
; Ender 3 Custom Start G-code
G92 E0 ; Reset Extruder
G28 ; Home all axes
G1 Z2.0 F3000 ; Move Z Axis up little to prevent scratching of Heat Bed
G1 X0.1 Y20 Z0.3 F5000.0 ; Move to start position
G1 X0.1 Y200.0 Z0.3 F1500.0 E15 ; Draw the first line
G1 X0.4 Y200.0 Z0.3 F5000.0 ; Move to side a little
G1 X0.4 Y20 Z0.3 F1500.0 E30 ; Draw the second line
G92 E0 ; Reset Extruder
G1 Z2.0 F3000 ; Move Z Axis up little to prevent scratching of Heat Bed
G1 X5 Y20 Z0.3 F5000.0 ; Move over to prevent blob squish
G92 E0
G92 E0
G1 F1500 E-6.5
;LAYER_COUNT:47
;LAYER:0
M107
G0 F6000 X109.595 Y96.117 Z0.2
;TYPE:SKIRT
G1 F1500 E0
G1 F600 X109.664 Y96.101 E0.00259
G1 X109.734 Y96.092 E0.00517
G1 X109.595 Y96.117 E0.01034
G0 F6000 X109.668 Y96.509
G1 F600 X109.073 Y96.641 E0.03264
G1 X108.952 Y96.674 E0.03723
G1 X108.405 Y96.848 E0.05823
G1 X108.296 Y96.888 E0.06248
G1 X107.733 Y97.12 E0.08475
G1 X107.62 Y97.172 E0.08931
G1 X107.086 Y97.45 E0.11133
G1 X106.981 Y97.511 E0.11577
G1 X106.478 Y97.831 E0.13759
G1 X106.377 Y97.901 E0.14208
G1 X105.91 Y98.259 E0.16361
G1 X105.817 Y98.337 E0.16805
G1 X105.372 Y98.744 E0.19011
G1 X105.284 Y98.832 E0.19467
G1 X104.877 Y99.277 E0.21673
G1 X104.799 Y99.37 E0.22117
G1 X104.441 Y99.837 E0.2427
G1 X104.371 Y99.938 E0.2472
G1 X104.051 Y100.441 E0.26901
G1 X103.99 Y100.546 E0.27345
G1 X103.712 Y101.08 E0.29548
G1 X103.66 Y101.192 E0.29999
G1 X103.428 Y101.754 E0.32224
G1 X103.388 Y101.863 E0.32649
G1 X103.215 Y102.406 E0.34734
G1 X103.182 Y102.528 E0.35196
G1 X103.049 Y103.128 E0.37444
G1 X103.028 Y103.247 E0.37887
G1 X102.949 Y103.843 E0.40086
G1 X102.938 Y103.968 E0.40545
G1 X102.913 Y104.563 E0.42724
G1 X102.913 Y104.681 E0.43156
G1 X102.938 Y105.275 E0.45331
G1 X102.949 Y105.4 E0.4579
G1 X103.028 Y105.996 E0.4799
G1 X103.049 Y106.115 E0.48432
G1 X103.181 Y106.71 E0.50662
G1 X103.213 Y106.829 E0.51112
G1 X103.386 Y107.376 E0.53211
G1 X103.427 Y107.487 E0.53644
G1 X103.659 Y108.05 E0.55872
G1 X103.712 Y108.164 E0.56332
G1 X103.991 Y108.699 E0.5854
G1 X104.051 Y108.803 E0.58979
G1 X104.367 Y109.3 E0.61134
G1 X104.438 Y109.402 E0.61588
G1 X104.805 Y109.88 E0.63793
G1 X104.882 Y109.972 E0.64232
G1 X105.284 Y110.411 E0.6641
G1 X105.372 Y110.499 E0.66865
G1 X105.817 Y110.906 E0.69071
G1 X105.91 Y110.984 E0.69516
G1 X106.374 Y111.34 E0.71655
G1 X106.473 Y111.409 E0.72097
G1 X106.978 Y111.731 E0.74288
G1 X107.084 Y111.793 E0.74737
G1 X107.627 Y112.076 E0.76978
G1 X107.739 Y112.128 E0.77429
G1 X108.283 Y112.353 E0.79583
G1 X108.394 Y112.393 E0.80015
G1 X108.951 Y112.57 E0.82153
G1 X109.071 Y112.603 E0.82608
G1 X109.669 Y112.736 E0.8485
G1 X109.792 Y112.757 E0.85306
G1 X110.384 Y112.834 E0.8749
G1 X110.504 Y112.845 E0.87931
G1 X111.101 Y112.871 E0.90117
G1 X111.223 Y112.871 E0.90564
G1 X111.819 Y112.845 E0.92746
G1 X111.939 Y112.834 E0.93187
G1 X112.531 Y112.757 E0.95371
G1 X112.654 Y112.736 E0.95828
G1 X113.252 Y112.603 E0.98069
G1 X113.372 Y112.57 E0.98525
G1 X113.929 Y112.393 E1.00663
G1 X114.041 Y112.352 E1.01099
G1 X114.584 Y112.127 E1.0325
G1 X114.693 Y112.076 E1.0369
G1 X115.238 Y111.793 E1.05937
G1 X115.347 Y111.731 E1.06395
G1 X115.851 Y111.409 E1.08584
G1 X115.949 Y111.34 E1.09022
G1 X116.413 Y110.984 E1.11162
G1 X116.506 Y110.906 E1.11606
G1 X116.951 Y110.499 E1.13812
G1 X117.039 Y110.411 E1.14268
G1 X117.441 Y109.972 E1.16445
G1 X117.518 Y109.88 E1.16884
G1 X117.885 Y109.402 E1.19089
G1 X117.956 Y109.3 E1.19544
G1 X118.272 Y108.803 E1.21699
G1 X118.333 Y108.698 E1.22143
G1 X118.616 Y108.154 E1.24386
G1 X118.667 Y108.044 E1.2483
G1 X118.892 Y107.501 E1.2698
G1 X118.933 Y107.389 E1.27417
G1 X119.11 Y106.832 E1.29555
G1 X119.143 Y106.712 E1.3001
G1 X119.276 Y106.114 E1.32252
G1 X119.297 Y105.991 E1.32708
G1 X119.374 Y105.399 E1.34892
G1 X119.385 Y105.279 E1.35333
G1 X119.411 Y104.683 E1.37516
G1 X119.411 Y104.561 E1.37962
G1 X119.385 Y103.964 E1.40148
G1 X119.374 Y103.844 E1.40589
G1 X119.297 Y103.252 E1.42773
G1 X119.276 Y103.129 E1.4323
G1 X119.142 Y102.527 E1.45486
G1 X119.109 Y102.406 E1.45945
G1 X118.933 Y101.853 E1.48068
G1 X118.893 Y101.743 E1.48497
G1 X118.668 Y101.199 E1.5065
G1 X118.616 Y101.087 E1.51102
G1 X118.333 Y100.544 E1.53342
G1 X118.272 Y100.438 E1.5379
G1 X117.952 Y99.936 E1.55968
G1 X117.883 Y99.838 E1.56406
G1 X117.525 Y99.37 E1.58562
G1 X117.444 Y99.274 E1.59022
G1 X117.047 Y98.842 E1.61168
G1 X116.963 Y98.757 E1.61605
G1 X116.502 Y98.334 E1.63895
G1 X116.408 Y98.256 E1.64341
G1 X115.947 Y97.902 E1.66468
G1 X115.848 Y97.832 E1.66912
G1 X115.347 Y97.512 E1.69086
G1 X115.239 Y97.45 E1.69542
G1 X114.703 Y97.171 E1.71753
G1 X114.59 Y97.119 E1.72208
G1 X114.027 Y96.887 E1.74436
G1 X113.916 Y96.846 E1.74869
G1 X113.369 Y96.673 E1.76968
G1 X113.25 Y96.641 E1.77419
G1 X112.655 Y96.509 E1.79648
G1 X112.536 Y96.488 E1.8009
G1 X111.94 Y96.409 E1.8229
G1 X111.815 Y96.398 E1.82749
G1 X111.221 Y96.373 E1.84924
G1 X111.103 Y96.373 E1.85356
G1 X110.508 Y96.398 E1.87535
G1 X110.383 Y96.409 E1.87994
G1 X109.787 Y96.488 E1.90193
G1 X109.668 Y96.509 E1.90636
G0 F6000 X109.754 Y96.9
G1 F600 X109.159 Y97.032 E1.92865
G1 X109.073 Y97.055 E1.93191
G1 X108.526 Y97.229 E1.95291
G1 X108.448 Y97.257 E1.95594
G1 X107.885 Y97.489 E1.97822
G1 X107.804 Y97.527 E1.9815
G1 X107.27 Y97.805 E2.00352
G1 X107.195 Y97.848 E2.00668
G1 X106.692 Y98.168 E2.0285
G1 X106.621 Y98.218 E2.03167
G1 X106.154 Y98.576 E2.0532
G1 X106.087 Y98.632 E2.0564
G1 X105.642 Y99.039 E2.07846
G1 X105.579 Y99.102 E2.08172
G1 X105.172 Y99.547 E2.10378
G1 X105.116 Y99.614 E2.10698
G1 X104.758 Y100.081 E2.12851
G1 X104.708 Y100.152 E2.13168
G1 X104.388 Y100.655 E2.15349
G1 X104.345 Y100.73 E2.15666
G1 X104.067 Y101.264 E2.17868
G1 X104.03 Y101.344 E2.18191
G1 X103.798 Y101.906 E2.20415
G1 X103.769 Y101.984 E2.2072
G1 X103.596 Y102.527 E2.22805
G1 X103.573 Y102.615 E2.23137
G1 X103.44 Y103.215 E2.25386
G1 X103.425 Y103.3 E2.25702
G1 X103.346 Y103.896 E2.27901
G1 X103.338 Y103.985 E2.28228
G1 X103.313 Y104.58 E2.30407
G1 X103.313 Y104.664 E2.30714
G1 X103.338 Y105.258 E2.3289
G1 X103.346 Y105.347 E2.33216
G1 X103.425 Y105.943 E2.35416
G1 X103.44 Y106.029 E2.35735
G1 X103.572 Y106.624 E2.37965
G1 X103.595 Y106.709 E2.38287
G1 X103.768 Y107.256 E2.40386
G1 X103.796 Y107.335 E2.40693
G1 X104.028 Y107.898 E2.42921
G1 X104.066 Y107.979 E2.43248
G1 X104.345 Y108.514 E2.45456
G1 X104.388 Y108.589 E2.45772
G1 X104.704 Y109.086 E2.47927
G1 X104.755 Y109.158 E2.4825
G1 X105.122 Y109.636 E2.50454
G1 X105.177 Y109.702 E2.50769
G1 X105.579 Y110.141 E2.52947
G1 X105.642 Y110.204 E2.53272
G1 X106.087 Y110.611 E2.55479
G1 X106.153 Y110.666 E2.55793
G1 X106.617 Y111.022 E2.57933
G1 X106.688 Y111.072 E2.58251
G1 X107.193 Y111.394 E2.60442
G1 X107.269 Y111.438 E2.60763
G1 X107.812 Y111.721 E2.63003
G1 X107.892 Y111.758 E2.63326
G1 X108.436 Y111.983 E2.6548
G1 X108.515 Y112.012 E2.65787
G1 X109.072 Y112.189 E2.67926
G1 X109.158 Y112.212 E2.68251
G1 X109.756 Y112.345 E2.70493
G1 X109.844 Y112.361 E2.7082
G1 X110.436 Y112.438 E2.73004
G1 X110.521 Y112.445 E2.73316
G1 X111.118 Y112.471 E2.75502
G1 X111.206 Y112.471 E2.75824
G1 X111.802 Y112.445 E2.78007
G1 X111.887 Y112.438 E2.78319
G1 X112.479 Y112.361 E2.80503
G1 X112.567 Y112.345 E2.8083
G1 X113.165 Y112.212 E2.83072
G1 X113.251 Y112.189 E2.83397
G1 X113.808 Y112.012 E2.85536
G1 X113.888 Y111.983 E2.85847
G1 X114.431 Y111.758 E2.87997
G1 X114.509 Y111.721 E2.88313
G1 X115.054 Y111.438 E2.9056
G1 X115.131 Y111.394 E2.90885
G1 X115.635 Y111.072 E2.93073
G1 X115.706 Y111.022 E2.9339
G1 X116.17 Y110.666 E2.9553
G1 X116.236 Y110.611 E2.95844
G1 X116.681 Y110.204 E2.98051
G1 X116.744 Y110.141 E2.98377
G1 X117.146 Y109.702 E3.00554
G1 X117.201 Y109.636 E3.00869
G1 X117.568 Y109.158 E3.03074
G1 X117.619 Y109.086 E3.03396
G1 X117.935 Y108.589 E3.05551
G1 X117.978 Y108.514 E3.05867
G1 X118.261 Y107.97 E3.08111
G1 X118.298 Y107.891 E3.0843
G1 X118.523 Y107.348 E3.10581
G1 X118.552 Y107.268 E3.10892
G1 X118.729 Y106.711 E3.1303
G1 X118.752 Y106.625 E3.13356
G1 X118.885 Y106.027 E3.15597
G1 X118.901 Y105.939 E3.15924
G1 X118.978 Y105.347 E3.18109
G1 X118.985 Y105.262 E3.18421
G1 X119.011 Y104.666 E3.20603
G1 X119.011 Y104.578 E3.20925
G1 X118.985 Y103.981 E3.23111
G1 X118.978 Y103.896 E3.23423
G1 X118.901 Y103.304 E3.25608
G1 X118.885 Y103.216 E3.25935
G1 X118.751 Y102.614 E3.28191
G1 X118.728 Y102.528 E3.28517
G1 X118.552 Y101.975 E3.3064
G1 X118.523 Y101.896 E3.30948
G1 X118.298 Y101.352 E3.33102
G1 X118.261 Y101.272 E3.33424
G1 X117.978 Y100.729 E3.35665
G1 X117.934 Y100.653 E3.35986
G1 X117.614 Y100.151 E3.38164
G1 X117.565 Y100.081 E3.38476
G1 X117.207 Y99.613 E3.40632
G1 X117.149 Y99.544 E3.40962
G1 X116.752 Y99.112 E3.43109
G1 X116.692 Y99.052 E3.43419
G1 X116.231 Y98.629 E3.45708
G1 X116.164 Y98.573 E3.46028
G1 X115.703 Y98.219 E3.48154
G1 X115.632 Y98.169 E3.48472
G1 X115.131 Y97.849 E3.50647
G1 X115.055 Y97.805 E3.50968
G1 X114.519 Y97.526 E3.53179
G1 X114.438 Y97.488 E3.53506
G1 X113.875 Y97.256 E3.55734
G1 X113.796 Y97.228 E3.56041
G1 X113.249 Y97.055 E3.5814
G1 X113.164 Y97.032 E3.58462
G1 X112.569 Y96.9 E3.60692
G1 X112.483 Y96.885 E3.61011
G1 X111.887 Y96.806 E3.63211
G1 X111.798 Y96.798 E3.63537
G1 X111.204 Y96.773 E3.65713
G1 X111.12 Y96.773 E3.6602
G1 X110.525 Y96.798 E3.68199
G1 X110.436 Y96.806 E3.68526
G1 X109.84 Y96.885 E3.70725
G1 X109.754 Y96.9 E3.71045
G0 F6000 X109.841 Y97.29
G1 F600 X109.246 Y97.422 E3.73274
G1 X109.194 Y97.436 E3.73471
G1 X108.647 Y97.61 E3.75572
G1 X108.6 Y97.627 E3.75754
G1 X108.037 Y97.859 E3.77982
G1 X107.989 Y97.882 E3.78177
G1 X107.455 Y98.16 E3.8038
G1 X107.41 Y98.186 E3.8057
G1 X106.907 Y98.506 E3.82751
G1 X106.864 Y98.536 E3.82943
G1 X106.397 Y98.894 E3.85096
G1 X106.357 Y98.927 E3.85285
G1 X105.912 Y99.334 E3.87492
G1 X105.874 Y99.372 E3.87688
G1 X105.467 Y99.817 E3.89895
G1 X105.434 Y99.857 E3.90084
G1 X105.076 Y100.324 E3.92237
G1 X105.046 Y100.367 E3.92429
G1 X104.726 Y100.87 E3.9461
G1 X104.7 Y100.915 E3.948
G1 X104.422 Y101.449 E3.97003
G1 X104.399 Y101.497 E3.97198
G1 X104.167 Y102.059 E3.99422
G1 X104.15 Y102.106 E3.99605
G1 X103.977 Y102.649 E4.0169
G1 X103.963 Y102.701 E4.01887
G1 X103.83 Y103.301 E4.04135
G1 X103.821 Y103.352 E4.04325
G1 X103.742 Y103.948 E4.06524
G1 X103.738 Y104.002 E4.06723
G1 X103.713 Y104.597 E4.08901
G1 X103.713 Y104.647 E4.09084
G1 X103.738 Y105.241 E4.11259
G1 X103.742 Y105.295 E4.11458
G1 X103.821 Y105.891 E4.13657
G1 X103.83 Y105.942 E4.13847
G1 X103.962 Y106.537 E4.16076
G1 X103.976 Y106.588 E4.1627
G1 X104.149 Y107.135 E4.18369
G1 X104.166 Y107.183 E4.18555
G1 X104.398 Y107.746 E4.20783
G1 X104.421 Y107.794 E4.20978
G1 X104.7 Y108.329 E4.23185
G1 X104.726 Y108.374 E4.23375
G1 X105.042 Y108.871 E4.2553
G1 X105.072 Y108.914 E4.25722
G1 X105.439 Y109.392 E4.27927
G1 X105.472 Y109.432 E4.28116
G1 X105.874 Y109.871 E4.30294
G1 X105.912 Y109.909 E4.30491
G1 X106.357 Y110.316 E4.32697
G1 X106.397 Y110.349 E4.32887
G1 X106.861 Y110.705 E4.35027
G1 X106.903 Y110.735 E4.35215
G1 X107.408 Y111.057 E4.37407
G1 X107.454 Y111.083 E4.376
G1 X107.997 Y111.366 E4.3984
G1 X108.045 Y111.388 E4.40033
G1 X108.636 Y111.631 E4.42371
G1 X109.193 Y111.808 E4.4451
G1 X109.245 Y111.822 E4.44707
G1 X109.843 Y111.955 E4.46948
G1 X109.896 Y111.964 E4.47145
G1 X110.488 Y112.041 E4.49329
G1 X110.539 Y112.045 E4.49516
G1 X111.136 Y112.071 E4.51702
G1 X111.188 Y112.071 E4.51892
G1 X111.784 Y112.045 E4.54075
G1 X111.835 Y112.041 E4.54262
G1 X112.427 Y111.964 E4.56446
G1 X112.48 Y111.955 E4.56643
G1 X113.078 Y111.822 E4.58884
G1 X113.13 Y111.808 E4.59081
G1 X113.687 Y111.631 E4.6122
G1 X113.735 Y111.613 E4.61407
G1 X114.278 Y111.388 E4.63558
G1 X114.325 Y111.366 E4.63747
G1 X114.87 Y111.083 E4.65994
G1 X114.916 Y111.057 E4.66188
G1 X115.42 Y110.735 E4.68376
G1 X115.462 Y110.705 E4.68565
G1 X115.926 Y110.349 E4.70704
G1 X115.966 Y110.316 E4.70894
G1 X116.411 Y109.909 E4.731
G1 X116.449 Y109.871 E4.73297
G1 X116.851 Y109.432 E4.75475
G1 X116.884 Y109.392 E4.75664
G1 X117.251 Y108.914 E4.77869
G1 X117.281 Y108.871 E4.78061
G1 X117.597 Y108.374 E4.80216
G1 X117.623 Y108.329 E4.80406
G1 X117.906 Y107.785 E4.82649
G1 X117.928 Y107.738 E4.82839
G1 X118.153 Y107.195 E4.8499
G1 X118.171 Y107.147 E4.85177
G1 X118.348 Y106.59 E4.87316
G1 X118.362 Y106.538 E4.87513
G1 X118.495 Y105.94 E4.89754
G1 X118.504 Y105.887 E4.89951
G1 X118.581 Y105.295 E4.92135
G1 X118.585 Y105.244 E4.92322
G1 X118.611 Y104.648 E4.94504
G1 X118.611 Y104.596 E4.94695
G1 X118.585 Y103.999 E4.96881
G1 X118.581 Y103.948 E4.97068
G1 X118.504 Y103.356 E4.99252
G1 X118.495 Y103.303 E4.99449
G1 X118.361 Y102.701 E5.01705
G1 X118.347 Y102.649 E5.01902
G1 X118.171 Y102.096 E5.04026
G1 X117.928 Y101.505 E5.06363
G1 X117.906 Y101.457 E5.06557
G1 X117.623 Y100.914 E5.08797
G1 X117.597 Y100.868 E5.0899
G1 X117.277 Y100.366 E5.11168
G1 X117.248 Y100.324 E5.11355
G1 X116.89 Y99.856 E5.13511
G1 X116.855 Y99.815 E5.13708
G1 X116.458 Y99.383 E5.15855
G1 X116.422 Y99.347 E5.16041
G1 X115.961 Y98.924 E5.1833
G1 X115.92 Y98.89 E5.18525
G1 X115.459 Y98.536 E5.20651
G1 X115.417 Y98.506 E5.2084
G1 X114.916 Y98.186 E5.23015
G1 X114.87 Y98.16 E5.23208
G1 X114.334 Y97.881 E5.25419
G1 X114.286 Y97.858 E5.25614
G1 X113.723 Y97.626 E5.27842
G1 X113.675 Y97.609 E5.28028
G1 X113.128 Y97.436 E5.30127
G1 X113.077 Y97.422 E5.3032
G1 X112.482 Y97.29 E5.3255
G1 X112.431 Y97.281 E5.3274
G1 X111.835 Y97.202 E5.34939
G1 X111.781 Y97.198 E5.35137
G1 X111.187 Y97.173 E5.37313
G1 X111.137 Y97.173 E5.37496
G1 X110.542 Y97.198 E5.39674
G1 X110.488 Y97.202 E5.39872
G1 X109.892 Y97.281 E5.42072
G1 X109.841 Y97.29 E5.42262
G0 F6000 X109.928 Y97.681
G1 F600 X109.315 Y97.817 E5.44559
G1 X108.753 Y97.997 E5.46718
G1 X108.174 Y98.237 E5.49011
G1 X107.625 Y98.523 E5.51276
G1 X107.107 Y98.853 E5.53523
G1 X106.627 Y99.222 E5.55738
G1 X106.169 Y99.642 E5.58011
G1 X105.751 Y100.1 E5.6028
G1 X105.383 Y100.582 E5.62499
G1 X105.055 Y101.1 E5.64742
G1 X104.769 Y101.65 E5.6701
G1 X104.531 Y102.227 E5.69293
G1 X104.358 Y102.77 E5.71378
G1 X104.218 Y103.405 E5.73757
G1 X104.137 Y104.019 E5.76023
G1 X104.112 Y104.63 E5.78261
G1 X104.139 Y105.242 E5.80502
G1 X104.221 Y105.855 E5.82765
G1 X104.357 Y106.467 E5.85058
G1 X104.536 Y107.03 E5.8722
G1 X104.776 Y107.609 E5.89513
G1 X105.063 Y108.159 E5.91782
G1 X105.389 Y108.671 E5.94003
G1 X105.767 Y109.162 E5.9627
G1 X106.182 Y109.614 E5.98515
G1 X106.64 Y110.032 E6.00784
G1 X107.118 Y110.398 E6.02986
G1 X107.623 Y110.72 E6.05178
G1 X108.198 Y111.019 E6.07549
G1 X108.757 Y111.25 E6.09762
G1 X109.314 Y111.427 E6.119
G1 X109.947 Y111.567 E6.14272
G1 X110.556 Y111.646 E6.16519
G1 X111.171 Y111.672 E6.18771
G1 X111.784 Y111.644 E6.21016
G1 X112.393 Y111.564 E6.23263
G1 X113.009 Y111.427 E6.25572
G1 X113.582 Y111.244 E6.27772
G1 X114.125 Y111.019 E6.29923
G1 X114.701 Y110.72 E6.32297
G1 X115.219 Y110.388 E6.34548
G1 X115.696 Y110.021 E6.3675
G1 X116.154 Y109.601 E6.39024
G1 X116.567 Y109.149 E6.41264
G1 X116.944 Y108.656 E6.43534
G1 X117.268 Y108.144 E6.45751
G1 X117.559 Y107.585 E6.48057
G1 X117.79 Y107.026 E6.5027
G1 X117.967 Y106.469 E6.52408
G1 X118.107 Y105.836 E6.5478
G1 X118.186 Y105.227 E6.57027
G1 X118.212 Y104.613 E6.59275
G1 X118.184 Y103.999 E6.61524
G1 X118.104 Y103.39 E6.63771
G1 X117.966 Y102.77 E6.66095
G1 X117.784 Y102.202 E6.68277
G1 X117.551 Y101.642 E6.70496
G1 X117.26 Y101.083 E6.72802
G1 X116.93 Y100.567 E6.75043
G1 X116.572 Y100.099 E6.77198
G1 X116.151 Y99.642 E6.79472
G1 X115.677 Y99.207 E6.81826
G1 X115.202 Y98.843 E6.84015
G1 X114.701 Y98.523 E6.8619
G1 X114.133 Y98.228 E6.88532
G1 X113.554 Y97.99 E6.90822
G1 X112.99 Y97.813 E6.92985
G1 X112.378 Y97.678 E6.95277
G1 X111.764 Y97.597 E6.97543
G1 X111.17 Y97.572 E6.99718
G1 X110.559 Y97.597 E7.01956
G1 X109.928 Y97.681 E7.04285
G0 F6000 X109.589 Y95.708
G1 F600 X110.367 Y95.608 E7.07155
G1 X111.157 Y95.574 E7.10048
G1 X111.942 Y95.608 E7.12922
G1 X112.729 Y95.709 E7.15825
