;FLAVOR:Marlin
;TIME:1629
;Filament used: 0.896457m
;Layer height: 0.2
;MINX:82.645
;MINY:50.669
;MINZ:0.2
;MAXX:137.005
;MAXY:141.044
;MAXZ:8.92
;Generated with Cura_SteamEngine 4.8.0
M140 S60
M105
M190 S60
M104 S220
M105
M109 S220
M82 ;absolute extrusion mode
; Ender 3 Custom Start G-code
G92 E0 ; Reset Extruder
G28 ; Home all axes
G1 Z2.0 F3000 ; Move Z Axis up little to prevent scratching of Heat Bed
G1 X0.1 Y20 Z0.3 F5000.0 ; Move to start position
G1 X0.1 Y200.0 Z0.3 F1500.0 E15 ; Draw the first line
G1 X0.4 Y200.0 Z0.3 F5000.0 ; Move to side a little
G1 X0.4 Y20 Z0.3 F1500.0 E30 ; Draw the second line
G92 E0 ; Reset Extruder
G1 Z2.0 F3000 ; Move Z Axis up little to prevent scratching of Heat Bed
G1 X5 Y20 Z0.3 F5000.0 ; Move over to prevent blob squish
G92 E0
G92 E0
G1 F1500 E-6.5
;LAYER_COUNT:41
;LAYER:0
M107
;MESH:suspension.stl
G0 F6000 X84.106 Y99.761 Z0.2
;TYPE:WALL-OUTER
G1 F1500 E0
G1 F600 X83.86 Y99.761 E0.009
G1 X83.86 Y91.951 E0.29474
G1 X84.105 Y91.951 E0.3037
G1 X84.31 Y86.868 E0.48982
G1 X84.741 Y81.482 E0.6875
G1 X84.86 Y81.494 E0.69188
G1 X84.429 Y86.871 E0.88923
G1 X84.19 Y92.859 E1.10849
G1 X84.19 Y98.853 E1.32778
G1 X84.429 Y104.842 E1.54707
G1 X84.86 Y110.219 E1.74443
G1 X84.74 Y110.231 E1.74884
G1 X84.31 Y104.845 E1.94652
G1 X84.106 Y99.761 E2.13267
G1 F1500 E-4.36733
G0 F6000 X84.018 Y99.563
G0 X84.071 Y92.857
G0 X85.054 Y92.888
G0 X94.495 Y92.857
G0 X95.48 Y92.857
G0 X95.527 Y92.15
G0 X95.608 Y91.951
G1 F1500 E2.13267
G1 F600 X95.634 Y90.526 E2.18482
G1 X95.918 Y85.215 E2.3794
G1 X96.389 Y79.916 E2.57404
G1 X96.977 Y75.216 E2.74733
G1 X97.096 Y75.232 E2.75173
G1 X96.509 Y79.918 E2.92451
G1 X96.037 Y85.22 E3.11926
G1 X95.754 Y90.535 E3.31399
G1 X95.661 Y95.914 E3.51081
G1 X95.754 Y101.178 E3.70343
G1 X96.037 Y106.492 E3.89813
G1 X96.509 Y111.795 E4.09291
G1 X97.096 Y116.481 E4.26569
G1 X96.976 Y116.498 E4.27013
G1 X96.389 Y111.796 E4.44349
G1 X95.918 Y106.498 E4.63809
G1 X95.635 Y101.184 E4.83278
G1 X95.607 Y99.761 E4.88485
G1 X95.36 Y99.761 E4.89389
G1 X95.36 Y91.951 E5.17963
G1 X95.608 Y91.951 E5.1887
G1 F1500 E-1.3113
G0 F6000 X95.527 Y92.15
G0 X96.593 Y92.081
G0 X105.995 Y92.065
G0 X106.98 Y92.065
G0 X107.111 Y91.951
G1 F1500 E5.1887
G1 F600 X107.141 Y90.329 E5.24806
G1 X107.447 Y84.822 E5.44985
G1 X107.953 Y79.329 E5.65166
G1 X108.663 Y73.852 E5.85372
G1 X109.477 Y68.985 E6.03426
G1 X109.595 Y69.007 E6.03865
G1 X108.783 Y73.858 E6.2186
G1 X108.073 Y79.332 E6.42055
G1 X107.566 Y84.827 E6.62245
G1 X107.261 Y90.338 E6.82438
G1 X107.161 Y95.914 E7.02842
G1 X107.261 Y101.374 E7.22821
G1 X107.566 Y106.885 E7.43015
G1 X108.073 Y112.381 E7.63208
G1 X108.783 Y117.854 E7.83399
G1 X109.595 Y122.706 E8.01398
G1 X109.476 Y122.728 E8.0184
G1 X108.663 Y117.86 E8.19897
G1 X107.953 Y112.383 E8.40103
G1 X107.447 Y106.89 E8.60285
G1 X107.142 Y101.382 E8.80468
G1 X107.11 Y99.761 E8.86399
G1 X106.86 Y99.761 E8.87314
G1 X106.86 Y91.951 E9.15888
G1 X107.111 Y91.951 E9.16806
G1 F1500 E2.66806
G0 F6000 X107.029 Y92.15
G0 X108.096 Y92.081
G0 X117.495 Y92.065
G0 X118.48 Y92.065
G0 X118.613 Y91.951
G1 F1500 E9.16806
G1 F600 X118.646 Y90.198 E9.23221
G1 X118.966 Y84.561 E9.43878
G1 X119.497 Y78.939 E9.64538
G1 X120.243 Y73.318 E9.85283
G1 X121.198 Y67.745 E10.0597
G1 X122.238 Y62.801 E10.24454
G1 X122.355 Y62.828 E10.24893
G1 X121.316 Y67.77 E10.43369
G1 X120.36 Y73.34 E10.64046
G1 X119.617 Y78.94 E10.84714
G1 X119.086 Y84.566 E11.05389
G1 X118.766 Y90.207 E11.2606
G1 X118.661 Y95.914 E11.46943
G1 X118.766 Y101.506 E11.67406
G1 X119.086 Y107.147 E11.88077
G1 X119.617 Y112.772 E12.08748
G1 X120.36 Y118.373 E12.2942
G1 X121.316 Y123.943 E12.50096
G1 X122.355 Y128.884 E12.68569
G1 X122.237 Y128.911 E12.69012
G1 X121.198 Y123.968 E12.87491
G1 X120.243 Y118.394 E13.08182
G1 X119.497 Y112.774 E13.28923
G1 X118.966 Y107.152 E13.49584
G1 X118.647 Y101.513 E13.70248
G1 X118.612 Y99.761 E13.76659
G1 X118.36 Y99.761 E13.77581
G1 X118.36 Y91.951 E14.06155
G1 X118.613 Y91.951 E14.0708
G1 F1500 E7.5708
G0 F6000 X118.531 Y92.15
G0 X119.597 Y92.082
G0 X132.863 Y57.062
G0 X133.172 Y56.164
G1 F1500 E14.0708
G1 F600 X133.932 Y56.225 E14.0987
G1 X134.668 Y56.039 E14.12647
G1 X135.304 Y55.623 E14.15428
G1 X135.773 Y55.024 E14.18211
G1 X136.02 Y54.303 E14.20999
G1 X136.02 Y53.543 E14.2378
G1 X135.773 Y52.822 E14.26568
G1 X135.305 Y52.223 E14.29349
G1 X134.668 Y51.806 E14.32135
G1 X133.931 Y51.62 E14.34916
G1 X133.172 Y51.682 E14.37702
G1 X132.476 Y51.987 E14.40482
G1 X131.917 Y52.504 E14.43268
G1 X131.555 Y53.172 E14.46047
G1 X131.428 Y53.923 E14.48834
G1 X131.555 Y54.674 E14.51621
G1 X131.917 Y55.343 E14.54404
G1 X132.476 Y55.857 E14.57182
G1 X133.172 Y56.164 E14.59965
G1 F1500 E8.09965
G0 F6000 X133.018 Y57.101
G0 X132.43 Y56.913
G0 X131.957 Y56.657
G0 X131.526 Y56.322
G0 X131.165 Y55.929
G0 X130.868 Y55.475
G0 X130.653 Y54.985
G0 X130.519 Y54.46
G0 X130.475 Y53.923
G0 X130.519 Y53.387
G0 X130.654 Y52.859
G0 X130.867 Y52.371
G0 X131.165 Y51.916
G0 X131.526 Y51.523
G0 X131.957 Y51.188
G0 X132.43 Y50.932
G0 X132.936 Y50.758
G0 X133.474 Y50.669
G0 X134.007 Y50.669
G0 X134.545 Y50.758
G0 X135.05 Y50.932
G0 X135.523 Y51.188
G0 X135.955 Y51.522
G0 X136.316 Y51.916
G0 X136.613 Y52.37
G0 X136.828 Y52.862
G0 X136.961 Y53.386
G0 X137.005 Y53.923
G0 X137.005 Y137.79
G0 X136.961 Y138.327
G0 X136.828 Y138.851
G0 X136.613 Y139.343
G0 X136.316 Y139.797
G0 X135.954 Y140.19
G0 X135.523 Y140.524
G0 X135.05 Y140.78
G0 X134.541 Y140.956
G0 X134.013 Y141.044
G0 X133.468 Y141.044
G0 X132.941 Y140.956
G0 X132.43 Y140.78
G0 X131.957 Y140.524
G0 X131.525 Y140.19
G0 X131.165 Y139.797
G0 X130.867 Y139.342
G0 X130.654 Y138.854
G0 X130.519 Y138.326
G0 X130.475 Y137.79
G0 X130.519 Y137.254
G0 X130.654 Y136.726
G0 X130.867 Y136.238
G0 X131.165 Y135.783
G0 X131.529 Y135.387
G0 X131.953 Y135.057
G0 X132.429 Y134.8
G0 X132.941 Y134.624
G0 X134.243 Y134.436
G0 X134.318 Y139.104
G0 X134.67 Y139.907
G1 F1500 E14.59965
G1 F600 X135.305 Y139.489 E14.62747
G1 X135.773 Y138.891 E14.65525
G1 X136.02 Y138.17 E14.68313
G1 X136.02 Y137.41 E14.71094
G1 X135.773 Y136.689 E14.73882
G1 X135.305 Y136.09 E14.76663
G1 X134.668 Y135.673 E14.79449
G1 X133.931 Y135.487 E14.8223
G1 X133.172 Y135.549 E14.85016
G1 X132.476 Y135.855 E14.87797
G1 X131.917 Y136.372 E14.90583
G1 X131.555 Y137.039 E14.9336
G1 X131.428 Y137.79 E14.96146
G1 X131.555 Y138.541 E14.98933
G1 X131.917 Y139.208 E15.01709
G1 X132.476 Y139.725 E15.04495
G1 X133.172 Y140.031 E15.07277
G1 X133.931 Y140.093 E15.10063
G1 X134.67 Y139.907 E15.12851
G1 F1500 E8.62851
G0 F6000 X134.318 Y139.104
G0 X133.95 Y134.613
G0 X133.786 Y132.86
G0 X131.091 Y99.63
G0 X130.113 Y99.647
G0 X130.106 Y99.761
G1 F1500 E15.12851
G1 F600 X129.86 Y99.761 E15.13751
G1 X129.86 Y91.951 E15.42325
G1 X130.103 Y91.951 E15.43214
G1 X130.124 Y91.121 E15.46251
G1 X130.133 Y90.541 E15.48374
G1 X130.416 Y85.246 E15.67774
G1 X130.884 Y79.962 E15.87182
G1 X131.54 Y74.692 E16.06611
G1 X132.385 Y69.434 E16.26095
G1 X133.411 Y64.238 E16.45472
G1 X134.625 Y59.06 E16.6493
G1 X135.295 Y56.592 E16.74287
G1 X134.771 Y56.098 E16.76921
G1 X134.333 Y56.246 E16.78613
G1 X133.938 Y56.312 E16.80078
G1 X133.543 Y56.312 E16.81523
G1 X133.149 Y56.247 E16.82984
G1 X132.779 Y56.12 E16.84415
G1 X132.432 Y55.932 E16.85859
G1 X132.111 Y55.682 E16.87348
G1 X131.848 Y55.396 E16.88769
G1 X131.631 Y55.063 E16.90223
G1 X131.473 Y54.705 E16.91655
G1 X131.374 Y54.315 E16.93127
G1 X131.342 Y53.923 E16.94566
G1 X131.374 Y53.532 E16.96002
G1 X131.474 Y53.139 E16.97485
G1 X131.631 Y52.782 E16.98912
G1 X131.848 Y52.449 E17.00366
G1 X132.111 Y52.163 E17.01788
G1 X132.432 Y51.913 E17.03276
G1 X132.779 Y51.725 E17.0472
G1 X133.149 Y51.598 E17.06151
G1 X133.543 Y51.533 E17.07612
G1 X133.938 Y51.533 E17.09058
G1 X134.332 Y51.598 E17.10518
G1 X134.701 Y51.725 E17.11946
G1 X135.048 Y51.913 E17.1339
G1 X135.37 Y52.163 E17.14882
G1 X135.633 Y52.449 E17.16303
G1 X135.85 Y52.782 E17.17757
G1 X136.008 Y53.14 E17.19189
G1 X136.106 Y53.529 E17.20657
G1 X136.138 Y53.923 E17.22103
G1 X136.106 Y54.316 E17.23545
G1 X136.008 Y54.704 E17.2501
G1 X135.812 Y55.149 E17.26789
G1 X134.741 Y59.086 E17.41716
G1 X133.53 Y64.253 E17.61132
G1 X132.503 Y69.459 E17.80546
G1 X131.661 Y74.698 E17.9996
G1 X131.004 Y79.965 E18.19379
G1 X130.535 Y85.251 E18.38794
G1 X130.253 Y90.55 E18.58209
G1 X130.161 Y95.914 E18.77836
G1 X130.253 Y101.162 E18.9704
G1 X130.535 Y106.461 E19.16454
G1 X131.004 Y111.747 E19.3587
G1 X131.661 Y117.014 E19.55289
G1 X132.503 Y122.253 E19.74702
G1 X133.53 Y127.46 E19.9412
G1 X134.741 Y132.627 E20.13536
G1 X135.812 Y136.563 E20.2846
G1 X136.008 Y137.009 E20.30242
G1 X136.106 Y137.396 E20.31703
G1 X136.138 Y137.79 E20.33149
G1 X136.106 Y138.184 E20.34595
G1 X136.008 Y138.573 E20.36063
G1 X135.85 Y138.931 E20.37495
G1 X135.635 Y139.261 E20.38936
G1 X135.367 Y139.551 E20.4038
G1 X135.048 Y139.799 E20.41859
G1 X134.7 Y139.987 E20.43306
G1 X134.327 Y140.116 E20.4475
G1 X133.943 Y140.18 E20.46174
G1 X133.538 Y140.18 E20.47656
G1 X133.154 Y140.116 E20.4908
G1 X132.779 Y139.987 E20.50531
G1 X132.432 Y139.799 E20.51975
G1 X132.11 Y139.549 E20.53466
G1 X131.848 Y139.264 E20.54883
G1 X131.631 Y138.931 E20.56337
G1 X131.474 Y138.574 E20.57764
G1 X131.374 Y138.181 E20.59247
G1 X131.342 Y137.79 E20.60683
G1 X131.374 Y137.399 E20.62118
G1 X131.474 Y137.006 E20.63602
G1 X131.631 Y136.649 E20.65028
G1 X131.848 Y136.316 E20.66483
G1 X132.114 Y136.027 E20.6792
G1 X132.428 Y135.782 E20.69377
G1 X132.778 Y135.593 E20.70832
G1 X133.154 Y135.464 E20.72286
G1 X133.538 Y135.4 E20.73711
G1 X133.943 Y135.4 E20.75192
G1 X134.326 Y135.465 E20.76614
G1 X134.77 Y135.615 E20.78328
G1 X135.294 Y135.122 E20.80961
G1 X134.625 Y132.652 E20.90323
G1 X133.411 Y127.475 E21.09777
G1 X132.385 Y122.278 E21.29158
G1 X131.54 Y117.021 E21.48638
G1 X130.884 Y111.75 E21.68072
G1 X130.416 Y106.466 E21.8748
G1 X130.134 Y101.169 E22.06887
G1 X130.106 Y99.761 E22.12039
G1 F1500 E15.62039
;MESH:NONMESH
G0 F300 X130.106 Y99.761 Z0.44
G0 F6000 X130.025 Y99.561
G0 X129.974 Y92.065
G0 X128.995 Y92.065
G0 X123.362 Y62.187
G0 X121.583 Y61.774
G0 X108.781 Y67.988
G0 X96.239 Y74.25
G0 X85.718 Y81.611
G0 X84.806 Y81.539
;TIME_ELAPSED:74.635548
;LAYER:1
;TYPE:WALL-INNER
;MESH:suspension.stl
G1 F1500 E22.12039
G1 X84.379 Y86.868 E22.33376
G1 X84.174 Y92.011 E22.5392
G1 X84.14 Y92.858 E22.57303
G1 X84.14 Y98.854 E22.81234
G1 X84.173 Y99.704 E22.84629
G1 X84.379 Y104.845 E23.05165
G1 X84.663 Y108.379 E23.19315
G1 X84.806 Y110.173
G1 X84.736 Y110.18
G1 X84.643 Y110.189
;TYPE:WALL-INNER
;BRIDGE
M106 S255
G1 F600 X84.216 Y104.85 E23.25418
G1 X84.011 Y99.761 E23.3123
;TYPE:WALL-INNER
M107
G1 F750 X84.009 Y99.711 E23.31393
G1 F1500 X83.91 Y99.711 E23.31788
G1 X83.91 Y98.854 E23.33907
G1 X83.91 Y92.858 E23.47702
G1 X83.91 Y92.001
G1 X84.009 Y92.001
G1 X84.011 Y91.951
;TYPE:WALL-INNER
;BRIDGE
M106 S255
G1 F600 X84.215 Y86.862 E23.53565
G1 X84.644 Y81.523 E23.59705
;TYPE:WALL-INNER
M107
G1 F1500 X84.737 Y81.532 E23.60078
G1 X84.806 Y81.539 E23.60355
G0 F7500 X85.236 Y81.18
;TYPE:WALL-OUTER
G1 F900 X84.778 Y86.892 E23.83226
G1 X84.54 Y92.866 E24.07088
G1 X84.54 Y98.846 E24.30956
G1 X84.778 Y104.821 E24.54822
G1 X85.236 Y110.532 E24.77689
G1 X84.768 Y110.579 E24.79567
G1 X84.277 Y110.628 E24.81536
;TYPE:WALL-OUTER
;BRIDGE
M106 S255
G1 F600 X83.817 Y104.882 E24.97641
G1 X83.625 Y100.111 E25.10981
;TYPE:WALL-OUTER
M107
G1 F900 X83.51 Y100.111 E25.1144
G1 X83.51 Y99.761 E25.12837
G1 X83.51 Y91.951 E25.44008
G1 X83.51 Y91.601 E25.45405
G1 X83.625 Y91.601 E25.45864
;TYPE:WALL-OUTER
;BRIDGE
M106 S255
G1 F600 X83.816 Y86.83 E25.59204
G1 X84.278 Y81.084 E25.7531
;TYPE:WALL-OUTER
M107
G1 F900 X84.769 Y81.133 E25.77279
G1 X85.236 Y81.18 E25.79152
G0 F7500 X84.835 Y81.625
G1 F1500 E19.29152
G0 F7500 X85.006 Y81.371
G0 X86.081 Y81.456
G0 X95.037 Y79.789
G0 X96.116 Y79.884
G0 X97.04 Y75.274
;TYPE:WALL-INNER
G1 F1500 E25.79152
G1 X96.459 Y79.913 E25.97812
G1 X95.987 Y85.216 E26.19061
G1 X95.704 Y90.533 E26.40313
G1 X95.678 Y92.005 E26.46189
G1 X95.61 Y95.856 E26.61561
G1 X95.678 Y99.708 E26.76938
G1 X95.704 Y101.18 E26.82814
G1 X95.987 Y106.496 E27.04061
G1 X96.459 Y111.8 E27.25314
G1 X97.04 Y116.437 E27.43966
G1 X96.971 Y116.447 E27.44245
G1 X96.879 Y116.46 E27.44615
;TYPE:WALL-INNER
;BRIDGE
M106 S255
G1 F600 X96.299 Y111.821 E27.49907
;TYPE:WALL-INNER
M107
G1 F1500 X96.297 Y111.806 E27.49968
;TYPE:WALL-INNER
;BRIDGE
M106 S255
G1 F600 X95.824 Y106.503 E27.56019
G1 X95.541 Y101.187 E27.6206
;TYPE:WALL-INNER
M107
G1 F1500 X95.515 Y99.761 E27.6439
G1 X95.514 Y99.711 E27.64471
G1 X95.41 Y99.711 E27.64887
G1 X95.41 Y95.856 E27.73912
G1 X95.41 Y92.001 E27.82939
G1 X95.513 Y92.001 E27.8335
G1 X95.514 Y91.951 E27.83433
G1 X95.54 Y90.524 E27.85803
;TYPE:WALL-INNER
;BRIDGE
M106 S255
G1 F600 X95.824 Y85.209 E27.91912
G1 X96.296 Y79.907 E27.97998
;TYPE:WALL-INNER
M107
G1 F1500 X96.297 Y79.893 E27.98037
;TYPE:WALL-INNER
;BRIDGE
M106 S255
G1 F600 X96.878 Y75.251 E28.03395
;TYPE:WALL-INNER
M107
G1 F1500 X96.971 Y75.264 E28.0377
G1 X97.04 Y75.274 E28.04048
G0 F7500 X97.486 Y74.934
;TYPE:WALL-OUTER
G1 F900 X96.857 Y79.956 E28.24249
G1 X96.386 Y85.244 E28.45438
G1 X96.104 Y90.547 E28.66633
G1 X96.01 Y95.856 E28.87826
G1 X96.104 Y101.166 E29.09023
G1 X96.386 Y106.468 E29.30214
G1 X96.857 Y111.757 E29.51407
G1 X97.486 Y116.778 E29.71604
G1 X97.02 Y116.844 E29.73482
G1 X96.532 Y116.913 E29.75449
;TYPE:WALL-OUTER
;BRIDGE
M106 S255
G1 F600 X95.9 Y111.856 E29.89688
G1 X95.426 Y106.539 E30.04601
G1 X95.141 Y101.194 E30.19556
;TYPE:WALL-OUTER
M107
G1 F900 X95.121 Y100.111 E30.23879
G1 X95.01 Y100.111 E30.24322
G1 X95.01 Y99.761 E30.25719
G1 X95.01 Y91.951 E30.5689
G1 X95.01 Y91.601 E30.58287
G1 X95.12 Y91.601 E30.58726
G1 X95.14 Y90.517 E30.63054
;TYPE:WALL-OUTER
;BRIDGE
M106 S255
G1 F600 X95.426 Y85.174 E30.78002
G1 X95.899 Y79.857 E30.92916
G1 X96.532 Y74.797 E31.07163
;TYPE:WALL-OUTER
M107
G1 F900 X97.021 Y74.867 E31.09135
G1 X97.486 Y74.934 E31.1101
G0 F7500 X97.065 Y75.361
G1 F1500 E24.6101
G0 F7500 X97.249 Y75.116
G0 X98.317 Y75.248
G0 X107.321 Y73.641
G0 X108.399 Y73.76
G0 X109.538 Y69.047
;TYPE:WALL-INNER
G1 F1500 E31.1101
G1 X108.74 Y73.818 E31.30316
G1 X108.734 Y73.851 E31.3045
G1 X108.023 Y79.326 E31.52486
G1 X107.516 Y84.823 E31.74519
G1 X107.211 Y90.336 E31.96556
G1 X107.181 Y92.005 E32.03218
G1 X107.11 Y95.856 E32.18591
G1 X107.18 Y99.708 E32.33968
G1 X107.211 Y101.376 E32.40626
G1 X107.516 Y106.889 E32.62663
G1 X108.022 Y112.377 E32.8466
G1 X108.023 Y112.387 E32.847
G1 X108.734 Y117.861 E33.06732
G1 X108.737 Y117.881 E33.06812
G1 X109.538 Y122.666 E33.26176
G1 X109.468 Y122.679 E33.2646
G1 X109.376 Y122.697 E33.26834
;TYPE:WALL-INNER
;BRIDGE
M106 S255
G1 F600 X108.576 Y117.908 E33.32399
;TYPE:WALL-INNER
M107
G1 F1500 X108.573 Y117.882 E33.32448
;TYPE:WALL-INNER
;BRIDGE
M106 S255
G1 F600 X107.863 Y112.408 E33.38689
;TYPE:WALL-INNER
M107
G1 F1500 X107.86 Y112.392 E33.38722
;TYPE:WALL-INNER
;BRIDGE
M106 S255
G1 F600 X107.353 Y106.895 E33.44992
G1 X107.048 Y101.385 E33.51252
;TYPE:WALL-INNER
M107
G1 F1500 X107.018 Y99.761 E33.53899
G1 X107.017 Y99.711 E33.5398
G1 X106.91 Y99.711 E33.54407
G1 X106.91 Y95.856 E33.63472
G1 X106.91 Y92.001 E33.72556
G1 X107.016 Y92.001 E33.7298
G1 X107.017 Y91.951 E33.73062
G1 X107.047 Y90.327 E33.75757
;TYPE:WALL-INNER
;BRIDGE
M106 S255
G1 F600 X107.353 Y84.817 E33.82094
G1 X107.86 Y79.32 E33.8841
;TYPE:WALL-INNER
M107
G1 F1500 X107.861 Y79.306 E33.88449
;TYPE:WALL-INNER
;BRIDGE
M106 S255
G1 F600 X108.572 Y73.831 E33.9475
;TYPE:WALL-INNER
M107
G1 F1500 X108.578 Y73.791 E33.94825
;TYPE:WALL-INNER
;BRIDGE
M106 S255
G1 F600 X109.377 Y69.017 E34.00386
;TYPE:WALL-INNER
M107
G1 F1500 X109.468 Y69.034 E34.00755
G1 X109.538 Y69.047 E34.0104
G0 F7500 X109.998 Y68.726
;TYPE:WALL-OUTER
G1 F900 X109.13 Y73.91 E34.22018
G1 X108.421 Y79.37 E34.43993
G1 X107.915 Y84.852 E34.65966
G1 X107.611 Y90.351 E34.87947
G1 X107.51 Y95.856 E35.09922
G1 X107.611 Y101.361 E35.31898
G1 X107.915 Y106.86 E35.53879
G1 X108.421 Y112.343 E35.75856
G1 X109.13 Y117.802 E35.97827
G1 X109.998 Y122.987 E36.18809
G1 X109.534 Y123.074 E36.20693
G1 X109.048 Y123.165 E36.22667
