;FLAVOR:Marlin
;TIME:5257
;Filament used: 3.84582m
;Layer height: 0.2
;MINX:76.166
;MINY:76.166
;MINZ:0.2
;MAXX:143.834
;MAXY:143.834
;MAXZ:17.36
;Generated with Cura_SteamEngine 4.8.0
M140 S70
M105
M190 S70
M104 S240
M105
M109 S240
M82 ;absolute extrusion mode
; Ender 3 Custom Start G-code
G92 E0 ; Reset Extruder
G28 ; Home all axes
G1 Z2.0 F3000 ; Move Z Axis up little to prevent scratching of Heat Bed
G1 X0.1 Y20 Z0.3 F5000.0 ; Move to start position
G1 X0.1 Y200.0 Z0.3 F1500.0 E15 ; Draw the first line
G1 X0.4 Y200.0 Z0.3 F5000.0 ; Move to side a little
G1 X0.4 Y20 Z0.3 F1500.0 E30 ; Draw the second line
G92 E0 ; Reset Extruder
G1 Z2.0 F3000 ; Move Z Axis up little to prevent scratching of Heat Bed
G1 X5 Y20 Z0.3 F5000.0 ; Move over to prevent blob squish
G92 E0
G92 E0
;LAYER_COUNT:95
;LAYER:0
M107
G0 F6000 X87.195 Y84.969 Z0.2
;TYPE:SKIRT
G1 F1200 X87.632 Y84.633 E0.01833
G1 X88.113 Y84.365 E0.03665
G1 X88.628 Y84.168 E0.05499
G1 X88.706 Y84.151 E0.05764
G1 X89.053 Y83.739 E0.07556
G1 X89.329 Y83.484 E0.08806
G1 X91.441 Y81.712 E0.17975
G1 X91.887 Y81.389 E0.19807
G1 X92.376 Y81.135 E0.21639
G1 X92.896 Y80.953 E0.23472
G1 X93.437 Y80.849 E0.25304
G1 X93.516 Y80.845 E0.25567
G1 X93.926 Y80.502 E0.27345
G1 X94.247 Y80.295 E0.28616
G1 X96.637 Y78.917 E0.37791
G1 X97.133 Y78.677 E0.39624
G1 X97.658 Y78.511 E0.41455
G1 X98.202 Y78.424 E0.43288
G1 X98.753 Y78.415 E0.45121
G1 X98.833 Y78.426 E0.45389
G1 X99.296 Y78.16 E0.47165
G1 X99.642 Y78.014 E0.48414
G1 X102.233 Y77.07 E0.57586
G1 X102.763 Y76.919 E0.59419
G1 X103.309 Y76.847 E0.61251
G1 X103.86 Y76.854 E0.63084
G1 X104.404 Y76.941 E0.64916
G1 X104.486 Y76.967 E0.65202
G1 X104.988 Y76.786 E0.66977
G1 X105.354 Y76.702 E0.68226
G1 X108.071 Y76.222 E0.77403
G1 X108.619 Y76.166 E0.79235
G1 X109.17 Y76.189 E0.81069
G1 X109.711 Y76.292 E0.82901
G1 X110.232 Y76.472 E0.84734
G1 X110.305 Y76.51 E0.85008
G1 X110.83 Y76.419 E0.8678
G1 X111.207 Y76.4 E0.88035
G1 X113.968 Y76.4 E0.97219
G1 X114.518 Y76.44 E0.99053
G1 X115.056 Y76.559 E1.00885
G1 X115.571 Y76.755 E1.02718
G1 X116.052 Y77.023 E1.0455
G1 X116.116 Y77.072 E1.04818
G1 X116.653 Y77.074 E1.06604
G1 X117.025 Y77.121 E1.07851
G1 X119.741 Y77.6 E1.17024
G1 X120.275 Y77.735 E1.18856
G1 X120.784 Y77.945 E1.20687
G1 X121.258 Y78.227 E1.22521
G1 X121.685 Y78.575 E1.24354
G1 X121.739 Y78.633 E1.24617
G1 X122.263 Y78.727 E1.26388
G1 X122.627 Y78.839 E1.27654
G1 X125.22 Y79.783 E1.36833
G1 X125.723 Y80.009 E1.38667
G1 X126.188 Y80.305 E1.405
G1 X126.605 Y80.665 E1.42332
G1 X126.965 Y81.081 E1.44162
G1 X127.009 Y81.149 E1.44431
G1 X127.507 Y81.331 E1.46195
G1 X127.845 Y81.504 E1.47458
G1 X130.236 Y82.883 E1.56638
G1 X130.692 Y83.192 E1.5847
G1 X131.098 Y83.564 E1.60302
G1 X131.447 Y83.991 E1.62136
G1 X131.73 Y84.464 E1.63969
G1 X131.763 Y84.544 E1.64257
G1 X132.218 Y84.808 E1.66007
G1 X132.523 Y85.038 E1.67277
G1 X134.636 Y86.811 E1.76451
G1 X135.031 Y87.195 E1.78284
G1 X135.367 Y87.632 E1.80117
G1 X135.635 Y88.113 E1.81949
G1 X135.832 Y88.628 E1.83783
G1 X135.849 Y88.706 E1.84048
G1 X136.261 Y89.053 E1.8584
G1 X136.516 Y89.329 E1.87089
G1 X138.288 Y91.441 E1.96259
G1 X138.611 Y91.887 E1.9809
G1 X138.865 Y92.376 E1.99923
G1 X139.047 Y92.896 E2.01756
G1 X139.151 Y93.437 E2.03588
G1 X139.155 Y93.516 E2.03851
G1 X139.498 Y93.926 E2.05629
G1 X139.705 Y94.247 E2.06899
G1 X141.083 Y96.637 E2.16075
G1 X141.323 Y97.133 E2.17908
G1 X141.489 Y97.658 E2.19739
G1 X141.576 Y98.202 E2.21572
G1 X141.585 Y98.753 E2.23404
G1 X141.574 Y98.833 E2.23673
G1 X141.84 Y99.296 E2.25449
G1 X141.986 Y99.642 E2.26698
G1 X142.93 Y102.233 E2.3587
G1 X143.081 Y102.763 E2.37703
G1 X143.153 Y103.309 E2.39535
G1 X143.146 Y103.86 E2.41367
G1 X143.059 Y104.404 E2.432
G1 X143.033 Y104.486 E2.43486
G1 X143.214 Y104.988 E2.45261
G1 X143.298 Y105.354 E2.4651
G1 X143.778 Y108.071 E2.55686
G1 X143.834 Y108.619 E2.57519
G1 X143.811 Y109.17 E2.59353
G1 X143.708 Y109.711 E2.61184
G1 X143.528 Y110.232 E2.63018
G1 X143.49 Y110.305 E2.63292
G1 X143.581 Y110.83 E2.65064
G1 X143.6 Y111.207 E2.66319
G1 X143.6 Y113.968 E2.75502
G1 X143.56 Y114.518 E2.77337
G1 X143.441 Y115.056 E2.79169
G1 X143.245 Y115.571 E2.81002
G1 X142.977 Y116.052 E2.82833
G1 X142.928 Y116.116 E2.83101
G1 X142.926 Y116.653 E2.84887
G1 X142.879 Y117.025 E2.86135
G1 X142.4 Y119.741 E2.95307
G1 X142.265 Y120.275 E2.97139
G1 X142.055 Y120.784 E2.98971
G1 X141.773 Y121.258 E3.00805
G1 X141.425 Y121.685 E3.02637
G1 X141.367 Y121.739 E3.02901
G1 X141.273 Y122.263 E3.04672
G1 X141.161 Y122.627 E3.05938
G1 X140.217 Y125.22 E3.15116
G1 X139.991 Y125.723 E3.1695
G1 X139.695 Y126.188 E3.18784
G1 X139.335 Y126.605 E3.20616
G1 X138.919 Y126.965 E3.22446
G1 X138.851 Y127.009 E3.22715
G1 X138.669 Y127.507 E3.24479
G1 X138.496 Y127.845 E3.25742
G1 X137.117 Y130.236 E3.34922
G1 X136.808 Y130.692 E3.36754
G1 X136.436 Y131.098 E3.38586
G1 X136.009 Y131.447 E3.4042
G1 X135.536 Y131.73 E3.42253
G1 X135.456 Y131.763 E3.42541
G1 X135.192 Y132.218 E3.44291
G1 X134.962 Y132.523 E3.45561
G1 X133.189 Y134.636 E3.54735
G1 X132.805 Y135.031 E3.56568
G1 X132.368 Y135.367 E3.58401
G1 X131.887 Y135.635 E3.60232
G1 X131.372 Y135.832 E3.62066
G1 X131.294 Y135.849 E3.62332
G1 X130.947 Y136.261 E3.64123
G1 X130.671 Y136.516 E3.65373
G1 X128.559 Y138.288 E3.74543
G1 X128.113 Y138.611 E3.76374
G1 X127.624 Y138.865 E3.78207
G1 X127.104 Y139.047 E3.80039
G1 X126.563 Y139.151 E3.81872
G1 X126.484 Y139.155 E3.82135
G1 X126.074 Y139.498 E3.83913
G1 X125.753 Y139.705 E3.85183
G1 X123.363 Y141.083 E3.94359
G1 X122.867 Y141.323 E3.96192
G1 X122.342 Y141.489 E3.98023
G1 X121.798 Y141.576 E3.99855
G1 X121.247 Y141.585 E4.01688
G1 X121.167 Y141.574 E4.01957
G1 X120.704 Y141.84 E4.03733
G1 X120.358 Y141.986 E4.04982
G1 X117.767 Y142.93 E4.14154
G1 X117.237 Y143.081 E4.15987
G1 X116.691 Y143.153 E4.17818
G1 X116.14 Y143.146 E4.19651
G1 X115.596 Y143.059 E4.21483
G1 X115.514 Y143.033 E4.2177
G1 X115.012 Y143.214 E4.23544
G1 X114.646 Y143.298 E4.24793
G1 X111.929 Y143.778 E4.3397
G1 X111.381 Y143.834 E4.35802
G1 X110.83 Y143.811 E4.37637
G1 X110.289 Y143.708 E4.39468
G1 X109.768 Y143.528 E4.41302
G1 X109.695 Y143.49 E4.41575
G1 X109.17 Y143.581 E4.43348
G1 X108.793 Y143.6 E4.44603
G1 X106.032 Y143.6 E4.53786
G1 X105.482 Y143.56 E4.5562
G1 X104.944 Y143.441 E4.57453
G1 X104.429 Y143.245 E4.59286
G1 X103.948 Y142.977 E4.61117
G1 X103.884 Y142.928 E4.61385
G1 X103.347 Y142.926 E4.63171
G1 X102.975 Y142.879 E4.64418
G1 X100.259 Y142.4 E4.73591
G1 X99.725 Y142.265 E4.75423
G1 X99.216 Y142.055 E4.77255
G1 X98.742 Y141.773 E4.79089
G1 X98.315 Y141.425 E4.80921
G1 X98.261 Y141.367 E4.81185
G1 X97.737 Y141.273 E4.82955
G1 X97.373 Y141.161 E4.84222
G1 X94.78 Y140.217 E4.934
G1 X94.277 Y139.991 E4.95234
G1 X93.812 Y139.695 E4.97068
G1 X93.395 Y139.335 E4.989
G1 X93.035 Y138.919 E5.0073
G1 X92.991 Y138.851 E5.00999
G1 X92.493 Y138.669 E5.02763
G1 X92.155 Y138.496 E5.04025
G1 X89.764 Y137.117 E5.13206
G1 X89.308 Y136.808 E5.15038
G1 X88.902 Y136.436 E5.16869
G1 X88.553 Y136.009 E5.18704
G1 X88.27 Y135.536 E5.20537
G1 X88.237 Y135.456 E5.20825
G1 X87.782 Y135.192 E5.22574
G1 X87.477 Y134.962 E5.23845
G1 X85.364 Y133.189 E5.33019
G1 X84.969 Y132.805 E5.34851
G1 X84.633 Y132.368 E5.36685
G1 X84.365 Y131.887 E5.38516
G1 X84.168 Y131.372 E5.4035
G1 X84.151 Y131.294 E5.40616
G1 X83.739 Y130.947 E5.42407
G1 X83.484 Y130.671 E5.43657
G1 X81.712 Y128.559 E5.52826
G1 X81.389 Y128.113 E5.54658
G1 X81.135 Y127.624 E5.56491
G1 X80.953 Y127.104 E5.58323
G1 X80.849 Y126.563 E5.60155
G1 X80.845 Y126.484 E5.60419
G1 X80.502 Y126.074 E5.62197
G1 X80.295 Y125.753 E5.63467
G1 X78.917 Y123.363 E5.72643
G1 X78.677 Y122.867 E5.74475
G1 X78.511 Y122.342 E5.76307
G1 X78.424 Y121.798 E5.78139
G1 X78.415 Y121.247 E5.79972
G1 X78.426 Y121.167 E5.80241
G1 X78.16 Y120.704 E5.82017
G1 X78.014 Y120.358 E5.83266
G1 X77.07 Y117.767 E5.92437
G1 X76.919 Y117.237 E5.9427
G1 X76.847 Y116.691 E5.96102
G1 X76.854 Y116.14 E5.97935
G1 X76.941 Y115.596 E5.99767
G1 X76.967 Y115.514 E6.00053
G1 X76.786 Y115.012 E6.01828
G1 X76.702 Y114.646 E6.03077
G1 X76.222 Y111.929 E6.12254
G1 X76.166 Y111.381 E6.14086
G1 X76.189 Y110.83 E6.1592
G1 X76.292 Y110.289 E6.17752
G1 X76.472 Y109.768 E6.19585
G1 X76.51 Y109.695 E6.19859
G1 X76.419 Y109.17 E6.21631
G1 X76.4 Y108.793 E6.22887
G1 X76.4 Y106.032 E6.3207
G1 X76.44 Y105.482 E6.33904
G1 X76.559 Y104.944 E6.35737
G1 X76.755 Y104.429 E6.37569
G1 X77.023 Y103.948 E6.39401
G1 X77.072 Y103.884 E6.39669
G1 X77.074 Y103.347 E6.41455
G1 X77.121 Y102.975 E6.42702
G1 X77.6 Y100.259 E6.51875
G1 X77.735 Y99.725 E6.53707
G1 X77.945 Y99.216 E6.55538
G1 X78.227 Y98.742 E6.57373
G1 X78.575 Y98.315 E6.59205
G1 X78.633 Y98.261 E6.59468
G1 X78.727 Y97.737 E6.61239
G1 X78.839 Y97.373 E6.62506
G1 X79.783 Y94.78 E6.71684
G1 X80.009 Y94.277 E6.73518
G1 X80.305 Y93.812 E6.75351
G1 X80.665 Y93.395 E6.77184
G1 X81.081 Y93.035 E6.79013
G1 X81.149 Y92.991 E6.79283
G1 X81.331 Y92.493 E6.81046
G1 X81.504 Y92.155 E6.82309
G1 X82.883 Y89.764 E6.9149
G1 X83.192 Y89.308 E6.93322
G1 X83.564 Y88.902 E6.95153
G1 X83.991 Y88.553 E6.96987
G1 X84.464 Y88.27 E6.98821
G1 X84.544 Y88.237 E6.99108
G1 X84.808 Y87.782 E7.00858
G1 X85.038 Y87.477 E7.02129
G1 X86.811 Y85.364 E7.11303
G1 X87.195 Y84.969 E7.13135
G0 F6000 X87.482 Y85.249
G1 F1200 X87.899 Y84.937 E7.14867
G1 X88.359 Y84.692 E7.16601
G1 X88.851 Y84.52 E7.18334
G1 X88.959 Y84.5 E7.187
G1 X89.16 Y84.217 E7.19854
G1 X89.586 Y83.79 E7.2186
G1 X91.698 Y82.018 E7.3103
G1 X92.121 Y81.715 E7.3276
G1 X92.587 Y81.48 E7.34496
G1 X93.082 Y81.319 E7.36227
G1 X93.597 Y81.235 E7.37963
G1 X93.704 Y81.234 E7.38319
G1 X93.949 Y80.992 E7.39464
G1 X94.447 Y80.642 E7.41489
G1 X96.837 Y79.264 E7.50665
G1 X97.307 Y79.039 E7.52398
G1 X97.806 Y78.888 E7.54132
G1 X98.322 Y78.816 E7.55865
G1 X98.843 Y78.823 E7.57598
G1 X98.949 Y78.841 E7.57955
G1 X99.233 Y78.645 E7.59103
G1 X99.779 Y78.389 E7.61109
G1 X102.37 Y77.445 E7.7028
G1 X102.872 Y77.305 E7.72014
G1 X103.389 Y77.243 E7.73746
G1 X103.91 Y77.261 E7.7548
G1 X104.422 Y77.358 E7.77213
G1 X104.529 Y77.396 E7.7759
G1 X104.841 Y77.253 E7.78732
G1 X105.423 Y77.096 E7.80737
G1 X108.14 Y76.616 E7.89914
G1 X108.659 Y76.565 E7.91648
G1 X109.179 Y76.594 E7.9338
G1 X109.689 Y76.702 E7.95114
G1 X110.177 Y76.886 E7.96849
G1 X110.272 Y76.94 E7.97212
G1 X110.604 Y76.854 E7.98353
G1 X111.207 Y76.8 E8.00367
G1 X113.968 Y76.8 E8.0955
G1 X114.488 Y76.84 E8.11284
G1 X114.995 Y76.959 E8.13016
G1 X115.478 Y77.154 E8.14749
G1 X115.926 Y77.42 E8.16482
G1 X116.011 Y77.49 E8.16848
G1 X116.355 Y77.463 E8.17996
G1 X116.956 Y77.515 E8.20002
G1 X119.672 Y77.994 E8.29175
G1 X120.176 Y78.123 E8.30905
G1 X120.655 Y78.328 E8.32638
G1 X121.097 Y78.604 E8.34371
G1 X121.492 Y78.945 E8.36107
G1 X121.562 Y79.027 E8.36466
G1 X121.903 Y79.059 E8.37605
G1 X122.49 Y79.215 E8.39625
G1 X125.083 Y80.159 E8.48803
G1 X125.558 Y80.374 E8.50537
G1 X125.994 Y80.66 E8.52271
G1 X126.381 Y81.008 E8.54003
G1 X126.711 Y81.412 E8.55738
G1 X126.766 Y81.506 E8.561
G1 X127.094 Y81.596 E8.57231
G1 X127.645 Y81.851 E8.5925
G1 X130.036 Y83.23 E8.68431
G1 X130.466 Y83.524 E8.70163
G1 X130.846 Y83.88 E8.71895
G1 X131.167 Y84.291 E8.7363
G1 X131.422 Y84.746 E8.75364
G1 X131.462 Y84.853 E8.75744
G1 X131.766 Y84.997 E8.76863
G1 X132.265 Y85.344 E8.78885
G1 X134.378 Y87.117 E8.88059
G1 X134.751 Y87.482 E8.89795
G1 X135.063 Y87.899 E8.91527
G1 X135.308 Y88.359 E8.9326
G1 X135.48 Y88.851 E8.94994
G1 X135.5 Y88.959 E8.95359
G1 X135.783 Y89.16 E8.96514
G1 X136.21 Y89.586 E8.9852
G1 X137.982 Y91.698 E9.07689
G1 X138.285 Y92.121 E9.0942
G1 X138.52 Y92.587 E9.11156
G1 X138.681 Y93.082 E9.12887
G1 X138.765 Y93.597 E9.14623
G1 X138.766 Y93.704 E9.14978
G1 X139.008 Y93.949 E9.16124
G1 X139.358 Y94.447 E9.18148
G1 X140.736 Y96.837 E9.27324
G1 X140.961 Y97.307 E9.29057
G1 X141.112 Y97.806 E9.30791
G1 X141.184 Y98.322 E9.32524
G1 X141.177 Y98.843 E9.34257
G1 X141.159 Y98.949 E9.34615
G1 X141.355 Y99.233 E9.35762
G1 X141.611 Y99.779 E9.37768
G1 X142.555 Y102.37 E9.4694
G1 X142.695 Y102.872 E9.48673
G1 X142.757 Y103.389 E9.50405
G1 X142.739 Y103.91 E9.52139
G1 X142.642 Y104.422 E9.53872
G1 X142.604 Y104.529 E9.5425
G1 X142.747 Y104.841 E9.55391
G1 X142.904 Y105.423 E9.57396
G1 X143.384 Y108.14 E9.66573
G1 X143.435 Y108.659 E9.68308
G1 X143.406 Y109.179 E9.7004
G1 X143.298 Y109.689 E9.71774
G1 X143.114 Y110.177 E9.73508
G1 X143.06 Y110.272 E9.73872
G1 X143.146 Y110.604 E9.75013
G1 X143.2 Y111.207 E9.77026
G1 X143.2 Y113.968 E9.86209
G1 X143.16 Y114.488 E9.87944
G1 X143.041 Y114.995 E9.89676
G1 X142.846 Y115.478 E9.91408
G1 X142.58 Y115.926 E9.93141
G1 X142.51 Y116.011 E9.93508
G1 X142.537 Y116.355 E9.94655
G1 X142.485 Y116.956 E9.96662
G1 X142.006 Y119.672 E10.05835
G1 X141.877 Y120.176 E10.07565
G1 X141.672 Y120.655 E10.09298
G1 X141.396 Y121.097 E10.11031
G1 X141.055 Y121.492 E10.12767
G1 X140.973 Y121.562 E10.13125
G1 X140.941 Y121.903 E10.14264
G1 X140.785 Y122.49 E10.16284
G1 X139.841 Y125.083 E10.25463
G1 X139.626 Y125.558 E10.27197
G1 X139.34 Y125.994 E10.28931
G1 X138.992 Y126.381 E10.30662
G1 X138.588 Y126.711 E10.32397
G1 X138.494 Y126.766 E10.32759
G1 X138.404 Y127.094 E10.33891
G1 X138.149 Y127.645 E10.3591
G1 X136.77 Y130.036 E10.4509
G1 X136.476 Y130.466 E10.46823
G1 X136.12 Y130.846 E10.48555
G1 X135.709 Y131.167 E10.50289
G1 X135.254 Y131.422 E10.52024
G1 X135.147 Y131.462 E10.52404
G1 X135.003 Y131.766 E10.53523
G1 X134.656 Y132.265 E10.55544
G1 X132.883 Y134.378 E10.64718
G1 X132.518 Y134.751 E10.66454
G1 X132.101 Y135.063 E10.68186
G1 X131.641 Y135.308 E10.6992
G1 X131.149 Y135.48 E10.71653
G1 X131.041 Y135.5 E10.72019
G1 X130.84 Y135.783 E10.73173
G1 X130.414 Y136.21 E10.75179
G1 X128.302 Y137.982 E10.84349
G1 X127.879 Y138.285 E10.86079
G1 X127.413 Y138.52 E10.87815
G1 X126.918 Y138.681 E10.89547
G1 X126.403 Y138.765 E10.91282
G1 X126.296 Y138.766 E10.91638
G1 X126.051 Y139.008 E10.92783
G1 X125.553 Y139.358 E10.94808
G1 X123.163 Y140.736 E11.03984
G1 X122.693 Y140.961 E11.05717
G1 X122.194 Y141.112 E11.07451
G1 X121.678 Y141.184 E11.09184
G1 X121.157 Y141.177 E11.10917
G1 X121.051 Y141.159 E11.11274
G1 X120.767 Y141.355 E11.12422
G1 X120.221 Y141.611 E11.14428
G1 X117.63 Y142.555 E11.236
G1 X117.128 Y142.695 E11.25333
G1 X116.611 Y142.757 E11.27065
G1 X116.09 Y142.739 E11.28799
G1 X115.578 Y142.642 E11.30532
G1 X115.471 Y142.604 E11.3091
G1 X115.159 Y142.747 E11.32051
G1 X114.577 Y142.904 E11.34056
G1 X111.86 Y143.384 E11.43233
G1 X111.341 Y143.435 E11.44967
G1 X110.821 Y143.406 E11.46699
G1 X110.311 Y143.298 E11.48433
G1 X109.823 Y143.114 E11.50168
G1 X109.728 Y143.06 E11.50531
G1 X109.396 Y143.146 E11.51672
G1 X108.793 Y143.2 E11.53686
G1 X106.032 Y143.2 E11.62869
G1 X105.512 Y143.16 E11.64603
G1 X105.005 Y143.041 E11.66336
G1 X104.522 Y142.846 E11.68068
G1 X104.074 Y142.58 E11.69801
G1 X103.989 Y142.51 E11.70167
G1 X103.645 Y142.537 E11.71315
G1 X103.044 Y142.485 E11.73321
G1 X100.328 Y142.006 E11.82494
G1 X99.824 Y141.877 E11.84224
G1 X99.345 Y141.672 E11.85957
G1 X98.903 Y141.396 E11.87691
G1 X98.508 Y141.055 E11.89426
G1 X98.438 Y140.973 E11.89785
G1 X98.097 Y140.941 E11.90924
G1 X97.51 Y140.785 E11.92944
G1 X94.917 Y139.841 E12.02122
G1 X94.442 Y139.626 E12.03856
G1 X94.006 Y139.34 E12.05591
G1 X93.619 Y138.992 E12.07322
G1 X93.289 Y138.588 E12.09057
G1 X93.234 Y138.494 E12.09419
G1 X92.906 Y138.404 E12.1055
G1 X92.355 Y138.149 E12.1257
G1 X89.964 Y136.77 E12.2175
G1 X89.534 Y136.476 E12.23482
G1 X89.154 Y136.12 E12.25214
G1 X88.833 Y135.709 E12.26949
G1 X88.578 Y135.254 E12.28684
G1 X88.538 Y135.147 E12.29064
G1 X88.234 Y135.003 E12.30182
G1 X87.735 Y134.656 E12.32204
G1 X85.622 Y132.883 E12.41378
G1 X85.249 Y132.518 E12.43114
G1 X84.937 Y132.101 E12.44846
G1 X84.692 Y131.641 E12.46579
G1 X84.52 Y131.149 E12.48313
G1 X84.5 Y131.041 E12.48678
G1 X84.217 Y130.84 E12.49833
G1 X83.79 Y130.414 E12.51839
G1 X82.018 Y128.302 E12.61008
G1 X81.715 Y127.879 E12.62739
G1 X81.48 Y127.413 E12.64475
G1 X81.319 Y126.918 E12.66206
G1 X81.235 Y126.403 E12.67942
G1 X81.234 Y126.296 E12.68298
G1 X80.992 Y126.051 E12.69443
G1 X80.642 Y125.553 E12.71467
G1 X79.264 Y123.163 E12.80643
