;FLAVOR:Marlin
;TIME:1511
;Filament used: 0.917775m
;Layer height: 0.2
;MINX:93.579
;MINY:86.043
;MINZ:0.2
;MAXX:126.445
;MAXY:118.886
;MAXZ:18.76
;Generated with Cura_SteamEngine 4.8.0
M140 S60
M105
M190 S60
M104 S220
M105
M109 S220
M82 ;absolute extrusion mode
; Ender 3 Custom Start G-code
G92 E0 ; Reset Extruder
G28 ; Home all axes
G1 Z2.0 F3000 ; Move Z Axis up little to prevent scratching of Heat Bed
G1 X0.1 Y20 Z0.3 F5000.0 ; Move to start position
G1 X0.1 Y200.0 Z0.3 F1500.0 E15 ; Draw the first line
G1 X0.4 Y200.0 Z0.3 F5000.0 ; Move to side a little
G1 X0.4 Y20 Z0.3 F1500.0 E30 ; Draw the second line
G92 E0 ; Reset Extruder
G1 Z2.0 F3000 ; Move Z Axis up little to prevent scratching of Heat Bed
G1 X5 Y20 Z0.3 F5000.0 ; Move over to prevent blob squish
G92 E0
G92 E0
G1 F1500 E-6.5
;LAYER_COUNT:85
;LAYER:0
M107
G0 F6000 X98.665 Y91.191 Z0.2
;TYPE:SKIRT
G1 F1500 E0
G1 F600 X97.747 Y92.195 E0.04977
G1 X96.88 Y93.324 E0.10185
G1 X96.138 Y94.493 E0.15251
G1 X95.491 Y95.737 E0.20381
G1 X94.954 Y97.034 E0.25517
G1 X94.541 Y98.347 E0.30553
G1 X94.232 Y99.722 E0.35709
G1 X94.056 Y101.092 E0.40762
G1 X93.995 Y102.494 E0.45897
G1 X94.056 Y103.881 E0.50976
G1 X94.241 Y105.28 E0.56139
G1 X94.543 Y106.64 E0.61236
G1 X94.959 Y107.96 E0.66299
G1 X95.502 Y109.271 E0.71491
G1 X96.141 Y110.497 E0.76549
G1 X96.909 Y111.698 E0.81765
G1 X97.725 Y112.759 E0.86662
G1 X98.139 Y113.21 E0.88902
G1 X98.166 Y113.242 E0.89055
G1 X98.714 Y113.834 E0.92006
G1 X99.688 Y114.728 E0.96843
G1 X100.842 Y115.613 E1.02164
G1 X102.003 Y116.351 E1.07197
G1 X103.248 Y116.998 E1.1233
G1 X104.545 Y117.535 E1.17466
G1 X105.858 Y117.948 E1.22502
G1 X107.233 Y118.257 E1.27658
G1 X108.603 Y118.433 E1.32712
G1 X110.013 Y118.494 E1.37875
G1 X111.392 Y118.433 E1.42925
G1 X112.787 Y118.249 E1.48073
G1 X114.158 Y117.942 E1.53213
G1 X115.477 Y117.527 E1.58272
G1 X116.77 Y116.992 E1.63392
G1 X118.011 Y116.345 E1.68512
G1 X119.187 Y115.595 E1.73615
G1 X120.287 Y114.748 E1.78694
G1 X121.307 Y113.814 E1.83754
G1 X122.264 Y112.773 E1.88928
G1 X123.116 Y111.66 E1.94056
G1 X123.856 Y110.5 E1.9909
G1 X124.515 Y109.235 E2.04309
G1 X125.042 Y107.951 E2.09387
G1 X125.458 Y106.637 E2.14429
G1 X125.768 Y105.246 E2.19643
G1 X125.944 Y103.889 E2.24649
G1 X126.005 Y102.477 E2.2982
G1 X125.973 Y101.708 E2.32636
G1 X125.942 Y101.076 E2.34951
G1 X125.758 Y99.693 E2.40056
G1 X125.455 Y98.338 E2.45135
G1 X125.037 Y97.01 E2.50229
G1 X124.503 Y95.719 E2.5534
G1 X123.856 Y94.478 E2.60461
G1 X123.088 Y93.275 E2.65683
G1 X122.264 Y92.206 E2.70621
G1 X121.299 Y91.156 E2.75838
G1 X120.312 Y90.252 E2.80735
G1 X119.163 Y89.366 E2.86043
G1 X117.985 Y88.62 E2.91145
G1 X116.767 Y87.983 E2.96174
G1 X115.464 Y87.447 E3.01328
G1 X114.119 Y87.024 E3.06487
G1 X112.786 Y86.726 E3.11484
G1 X111.374 Y86.545 E3.16692
G1 X110.009 Y86.485 E3.21691
G1 X108.606 Y86.545 E3.26829
G1 X107.216 Y86.727 E3.31958
G1 X105.86 Y87.025 E3.37037
G1 X104.515 Y87.453 E3.42201
G1 X103.227 Y87.99 E3.47307
G1 X101.865 Y88.691 E3.52911
G1 X101.841 Y88.706 E3.53014
G1 X101.544 Y88.916 E3.54345
G1 X100.81 Y89.385 E3.57532
G1 X99.711 Y90.232 E3.62608
G1 X98.665 Y91.191 E3.678
G0 F6000 X98.519 Y90.984
G1 F600 X99.542 Y90.046 E3.72878
G1 X100.677 Y89.176 E3.7811
G1 X101.871 Y88.415 E3.83291
G1 X103.115 Y87.765 E3.88426
G1 X103.18 Y87.735 E3.88688
G1 X104.444 Y87.214 E3.9369
G1 X105.798 Y86.786 E3.98885
G1 X107.087 Y86.503 E4.03713
G1 X107.219 Y86.477 E4.04205
G1 X108.585 Y86.297 E4.09246
G1 X109.999 Y86.234 E4.14425
G1 X111.409 Y86.297 E4.19589
G1 X112.824 Y86.484 E4.24811
G1 X114.134 Y86.774 E4.29719
G1 X114.247 Y86.804 E4.30147
G1 X115.587 Y87.226 E4.35287
G1 X116.815 Y87.736 E4.40152
G1 X116.966 Y87.807 E4.40762
G1 X118.121 Y88.407 E4.45524
G1 X119.318 Y89.17 E4.50718
G1 X120.44 Y90.031 E4.55892
G1 X121.498 Y91.005 E4.61153
G1 X122.449 Y92.038 E4.6629
G1 X123.314 Y93.165 E4.71488
G1 X124.081 Y94.372 E4.7672
G1 X124.714 Y95.583 E4.81719
G1 X124.76 Y95.68 E4.82112
G1 X125.273 Y96.924 E4.87035
G1 X125.7 Y98.271 E4.92205
G1 X126.014 Y99.692 E4.9753
G1 X126.192 Y101.057 E5.02566
G1 X126.255 Y102.485 E5.07795
G1 X126.192 Y103.911 E5.13018
G1 X126.008 Y105.32 E5.18216
G1 X125.71 Y106.677 E5.23299
G1 X125.308 Y107.945 E5.28166
G1 X125.258 Y108.09 E5.28727
G1 X124.736 Y109.352 E5.33724
G1 X124.082 Y110.604 E5.38892
G1 X123.314 Y111.812 E5.44129
G1 X122.447 Y112.942 E5.4934
G1 X121.491 Y113.983 E5.54511
G1 X120.447 Y114.942 E5.59697
G1 X119.337 Y115.795 E5.64819
G1 X118.125 Y116.567 E5.70076
G1 X116.86 Y117.224 E5.75291
G1 X115.567 Y117.761 E5.80414
G1 X114.207 Y118.192 E5.85633
G1 X112.805 Y118.502 E5.90887
G1 X111.43 Y118.681 E5.9596
G1 X110 Y118.744 E6.01197
G1 X108.573 Y118.681 E6.06423
G1 X107.179 Y118.499 E6.11566
G1 X105.801 Y118.196 E6.16728
G1 X104.501 Y117.782 E6.2172
G1 X104.396 Y117.744 E6.22128
G1 X103.139 Y117.225 E6.27104
G1 X101.864 Y116.559 E6.32366
G1 X100.684 Y115.808 E6.37484
G1 X99.548 Y114.937 E6.42721
G1 X98.505 Y113.98 E6.479
G1 X97.551 Y112.942 E6.53058
G1 X96.683 Y111.809 E6.5828
G1 X95.921 Y110.61 E6.63477
G1 X95.289 Y109.401 E6.68468
G1 X95.237 Y109.281 E6.68947
G1 X94.721 Y108.038 E6.73871
G1 X94.298 Y106.701 E6.79001
G1 X93.986 Y105.287 E6.84299
G1 X93.808 Y103.921 E6.89339
G1 X93.75 Y102.565 E6.94305
G1 X93.749 Y102.407 E6.94883
G1 X93.808 Y101.052 E6.99845
G1 X93.986 Y99.683 E7.04896
G1 X94.294 Y98.292 E7.10108
G1 X94.712 Y96.975 E7.15163
G1 X94.739 Y96.897 E7.15465
G1 X95.27 Y95.614 E7.20545
G1 X95.924 Y94.364 E7.25707
G1 X96.676 Y93.179 E7.30841
G1 X97.559 Y92.029 E7.36146
G1 X98.519 Y90.984 E7.41338
G1 F1500 E0.91338
;MESH:rim.stl
G0 F6000 X102.23 Y93.29
G0 X102.893 Y94.016
G0 X105.297 Y94.465
G0 X106.134 Y95.845
G0 X109.136 Y95.316
G0 X110.864 Y95.316
G0 X111.868 Y95.494
G0 X113.059 Y95.927
G0 X114.149 Y96.578
G0 X114.703 Y94.465
G0 X116.973 Y93.857
G0 X118.632 Y95.516
G0 X118.025 Y97.786
G0 X116.604 Y98.662
G0 X117.305 Y100.813
;TYPE:WALL-INNER
G1 F1500 E7.41338
G1 F600 X117.246 Y100.547 E7.42335
G1 X117.22 Y100.464 E7.42653
G1 X117.048 Y99.923 E7.4473
G1 X116.798 Y99.319 E7.47121
G1 X116.536 Y98.816 E7.49196
G1 X116.496 Y98.739 E7.49514
G1 X116.35 Y98.51 E7.50507
G1 X116.428 Y98.489
G1 X116.512 Y98.467 E7.50781
G1 X118.242 Y98.003 E7.57334
G1 X118.626 Y96.57 E7.62762
G1 X118.705 Y96.274 E7.63883
G1 X118.731 Y96.178 E7.64247
G1 X118.829 Y96.307 E7.64477
G1 X118.994 Y96.565 E7.65249
G1 X119.335 Y97.1 E7.67571
G1 X119.765 Y97.927 E7.70981
G1 X120.126 Y98.798 E7.7443
G1 X120.409 Y99.689 E7.77851
G1 X120.549 Y100.321 E7.80219
G1 X120.618 Y100.634 E7.81392
G1 X120.637 Y100.779 E7.81927
G1 X120.56 Y100.735
G1 X120.282 Y100.575 E7.82719
G1 X119 Y99.835 E7.88135
G1 X117.451 Y100.729 E7.94678
G1 X117.376 Y100.772 E7.94707
G1 X117.305 Y100.813
G0 F6000 X117.284 Y102.526
G0 X117.305 Y104.165
G1 F600 X117.375 Y104.205 E7.95002
G1 X117.449 Y104.248 E7.95315
G1 X119 Y105.143 E8.01867
G1 X120.283 Y104.403 E8.07286
G1 X120.556 Y104.246 E8.08438
G1 X120.637 Y104.199 E8.08781
G1 X120.617 Y104.35 E8.08992
G1 X120.549 Y104.658 E8.09777
G1 X120.41 Y105.286 E8.1213
G1 X120.132 Y106.169 E8.15517
G1 X119.799 Y106.98 E8.18725
G1 X119.759 Y107.063 E8.19062
G1 X119.335 Y107.878 E8.22423
G1 X118.994 Y108.412 E8.24741
G1 X118.829 Y108.671 E8.25865
G1 X118.731 Y108.8 E8.26457
G1 X118.706 Y108.705
G1 X118.627 Y108.408 E8.27231
G1 X118.242 Y106.975 E8.3266
G1 X116.513 Y106.512 E8.39208
G1 X116.429 Y106.49 E8.39526
G1 X116.35 Y106.468 E8.39826
G1 X116.496 Y106.239 E8.40442
G1 X116.536 Y106.162 E8.40716
G1 X116.798 Y105.659 E8.42791
G1 X117.048 Y105.055 E8.45182
G1 X117.22 Y104.513 E8.47263
G1 X117.246 Y104.431 E8.47535
G1 X117.305 Y104.165 E8.48154
G1 F1500 E1.98154
G0 F6000 X117.21 Y101.379
G0 X117.101 Y101.392
;TYPE:WALL-OUTER
G1 F1500 E8.48154
G1 F600 X117.101 Y103.586 E8.56181
G1 X119 Y104.681 E8.64201
G1 X120.899 Y103.586 E8.72221
G1 X120.899 Y101.392 E8.80248
G1 X119 Y100.297 E8.88268
G1 X117.101 Y101.392 E8.96288
G0 F6000 X117.21 Y101.379
G0 X117.13 Y103.749
G0 X116.801 Y104.968
G0 X116.27 Y106.109
G0 X115.687 Y106.951
G0 X114.462 Y108.177
G0 X113.78 Y108.647
G0 X111.676 Y109.794
;TYPE:WALL-INNER
G1 F600 X111.942 Y109.735 E8.97285
G1 X112.025 Y109.709 E8.97603
G1 X112.566 Y109.537 E8.9968
G1 X113.17 Y109.287 E9.02071
G1 X113.673 Y109.025 E9.04146
G1 X113.75 Y108.985 E9.04464
G1 X113.979 Y108.839 E9.05457
G1 X114 Y108.917
G1 X114.022 Y109.001 E9.05731
G1 X114.486 Y110.731 E9.12284
G1 X115.919 Y111.115 E9.17712
G1 X116.215 Y111.194 E9.18833
G1 X116.311 Y111.22 E9.19197
G1 X116.182 Y111.318 E9.19427
G1 X115.924 Y111.483 E9.20199
G1 X115.389 Y111.824 E9.22521
G1 X114.561 Y112.256 E9.25937
G1 X113.688 Y112.618 E9.29395
G1 X112.8 Y112.898 E9.32802
G1 X112.168 Y113.038 E9.3517
G1 X111.855 Y113.107 E9.36343
G1 X111.71 Y113.126 E9.36878
G1 X111.754 Y113.049
G1 X111.914 Y112.771 E9.3767
G1 X112.654 Y111.489 E9.43086
G1 X111.76 Y109.94 E9.49629
G1 X111.717 Y109.865 E9.49658
G1 X111.676 Y109.794
G0 F6000 X109.963 Y109.773
G0 X108.324 Y109.794
G1 F600 X108.284 Y109.864 E9.49953
G1 X108.241 Y109.938 E9.50266
G1 X107.346 Y111.489 E9.56818
G1 X108.089 Y112.776 E9.62255
G1 X108.239 Y113.037 E9.63356
G1 X108.29 Y113.126 E9.63732
G1 X108.124 Y113.104 E9.63973
G1 X107.829 Y113.039 E9.64742
G1 X107.223 Y112.904 E9.67013
G1 X106.307 Y112.616 E9.70526
G1 X105.483 Y112.276 E9.73788
G1 X104.611 Y111.824 E9.77381
G1 X104.077 Y111.483 E9.79699
G1 X103.818 Y111.318 E9.80823
G1 X103.689 Y111.22 E9.81415
G1 X103.784 Y111.195
G1 X104.081 Y111.116 E9.82189
G1 X105.514 Y110.731 E9.87618
G1 X105.977 Y109.002 E9.94166
G1 X105.999 Y108.918 E9.94484
G1 X106.021 Y108.839 E9.94784
G1 X106.25 Y108.985 E9.954
G1 X106.327 Y109.025 E9.95674
G1 X106.83 Y109.287 E9.97749
G1 X107.434 Y109.537 E10.0014
G1 X107.976 Y109.709 E10.02221
G1 X108.058 Y109.735 E10.02493
G1 X108.324 Y109.794 E10.03112
G0 F6000 X108.903 Y109.59
;TYPE:WALL-OUTER
G1 F600 X107.808 Y111.489 E10.11132
G1 X108.903 Y113.388 E10.19152
G1 X111.097 Y113.388 E10.27179
G1 X112.192 Y111.489 E10.35199
G1 X111.097 Y109.59 E10.43219
G1 X108.903 Y109.59 E10.51246
G0 F6000 X108.889 Y109.698
G0 X107.521 Y109.29
G0 X106.381 Y108.759
G0 X105.538 Y108.177
G0 X104.313 Y106.951
G0 X103.73 Y106.109
G0 X102.67 Y103.875
G0 X102.733 Y101.142
G0 X101 Y100.142
G0 X99.363 Y100.779
;TYPE:WALL-INNER
G1 F600 X99.385 Y100.612 E10.51862
G1 X99.45 Y100.318 E10.52964
G1 X99.587 Y99.704 E10.55265
G1 X99.873 Y98.798 E10.58741
G1 X100.201 Y97.998 E10.61905
G1 X100.241 Y97.915 E10.62242
G1 X100.665 Y97.1 E10.65603
G1 X101.007 Y96.564 E10.67929
G1 X101.176 Y96.299 E10.69079
G1 X101.269 Y96.177 E10.6964
G1 X101.293 Y96.267
G1 X101.374 Y96.571 E10.70424
G1 X101.758 Y98.003 E10.75848
G1 X103.487 Y98.466 E10.82397
G1 X103.571 Y98.488 E10.82715
G1 X103.65 Y98.51 E10.83015
G1 X103.504 Y98.739 E10.83631
G1 X103.464 Y98.816 E10.83904
G1 X103.202 Y99.319 E10.85979
G1 X102.952 Y99.923 E10.88371
G1 X102.78 Y100.465 E10.90451
G1 X102.754 Y100.547 E10.90766
G1 X102.695 Y100.813 E10.91763
G1 X102.625 Y100.773
G1 X102.551 Y100.73 E10.92033
G1 X101 Y99.835 E10.98585
G1 X99.713 Y100.577 E11.0402
G1 X99.452 Y100.727 E11.04786
G1 X99.363 Y100.779 E11.04789
G0 F6000 X99.079 Y101.251
G0 X98.967 Y103.663
G0 X99.363 Y104.199
G1 F600 X99.434 Y104.24 E11.05089
G1 X99.719 Y104.404 E11.06292
G1 X101 Y105.143 E11.11703
G1 X102.549 Y104.249 E11.18246
G1 X102.624 Y104.206 E11.18563
G1 X102.695 Y104.165 E11.18863
G1 X102.754 Y104.431 E11.19479
G1 X102.78 Y104.514 E11.19754
G1 X102.952 Y105.055 E11.21831
G1 X103.202 Y105.659 E11.24222
G1 X103.464 Y106.162 E11.26297
G1 X103.504 Y106.239 E11.26615
G1 X103.65 Y106.468 E11.27608
G1 X103.572 Y106.489
G1 X103.488 Y106.511 E11.27882
G1 X101.758 Y106.975 E11.34436
G1 X101.374 Y108.408 E11.39863
G1 X101.295 Y108.704 E11.40984
G1 X101.269 Y108.8 E11.41348
G1 X101.171 Y108.671 E11.41578
G1 X101.006 Y108.413 E11.42351
G1 X100.665 Y107.878 E11.44672
G1 X100.234 Y107.05 E11.48087
G1 X99.873 Y106.178 E11.5154
G1 X99.588 Y105.277 E11.54997
G1 X99.45 Y104.655 E11.57328
G1 X99.38 Y104.334 E11.58129
G1 X99.363 Y104.199 E11.58316
G1 F1500 E5.08316
G0 F6000 X99.067 Y103.719
G0 X98.967 Y101.315
G0 X99.101 Y101.392
;TYPE:WALL-OUTER
G1 F1500 E11.58316
G1 F600 X99.101 Y103.586 E11.66343
G1 X101 Y104.681 E11.74363
G1 X102.899 Y103.586 E11.82383
G1 X102.899 Y101.392 E11.9041
G1 X101 Y100.297 E11.9843
G1 X99.101 Y101.392 E12.0645
G0 F6000 X99.003 Y101.219
G0 X101 Y100.142
G0 X102.566 Y100.525
G0 X104.071 Y98.348
G0 X101.975 Y97.786
G0 X101.368 Y95.516
G0 X103.027 Y93.857
G0 X105.297 Y94.465
G0 X106.38 Y96.219
G0 X107.522 Y95.688
G0 X108.741 Y95.359
G0 X111.676 Y95.185
;TYPE:WALL-INNER
G1 F600 X111.716 Y95.115 E12.06745
G1 X111.758 Y95.041 E12.07056
G1 X112.654 Y93.489 E12.13613
G1 X111.911 Y92.202 E12.1905
G1 X111.761 Y91.941 E12.20151
G1 X111.71 Y91.852 E12.20527
G1 X111.876 Y91.874 E12.20768
G1 X112.171 Y91.939 E12.21537
G1 X112.776 Y92.074 E12.23805
G1 X113.692 Y92.363 E12.27319
G1 X114.522 Y92.705 E12.30603
G1 X114.57 Y92.728 E12.30798
G1 X115.385 Y93.152 E12.34159
G1 X115.923 Y93.495 E12.36493
G1 X116.177 Y93.657 E12.37596
G1 X116.31 Y93.759 E12.38209
G1 X116.212 Y93.785
G1 X115.921 Y93.863 E12.38974
G1 X114.486 Y94.249 E12.4441
G1 X114.023 Y95.976 E12.50952
G1 X114.001 Y96.06 E12.5127
G1 X113.979 Y96.139 E12.5157
G1 X113.75 Y95.993 E12.52186
G1 X113.673 Y95.953 E12.52459
G1 X113.17 Y95.691 E12.54534
G1 X112.565 Y95.441 E12.56929
G1 X112.024 Y95.269 E12.59006
G1 X111.942 Y95.244 E12.59277
G1 X111.676 Y95.185 E12.59896
G0 F6000 X109.963 Y95.205
G0 X108.324 Y95.185
G1 F600 X108.058 Y95.244 E12.60893
G1 X107.975 Y95.27 E12.61211
G1 X107.435 Y95.441 E12.63283
G1 X106.83 Y95.691 E12.65678
G1 X106.327 Y95.953 E12.67753
G1 X106.25 Y95.993 E12.68071
G1 X106.021 Y96.139 E12.69064
G1 X106 Y96.061
G1 X105.978 Y95.977 E12.69338
G1 X105.514 Y94.249 E12.75884
G1 X104.08 Y93.863 E12.81318
G1 X103.791 Y93.786 E12.82412
G1 X103.69 Y93.759 E12.82794
G1 X103.825 Y93.656 E12.83038
G1 X104.077 Y93.495 E12.83799
G1 X104.615 Y93.152 E12.86134
G1 X105.443 Y92.721 E12.89549
G1 X106.301 Y92.365 E12.92948
G1 X107.206 Y92.079 E12.9642
G1 X107.832 Y91.94 E12.98766
G1 X108.145 Y91.871 E12.99939
G1 X108.29 Y91.852 E13.00474
G1 X108.246 Y91.929
G1 X108.086 Y92.207 E13.01266
G1 X107.346 Y93.489 E13.06682
G1 X108.24 Y95.039 E13.13228
G1 X108.283 Y95.114 E13.13258
G1 X108.324 Y95.185
G1 F1500 E6.63258
G0 F6000 X106.134 Y95.845
G0 X105.764 Y94.511
G0 X103.119 Y93.815
G0 X103.068 Y94.006
;TYPE:WALL-OUTER
G1 F1500 E13.13258
G1 F600 X101.517 Y95.557 E13.21283
G1 X102.085 Y97.676 E13.29309
G1 X104.204 Y98.244 E13.37335
G1 X104.968 Y97.48 E13.41288
G1 X104.561 Y97.925 E13.43494
G1 X104.184 Y98.417 E13.45762
G1 X103.851 Y98.939 E13.48028
G1 X103.565 Y99.488 E13.50292
G1 X103.328 Y100.06 E13.52558
G1 X103.141 Y100.651 E13.54825
G1 X103.007 Y101.256 E13.57093
G1 X102.927 Y101.871 E13.59362
G1 X102.9 Y102.489 E13.61625
G1 X102.927 Y103.108 E13.63892
G1 X103.007 Y103.722 E13.66157
G1 X103.141 Y104.327 E13.68424
G1 X103.328 Y104.918 E13.70692
G1 X103.565 Y105.49 E13.72957
G1 X103.851 Y106.039 E13.75222
G1 X104.184 Y106.561 E13.77487
G1 X104.561 Y107.053 E13.79755
G1 X104.968 Y107.498 E13.81961
G1 X104.204 Y106.734 E13.85914
G1 X102.085 Y107.302 E13.93941
G1 X101.517 Y109.421 E14.01967
G1 X103.068 Y110.972 E14.09992
G1 X105.187 Y110.404 E14.18018
G1 X105.755 Y108.285 E14.26045
G1 X104.991 Y107.521 E14.29997
G1 X105.436 Y107.928 E14.32204
G1 X105.928 Y108.306 E14.34474
G1 X106.45 Y108.638 E14.36737
G1 X106.999 Y108.924 E14.39002
G1 X107.571 Y109.161 E14.41267
G1 X108.162 Y109.348 E14.43535
G1 X108.767 Y109.482 E14.45802
G1 X109.381 Y109.562 E14.48068
G1 X110 Y109.589 E14.50334
G1 X110.619 Y109.562 E14.52601
G1 X111.233 Y109.482 E14.54867
G1 X111.838 Y109.348 E14.57134
G1 X112.429 Y109.161 E14.59402
G1 X113.001 Y108.924 E14.61667
G1 X113.55 Y108.638 E14.63932
G1 X114.072 Y108.306 E14.66195
G1 X114.564 Y107.928 E14.68465
G1 X115.009 Y107.521 E14.70671
G1 X114.245 Y108.285 E14.74624
G1 X114.813 Y110.404 E14.82651
G1 X116.932 Y110.972 E14.90677
G1 X118.483 Y109.421 E14.98702
G1 X117.915 Y107.302 E15.06728
G1 X115.796 Y106.734 E15.14754
G1 X115.032 Y107.498 E15.18707
