;FLAVOR:Marlin
;TIME:155
;Filament used: 0.0849083m
;Layer height: 0.2
;MINX:106.204
;MINY:101.702
;MINZ:0.2
;MAXX:113.795
;MAXY:123.938
;MAXZ:3.8
;Generated with Cura_SteamEngine 4.8.0
M140 S60
M105
M190 S60
M104 S220
M105
M109 S220
M82 ;absolute extrusion mode
; Ender 3 Custom Start G-code
G92 E0 ; Reset Extruder
G28 ; Home all axes
G1 Z2.0 F3000 ; Move Z Axis up little to prevent scratching of Heat Bed
G1 X0.1 Y20 Z0.3 F5000.0 ; Move to start position
G1 X0.1 Y200.0 Z0.3 F1500.0 E15 ; Draw the first line
G1 X0.4 Y200.0 Z0.3 F5000.0 ; Move to side a little
G1 X0.4 Y20 Z0.3 F1500.0 E30 ; Draw the second line
G92 E0 ; Reset Extruder
G1 Z2.0 F3000 ; Move Z Axis up little to prevent scratching of Heat Bed
G1 X5 Y20 Z0.3 F5000.0 ; Move over to prevent blob squish
G92 E0
G92 E0
G1 F1500 E-6.5
;LAYER_COUNT:17
;LAYER:0
M107
;MESH:bearing.stl(1)
G0 F6000 X109.996 Y102.196 Z0.2
;TYPE:WALL-OUTER
G1 F1500 E0
G1 F600 X109.352 Y102.26 E0.02368
G1 X108.731 Y102.447 E0.04741
G1 X108.16 Y102.753 E0.07111
G1 X107.66 Y103.164 E0.09479
G1 X107.25 Y103.664 E0.11844
G1 X106.944 Y104.235 E0.14215
G1 X106.756 Y104.855 E0.16585
G1 X106.692 Y105.5 E0.18956
G1 X106.756 Y106.145 E0.21328
G1 X106.944 Y106.765 E0.23698
G1 X107.25 Y107.336 E0.26068
G1 X107.66 Y107.836 E0.28434
G1 X108.16 Y108.247 E0.30802
G1 X108.731 Y108.553 E0.33172
G1 X109.352 Y108.74 E0.35545
G1 X109.996 Y108.804 E0.37912
G1 X110.64 Y108.74 E0.4028
G1 X111.261 Y108.553 E0.42653
G1 X111.832 Y108.247 E0.45023
G1 X112.332 Y107.836 E0.47391
G1 X112.743 Y107.336 E0.49759
G1 X113.049 Y106.765 E0.52129
G1 X113.236 Y106.144 E0.54502
G1 X113.3 Y105.5 E0.5687
G1 X113.236 Y104.856 E0.59238
G1 X113.049 Y104.235 E0.6161
G1 X112.743 Y103.664 E0.6398
G1 X112.332 Y103.164 E0.66348
G1 X111.832 Y102.753 E0.68716
G1 X111.261 Y102.447 E0.71087
G1 X110.64 Y102.26 E0.73459
G1 X109.996 Y102.196 E0.75827
G0 F6000 X110.31 Y102.116
G1 F600 X110.729 Y102.181 E0.77378
G1 X111.127 Y102.294 E0.78892
G1 X111.512 Y102.457 E0.80422
G1 X111.866 Y102.662 E0.81918
G1 X112.213 Y102.923 E0.83507
G1 X112.504 Y103.206 E0.84992
G1 X112.775 Y103.542 E0.86571
G1 X112.988 Y103.888 E0.88058
G1 X113.166 Y104.272 E0.89606
G1 X113.291 Y104.668 E0.91126
G1 X113.37 Y105.085 E0.92678
G1 X113.395 Y105.5 E0.942
G1 X113.37 Y105.915 E0.95721
G1 X113.291 Y106.332 E0.97273
G1 X113.166 Y106.728 E0.98793
G1 X112.988 Y107.112 E1.00341
G1 X112.775 Y107.458 E1.01828
G1 X112.504 Y107.794 E1.03407
G1 X112.213 Y108.077 E1.04892
G1 X111.866 Y108.338 E1.06481
G1 X111.512 Y108.543 E1.07977
G1 X111.127 Y108.706 E1.09507
G1 X110.729 Y108.819 E1.11021
G1 X110.31 Y108.884 E1.12572
G1 X109.885 Y108.897 E1.14128
G1 X109.48 Y108.86 E1.15615
G1 X109.063 Y108.768 E1.17178
G1 X108.675 Y108.632 E1.18682
G1 X108.291 Y108.441 E1.20251
G1 X107.95 Y108.214 E1.2175
G1 X107.636 Y107.945 E1.23263
G1 X107.342 Y107.622 E1.24861
G1 X107.105 Y107.289 E1.26356
G1 X106.909 Y106.924 E1.27872
G1 X106.757 Y106.531 E1.29413
G1 X106.656 Y106.128 E1.30933
G1 X106.604 Y105.705 E1.32493
G1 X106.604 Y105.295 E1.33993
G1 X106.656 Y104.872 E1.35552
G1 X106.757 Y104.469 E1.37072
G1 X106.909 Y104.076 E1.38613
G1 X107.105 Y103.711 E1.40129
G1 X107.342 Y103.378 E1.41625
G1 X107.636 Y103.055 E1.43223
G1 X107.953 Y102.784 E1.44748
G1 X108.291 Y102.559 E1.46234
G1 X108.675 Y102.368 E1.47803
G1 X109.063 Y102.232 E1.49307
G1 X109.48 Y102.14 E1.5087
G1 X109.885 Y102.103 E1.52357
G1 X110.31 Y102.116 E1.53913
G0 F6000 X110.332 Y102.029
G1 F1500 E-4.96087
;MESH:bearing.stl
G0 F6000 X111.74 Y102.886
G0 X112.218 Y103.278
G0 X112.61 Y103.756
G0 X112.9 Y104.299
G0 X113.078 Y104.888
G0 X113.139 Y105.5
G0 X113.078 Y106.112
G0 X112.9 Y106.701
G0 X112.61 Y107.244
G0 X112.218 Y107.722
G0 X111.831 Y108.038
G0 X109.878 Y109.078
G0 X109.898 Y109.762
G0 X109.897 Y115.877
G0 X109.878 Y116.562
G0 X109.996 Y116.836
;TYPE:WALL-OUTER
G1 F1500 E1.53913
G1 F600 X109.352 Y116.9 E1.56281
G1 X108.731 Y117.087 E1.58654
G1 X108.16 Y117.393 E1.61024
G1 X107.66 Y117.804 E1.63392
G1 X107.25 Y118.304 E1.65757
G1 X106.944 Y118.875 E1.68128
G1 X106.756 Y119.495 E1.70498
G1 X106.692 Y120.14 E1.72869
G1 X106.756 Y120.785 E1.75241
G1 X106.944 Y121.405 E1.77611
G1 X107.25 Y121.976 E1.79981
G1 X107.66 Y122.476 E1.82347
G1 X108.16 Y122.887 E1.84715
G1 X108.731 Y123.193 E1.87085
G1 X109.352 Y123.38 E1.89458
G1 X109.996 Y123.444 E1.91826
G1 X110.64 Y123.38 E1.94193
G1 X111.261 Y123.193 E1.96566
G1 X111.832 Y122.887 E1.98936
G1 X112.332 Y122.476 E2.01304
G1 X112.743 Y121.976 E2.03672
G1 X113.049 Y121.405 E2.06042
G1 X113.236 Y120.784 E2.08415
G1 X113.3 Y120.14 E2.10783
G1 X113.236 Y119.496 E2.13151
G1 X113.049 Y118.875 E2.15523
G1 X112.743 Y118.304 E2.17894
G1 X112.332 Y117.804 E2.20262
G1 X111.832 Y117.393 E2.2263
G1 X111.261 Y117.087 E2.25
G1 X110.64 Y116.9 E2.27373
G1 X109.996 Y116.836 E2.2974
G0 F6000 X110.31 Y116.756
G1 F600 X110.729 Y116.821 E2.31292
G1 X111.127 Y116.934 E2.32805
G1 X111.512 Y117.097 E2.34335
G1 X111.866 Y117.302 E2.35832
G1 X112.213 Y117.563 E2.3742
G1 X112.504 Y117.846 E2.38905
G1 X112.775 Y118.182 E2.40484
G1 X112.988 Y118.528 E2.41971
G1 X113.166 Y118.912 E2.4352
G1 X113.291 Y119.308 E2.45039
G1 X113.37 Y119.726 E2.46595
G1 X113.395 Y120.14 E2.48113
G1 X113.37 Y120.555 E2.49634
G1 X113.291 Y120.972 E2.51186
G1 X113.166 Y121.368 E2.52706
G1 X112.988 Y121.752 E2.54254
G1 X112.775 Y122.098 E2.55741
G1 X112.504 Y122.434 E2.5732
G1 X112.213 Y122.717 E2.58805
G1 X111.866 Y122.978 E2.60394
G1 X111.512 Y123.183 E2.6189
G1 X111.127 Y123.346 E2.6342
G1 X110.729 Y123.459 E2.64934
G1 X110.31 Y123.524 E2.66485
G1 X109.885 Y123.537 E2.68041
G1 X109.48 Y123.5 E2.69528
G1 X109.063 Y123.408 E2.71091
G1 X108.675 Y123.272 E2.72595
G1 X108.291 Y123.081 E2.74164
G1 X107.95 Y122.854 E2.75663
G1 X107.636 Y122.585 E2.77176
G1 X107.342 Y122.262 E2.78774
G1 X107.105 Y121.929 E2.80269
G1 X106.909 Y121.564 E2.81785
G1 X106.757 Y121.171 E2.83326
G1 X106.656 Y120.768 E2.84846
G1 X106.604 Y120.345 E2.86406
G1 X106.604 Y119.935 E2.87906
G1 X106.656 Y119.512 E2.89465
G1 X106.757 Y119.109 E2.90985
G1 X106.909 Y118.716 E2.92527
G1 X107.105 Y118.351 E2.94042
G1 X107.342 Y118.018 E2.95538
G1 X107.636 Y117.695 E2.97136
G1 X107.953 Y117.424 E2.98661
G1 X108.291 Y117.199 E3.00147
G1 X108.675 Y117.008 E3.01716
G1 X109.063 Y116.872 E3.0322
G1 X109.48 Y116.78 E3.04783
G1 X109.885 Y116.743 E3.06271
G1 X110.31 Y116.756 E3.07826
G0 F6000 X110.332 Y116.669
G1 F1500 E-3.42174
;MESH:NONMESH
G0 F300 X110.332 Y116.669 Z0.44
G0 F6000 X110.308 Y115.889
G0 X110.351 Y109.749
G0 X110.331 Y109.065
G0 X111.74 Y108.114
G0 X112.218 Y107.722
G0 X112.61 Y107.244
G0 X112.9 Y106.701
G0 X113.078 Y106.112
G0 X113.139 Y105.5
G0 X113.078 Y104.888
G0 X112.9 Y104.299
G0 X112.61 Y103.756
G0 X112.218 Y103.278
G0 X111.948 Y103.057
G0 X110.699 Y102.278
;TIME_ELAPSED:14.988161
;LAYER:1
;TYPE:WALL-INNER
;MESH:bearing.stl(1)
G1 F1500 E3.07826
G1 X110.64 Y102.26 E3.08072
G1 X110.301 Y102.227 E3.09432
G1 X109.996 Y102.196 E3.10655
G1 X109.896 Y102.205 E3.11056
G1 X109.491 Y102.246 E3.12681
G1 X109.352 Y102.26 E3.13238
G1 X109.095 Y102.337 E3.14309
G1 X109.071 Y102.344 E3.14409
G1 X108.731 Y102.447 E3.15827
G1 X108.717 Y102.454 E3.15889
G1 X108.352 Y102.65 E3.17543
G1 X108.159 Y102.753 E3.18416
G1 X108.131 Y102.776 E3.18561
G1 X108.012 Y102.874 E3.19176
G1 X107.699 Y103.132 E3.20795
G1 X107.66 Y103.164 E3.20996
G1 X107.479 Y103.384 E3.22133
G1 X107.431 Y103.443 E3.22437
G1 X107.25 Y103.664 E3.23577
G1 X107.202 Y103.754 E3.23984
G1 X106.998 Y104.134 E3.25706
G1 X106.944 Y104.235 E3.26163
G1 X106.865 Y104.498 E3.27259
G1 X106.756 Y104.856 E3.28752
G1 X106.754 Y104.881 E3.28852
G1 X106.712 Y105.305 E3.30553
G1 X106.692 Y105.5 E3.31335
G1 X106.711 Y105.694 E3.32113
G1 X106.728 Y105.866 E3.32803
G1 X106.75 Y106.088 E3.33694
G1 X106.753 Y106.118 E3.33814
G1 X106.756 Y106.144 E3.33918
G1 X106.864 Y106.501 E3.35407
G1 X106.944 Y106.765 E3.36508
G1 X106.997 Y106.865 E3.3696
G1 X107.201 Y107.245 E3.38681
G1 X107.25 Y107.336 E3.39094
G1 X107.43 Y107.556 E3.40228
G1 X107.479 Y107.616 E3.40537
G1 X107.66 Y107.836 E3.41674
G1 X107.698 Y107.867 E3.4187
G1 X108.011 Y108.125 E3.43489
G1 X108.131 Y108.224 E3.4411
G1 X108.159 Y108.247 E3.44254
G1 X108.351 Y108.349 E3.45122
G1 X108.716 Y108.545 E3.46776
G1 X108.731 Y108.553 E3.46844
G1 X109.079 Y108.658 E3.48294
G1 X109.094 Y108.662 E3.48356
G1 X109.352 Y108.74 E3.49432
G1 X109.49 Y108.753 E3.49985
G1 X109.895 Y108.793 E3.5161
G1 X109.996 Y108.804 E3.52015
G1 X110.3 Y108.774 E3.53234
G1 X110.64 Y108.74 E3.54598
G1 X110.698 Y108.723 E3.54839
G1 X110.913 Y108.658 E3.55736
G1 X111.095 Y108.603 E3.56495
G1 X111.256 Y108.555 E3.57165
G1 X111.292 Y108.537 E3.57326
G1 X111.46 Y108.447 E3.58087
G1 X111.833 Y108.247 E3.59776
G1 X111.862 Y108.223 E3.59926
G1 X112.137 Y107.996 E3.61349
G1 X112.332 Y107.836 E3.62356
G1 X112.426 Y107.722 E3.62946
G1 X112.692 Y107.399 E3.64616
G1 X112.72 Y107.365 E3.64792
G1 X112.743 Y107.337 E3.64936
G1 X112.889 Y107.063 E3.66175
G1 X113.049 Y106.765 E3.67525
G1 X113.069 Y106.696 E3.67812
G1 X113.151 Y106.424 E3.68946
G1 X113.188 Y106.302 E3.69455
G1 X113.219 Y106.2 E3.6988
G1 X113.234 Y106.149 E3.70092
G1 X113.239 Y106.112 E3.70241
G1 X113.259 Y105.906 E3.71068
G1 X113.278 Y105.715 E3.71834
G1 X113.3 Y105.5 E3.72696
G1 X113.26 Y105.095 E3.7432
G1 X113.236 Y104.856 E3.75279
G1 X113.189 Y104.699 E3.75933
G1 X113.154 Y104.583 E3.76417
G1 X113.07 Y104.305 E3.77576
G1 X113.051 Y104.24 E3.77846
G1 X112.975 Y104.096 E3.78496
G1 X112.89 Y103.938 E3.79212
G1 X112.743 Y103.663 E3.80457
G1 X112.693 Y103.602 E3.80772
G1 X112.515 Y103.385 E3.81892
G1 X112.427 Y103.279 E3.82442
G1 X112.332 Y103.164 E3.83037
G1 X112.138 Y103.005 E3.84038
G1 X111.862 Y102.777 E3.85467
G1 X111.833 Y102.753 E3.85617
G1 X111.461 Y102.554 E3.87301
G1 X111.261 Y102.447 E3.88206
G1 X111.096 Y102.398 E3.88893
G1 X110.92 Y102.345 E3.89627
G1 X110.699 Y102.278 E3.90549
G0 F7500 X110.562 Y102.654
;TYPE:WALL-OUTER
G1 F900 X109.996 Y102.598 E3.92819
G1 X109.43 Y102.654 E3.95089
G1 X109.265 Y102.704 E3.95777
G1 X108.885 Y102.818 E3.9736
G1 X108.383 Y103.087 E3.99633
G1 X108.079 Y103.337 E4.01204
G1 X107.944 Y103.448 E4.01902
G1 X107.839 Y103.576 E4.02563
G1 X107.584 Y103.887 E4.04168
G1 X107.315 Y104.389 E4.06441
G1 X107.15 Y104.934 E4.08714
G1 X107.094 Y105.5 E4.10984
G1 X107.15 Y106.066 E4.13254
G1 X107.315 Y106.611 E4.15526
G1 X107.584 Y107.113 E4.178
G1 X107.839 Y107.424 E4.19405
G1 X107.944 Y107.552 E4.20066
G1 X108.079 Y107.663 E4.20763
G1 X108.383 Y107.913 E4.22334
G1 X108.885 Y108.182 E4.24607
G1 X109.266 Y108.297 E4.26196
G1 X109.43 Y108.346 E4.26879
G1 X109.996 Y108.402 E4.29149
G1 X110.562 Y108.346 E4.31419
G1 X110.726 Y108.297 E4.32102
G1 X111.107 Y108.182 E4.3369
G1 X111.609 Y107.913 E4.35964
G1 X111.913 Y107.663 E4.37534
G1 X112.048 Y107.552 E4.38232
G1 X112.159 Y107.417 E4.3893
G1 X112.409 Y107.113 E4.405
G1 X112.678 Y106.611 E4.42774
G1 X112.842 Y106.066 E4.45045
G1 X112.883 Y105.651 E4.4671
G1 X112.898 Y105.5 E4.47315
G1 X112.842 Y104.934 E4.49585
G1 X112.793 Y104.77 E4.50268
G1 X112.678 Y104.389 E4.51857
G1 X112.409 Y103.887 E4.5413
G1 X112.155 Y103.578 E4.55726
G1 X112.048 Y103.448 E4.56398
G1 X111.913 Y103.337 E4.57096
G1 X111.609 Y103.087 E4.58667
G1 X111.107 Y102.818 E4.6094
G1 X110.727 Y102.704 E4.62523
G1 X110.562 Y102.654 E4.63212
G0 F7500 X110.647 Y102.223
G0 X110.728 Y102.181
;TYPE:WALL-INNER
G1 F1500 X111.127 Y102.294 E4.63644
G1 X111.295 Y102.365 E4.63839
G1 X111.512 Y102.457 E4.64083
G1 X111.872 Y102.665 E4.64514
G1 X111.889 Y102.678 E4.64599
G1 X112.208 Y102.919 E4.6501
G1 X112.214 Y102.925 E4.65019
G1 X112.394 Y103.1 E4.65282
G1 X112.505 Y103.208 E4.65448
G1 X112.771 Y103.537 E4.65886
G1 X112.819 Y103.615 E4.65991
G1 X112.987 Y103.885 E4.66318
G1 X113.131 Y104.197 E4.66671
G1 X113.167 Y104.275 E4.66671
G1 X113.291 Y104.668 E4.67099
G1 X113.323 Y104.839 E4.67282
G1 X113.37 Y105.084 E4.67542
G1 X113.395 Y105.5 E4.67983
G1 X113.37 Y105.916 E4.68424
G1 X113.324 Y106.16 E4.68688
G1 X113.291 Y106.332 E4.68876
G1 X113.167 Y106.725 E4.69313
G1 X113.132 Y106.802 E4.69412
G1 X112.987 Y107.115 E4.69766
G1 X112.82 Y107.384 E4.70092
G1 X112.771 Y107.463 E4.70116
G1 X112.508 Y107.789 E4.70546
G1 X112.395 Y107.899 E4.70712
G1 X112.208 Y108.081 E4.70984
G1 X111.89 Y108.321 E4.71395
G1 X111.872 Y108.335 E4.71486
G1 X111.512 Y108.543 E4.719
G1 X111.352 Y108.61 E4.72081
G1 X111.296 Y108.634 E4.72145
G1 X111.127 Y108.706 E4.72339
G1 X110.728 Y108.819 E4.72771
G1 X110.655 Y108.83 E4.72862
G1 X110.311 Y108.884 E4.73222
G1 X109.999 Y108.893 E4.73543
G1 X109.885 Y108.897 E4.73673
G1 X109.48 Y108.86 E4.74101
G1 X109.333 Y108.828 E4.74267
G1 X109.063 Y108.768 E4.74554
G1 X108.701 Y108.641 E4.74948
G1 X108.671 Y108.63
G1 X108.493 Y108.541 E4.75152
G1 X108.3 Y108.446 E4.75372
G1 X108.293 Y108.441 E4.75381
G1 X108.111 Y108.32 E4.7561
G1 X107.943 Y108.208 E4.7582
G1 X107.635 Y107.945 E4.76244
G1 X107.593 Y107.898 E4.76327
G1 X107.482 Y107.777 E4.76495
G1 X107.345 Y107.627 E4.76703
G1 X107.34 Y107.62 E4.76712
G1 X107.176 Y107.389 E4.77007
G1 X107.109 Y107.295 E4.77118
G1 X106.906 Y106.915 E4.77564
G1 X106.861 Y106.798 E4.77703
G1 X106.757 Y106.534 E4.77997
G1 X106.666 Y106.167 E4.7839
G1 X106.656 Y106.128 E4.7845
G1 X106.604 Y105.705 E4.78885
G1 X106.604 Y105.5 E4.79101
G1 X106.604 Y105.295 E4.79317
G1 X106.656 Y104.872 E4.79762
G1 X106.665 Y104.834
G1 X106.755 Y104.472 E4.80152
G1 X106.757 Y104.466 E4.80159
G1 X106.86 Y104.203 E4.80454
G1 X106.906 Y104.085 E4.80595
G1 X107.109 Y103.705 E4.81044
G1 X107.175 Y103.612 E4.81175
G1 X107.342 Y103.378 E4.81476
G1 X107.592 Y103.103 E4.81856
G1 X107.635 Y103.055 E4.81939
G1 X107.943 Y102.792 E4.82358
G1 X108.11 Y102.681 E4.82568
G1 X108.289 Y102.562 E4.82793
G1 X108.3 Y102.554 E4.82807
G1 X108.566 Y102.422 E4.83115
G1 X108.671 Y102.37 E4.83237
G1 X108.7 Y102.36 E4.83287
G1 X109.063 Y102.232 E4.8368
G1 X109.332 Y102.173 E4.83964
G1 X109.48 Y102.14 E4.8413
G1 X109.884 Y102.103 E4.84552
G1 X109.998 Y102.106 E4.84681
G1 X110.311 Y102.116 E4.85006
G1 X110.654 Y102.169 E4.85369
G1 X110.728 Y102.181
G0 F7500 X110.817 Y101.79
;TYPE:WALL-OUTER
G1 F900 X111.068 Y101.861 E4.8641
G1 X111.257 Y101.915 E4.87195
G1 X111.69 Y102.098 E4.89071
G1 X112.094 Y102.332 E4.90934
G1 X112.472 Y102.617 E4.92824
G1 X112.801 Y102.937 E4.94656
G1 X113.098 Y103.305 E4.96543
G1 X113.152 Y103.392 E4.96952
G1 X113.341 Y103.698 E4.98387
G1 X113.539 Y104.127 E5.00273
G1 X113.558 Y104.187 E5.00524
G1 X113.68 Y104.574 E5.02144
G1 X113.767 Y105.033 E5.04008
G1 X113.775 Y105.161 E5.0452
G1 X113.795 Y105.5 E5.05876
G1 X113.767 Y105.967 E5.07743
G1 X113.68 Y106.426 E5.09607
G1 X113.539 Y106.873 E5.11478
G1 X113.341 Y107.302 E5.13364
G1 X113.098 Y107.695 E5.15208
G1 X112.801 Y108.063 E5.17096
G1 X112.472 Y108.383 E5.18927
G1 X112.094 Y108.668 E5.20817
G1 X111.69 Y108.902 E5.2268
G1 X111.257 Y109.085 E5.24556
G1 X111.093 Y109.131 E5.25236
G1 X110.817 Y109.21 E5.26382
G1 X110.544 Y109.252 E5.27484
G1 X110.344 Y109.283 E5.28292
G1 X109.877 Y109.298 E5.30157
G1 X109.413 Y109.255 E5.32017
G1 X108.961 Y109.155 E5.33865
G1 X108.707 Y109.066 E5.34939
G1 X108.678 Y109.056 E5.35061
G1 X108.513 Y108.998 E5.35759
G1 X108.101 Y108.793 E5.37596
G1 X107.761 Y108.567 E5.39225
G1 X107.704 Y108.529 E5.39499
G1 X107.669 Y108.499 E5.39683
G1 X107.353 Y108.23 E5.41339
G1 X107.035 Y107.881 E5.43224
G1 X106.798 Y107.547 E5.44858
G1 X106.765 Y107.5 E5.45087
G1 X106.542 Y107.084 E5.46971
G1 X106.376 Y106.657 E5.488
G1 X106.262 Y106.201 E5.50676
G1 X106.204 Y105.73 E5.5257
G1 X106.204 Y105.27 E5.54406
G1 X106.262 Y104.799 E5.563
G1 X106.278 Y104.733 E5.56571
G1 X106.376 Y104.343 E5.58176
G1 X106.542 Y103.916 E5.60004
G1 X106.732 Y103.561 E5.61611
G1 X106.765 Y103.5 E5.61888
G1 X106.799 Y103.452 E5.62123
G1 X107.035 Y103.119 E5.63752
G1 X107.353 Y102.77 E5.65636
G1 X107.704 Y102.471 E5.67477
G1 X108.101 Y102.207 E5.6938
G1 X108.513 Y102.002 E5.71216
G1 X108.749 Y101.919 E5.72215
G1 X108.844 Y101.886 E5.72616
G1 X108.961 Y101.845 E5.73111
G1 X109.413 Y101.745 E5.74959
G1 X109.877 Y101.702 E5.76819
G1 X110.344 Y101.717 E5.78683
G1 X110.544 Y101.748 E5.79491
