;FLAVOR:Marlin
;TIME:344
;Filament used: 0.146606m
;Layer height: 0.2
;MINX:102.653
;MINY:100.738
;MINZ:0.2
;MAXX:117.427
;MAXY:116.13
;MAXZ:5
;Generated with Cura_SteamEngine 4.8.0
M140 S60
M105
M190 S60
M104 S220
M105
M109 S220
M82 ;absolute extrusion mode
; Ender 3 Custom Start G-code
G92 E0 ; Reset Extruder
G28 ; Home all axes
G1 Z2.0 F3000 ; Move Z Axis up little to prevent scratching of Heat Bed
G1 X0.1 Y20 Z0.3 F5000.0 ; Move to start position
G1 X0.1 Y200.0 Z0.3 F1500.0 E15 ; Draw the first line
G1 X0.4 Y200.0 Z0.3 F5000.0 ; Move to side a little
G1 X0.4 Y20 Z0.3 F1500.0 E30 ; Draw the second line
G92 E0 ; Reset Extruder
G1 Z2.0 F3000 ; Move Z Axis up little to prevent scratching of Heat Bed
G1 X5 Y20 Z0.3 F5000.0 ; Move over to prevent blob squish
G92 E0
G92 E0
G1 F1500 E-6.5
;LAYER_COUNT:25
;LAYER:0
M107
;MESH:shaft.stl
G0 F6000 X105.327 Y104.553 Z0.2
;TYPE:WALL-INNER
G1 F1500 E0
G1 F600 X104.127 Y104.553 E0.0439
G1 X104.127 Y103.018 E0.10006
G1 X105.327 Y103.018 E0.14397
G1 X105.327 Y104.553 E0.20013
G0 F6000 X105.727 Y104.953
;TYPE:WALL-OUTER
G1 F600 X103.727 Y104.953 E0.2733
G1 X103.727 Y102.618 E0.35873
G1 X105.727 Y102.618 E0.4319
G1 X105.727 Y104.953 E0.51733
G1 F1500 E-5.98267
G0 F6000 X105.427 Y104.683
G0 X106.58 Y104.382
G0 X109.274 Y104.382
G0 X110.347 Y104.718
G0 X116.627 Y104.718
;TYPE:WALL-INNER
G1 F1500 E0.51733
G1 F600 X113.127 Y104.718 E0.64538
G1 X113.127 Y104.553 E0.65142
G1 X110.527 Y104.553 E0.74654
G1 X110.527 Y103.018 E0.8027
G1 X113.127 Y103.018 E0.89782
G1 X113.127 Y102.854 E0.90382
G1 X116.428 Y102.853 E1.0246
G1 X116.627 Y102.853 E1.03188
G1 X116.627 Y103.052 E1.03659
G1 X116.627 Y104.718 E1.09754
G0 F6000 X116.727 Y105.118
;TYPE:WALL-OUTER
G1 F600 X112.727 Y105.118 E1.24388
G1 X112.727 Y104.953 E1.24992
G1 X110.127 Y104.953 E1.34504
G1 X110.127 Y102.618 E1.43047
G1 X112.727 Y102.618 E1.5256
G1 X112.727 Y102.454 E1.5316
G1 X116.727 Y102.453 E1.67794
G1 X116.727 Y101.55 E1.71098
G1 X117.027 Y101.549 E1.72195
G1 X117.027 Y106.021 E1.88557
G1 X116.727 Y106.022 E1.89654
G1 X116.727 Y105.118 E1.92962
G1 F1500 E-4.57038
G0 F6000 X116.727 Y104.818
G0 X112.941 Y104.904
G0 X112.941 Y105.983
G0 X112.337 Y105.977
G0 X109.911 Y105.818
G0 X109.877 Y105.068
;TYPE:SKIN
G1 F1500 E1.92962
G1 F600 X109.618 Y105.093 E1.93247
G1 X106.224 Y105.093 E1.96966
G1 X105.97 Y105.122 E1.97247
G0 F6000 X105.94 Y105.092
G0 X106.211 Y102.534
G0 X106.153 Y102.476
G1 F600 X106.435 Y102.476 E1.97565
G1 X109.829 Y102.476 E2.01395
G0 F6000 X109.888 Y102.534
G0 X110.341 Y102.832
G0 X110.637 Y103.408
G0 X110.917 Y103.408
;TYPE:SKIN
G1 F600 X113.517 Y103.408 E2.11858
G1 X113.517 Y103.244 E2.12518
G1 X116.237 Y103.243 E2.23465
G1 X116.237 Y104.328 E2.27831
G1 X113.517 Y104.328 E2.38778
G1 X113.517 Y104.163 E2.39442
G1 X110.917 Y104.163 E2.49906
G1 X110.917 Y103.408 E2.52944
G0 F6000 X111.356 Y104.002
G1 F600 X111.075 Y103.721 E2.54543
G0 F6000 X111.487 Y103.567
G1 F600 X111.922 Y104.002 E2.57019
G0 F6000 X112.053 Y103.567
G1 F600 X112.487 Y104.002 E2.59492
G0 F6000 X112.618 Y103.567
G1 F600 X113.053 Y104.002 E2.61968
G0 F6000 X113.184 Y103.567
G1 F600 X113.619 Y104.002 E2.64444
G0 F6000 X113.675 Y104.059
G1 F600 X113.784 Y104.168 E2.65064
G0 F6000 X114.35 Y104.168
G1 F600 X113.676 Y103.494 E2.689
G0 F6000 X114.151 Y103.403
G1 F600 X114.916 Y104.168 E2.73254
G0 F6000 X115.481 Y104.168
G1 F600 X114.717 Y103.403 E2.77605
G0 F6000 X115.283 Y103.403
G1 F600 X116.047 Y104.168 E2.81956
G0 F6000 X116.075 Y103.63
G1 F600 X115.848 Y103.403 E2.83248
G1 F1500 E-3.66752
G0 F6000 X115.848 Y102.963
G0 X110.347 Y103.128
G0 X109.274 Y103.188
G0 X106.58 Y103.188
G0 X105.507 Y103.128
G0 X104.937 Y103.128
G0 X104.937 Y103.408
G1 F1500 E2.83248
G1 F600 X104.937 Y104.163 E2.86287
G1 X104.517 Y104.163 E2.87977
G1 X104.517 Y103.408 E2.91015
G1 X104.937 Y103.408 E2.92706
G0 F6000 X104.776 Y103.644
G1 F600 X104.699 Y103.568 E2.93141
G0 F6000 X104.699 Y103.218
G1 F1500 E-3.56859
;MESH:shaft.stl(1)
G0 F6000 X104.699 Y103.128
G0 X105.145 Y103.2
G0 X105.513 Y104.739
G0 X105.513 Y105.818
G0 X114.567 Y111.05
G0 X114.567 Y112.129
G0 X114.935 Y113.669
G0 X115.953 Y113.851
;TYPE:WALL-INNER
G1 F1500 E2.93141
G1 F600 X114.753 Y113.851 E2.97532
G1 X114.753 Y112.315 E3.03151
G1 X115.953 Y112.315 E3.07541
G1 X115.953 Y113.851 E3.13161
G0 F6000 X116.353 Y114.251
;TYPE:WALL-OUTER
G1 F600 X114.353 Y114.251 E3.20478
G1 X114.353 Y111.915 E3.29025
G1 X116.353 Y111.915 E3.36342
G1 X116.353 Y114.251 E3.44889
G1 F1500 E-3.05111
G0 F6000 X116.053 Y113.981
G0 X114.935 Y113.669
G0 X114.573 Y112.15
G0 X113.5 Y112.486
G0 X110.806 Y112.486
G0 X109.733 Y112.15
G0 X103.453 Y112.15
;TYPE:WALL-INNER
G1 F1500 E3.44889
G1 F600 X106.953 Y112.15 E3.57694
G1 X106.953 Y112.315 E3.58297
G1 X109.553 Y112.315 E3.6781
G1 X109.553 Y113.851 E3.73429
G1 X106.953 Y113.851 E3.82942
G1 X106.953 Y114.015 E3.83542
G1 X103.652 Y114.016 E3.95619
G1 X103.453 Y114.016 E3.96347
G1 X103.453 Y113.817 E3.96818
G1 X103.453 Y112.15 E4.02917
G0 F6000 X103.353 Y111.75
;TYPE:WALL-OUTER
G1 F600 X107.353 Y111.75 E4.17551
G1 X107.353 Y111.915 E4.18155
G1 X109.953 Y111.915 E4.27668
G1 X109.953 Y114.251 E4.36214
G1 X107.353 Y114.251 E4.45726
G1 X107.353 Y114.415 E4.46326
G1 X103.353 Y114.416 E4.60961
G1 X103.353 Y115.318 E4.64261
G1 X103.053 Y115.319 E4.65359
G1 X103.053 Y110.847 E4.8172
G1 X103.353 Y110.846 E4.82818
G1 X103.353 Y111.75 E4.86125
G1 F1500 E-1.63875
G0 F6000 X103.353 Y112.05
G0 X107.139 Y111.964
G0 X107.139 Y110.885
G0 X107.743 Y110.891
G0 X110.3 Y111.05
G0 X110.359 Y111.773
;TYPE:SKIN
G1 F1500 E4.86125
G1 F600 X110.642 Y111.773 E4.86456
G1 X114.036 Y111.773 E4.90433
G0 F6000 X114.095 Y111.832
G0 X114.049 Y114.332
G0 X114.093 Y114.376
G1 F600 X113.825 Y114.391 E4.90724
G1 X110.431 Y114.391 E4.94411
G1 X110.187 Y114.43 E4.94679
G0 F6000 X110.167 Y114.41
G0 X109.739 Y114.037
G0 X109.443 Y113.461
G0 X109.163 Y113.461
;TYPE:SKIN
G1 F600 X106.563 Y113.461 E5.05143
G1 X106.563 Y113.625 E5.05803
G1 X103.843 Y113.626 E5.16749
G1 X103.843 Y112.54 E5.2112
G1 X106.563 Y112.54 E5.32066
G1 X106.563 Y112.705 E5.3273
G1 X109.163 Y112.705 E5.43194
G1 X109.163 Y113.461 E5.46236
G0 F6000 X109.003 Y112.963
G1 F600 X108.904 Y112.864 E5.468
G0 F6000 X108.774 Y113.3
G1 F600 X108.338 Y112.864 E5.49281
G0 F6000 X108.209 Y113.3
G1 F600 X107.772 Y112.864 E5.51766
G0 F6000 X107.643 Y113.3
G1 F600 X107.207 Y112.864 E5.54247
G0 F6000 X107.077 Y113.3
G1 F600 X106.641 Y112.864 E5.56729
G0 F6000 X106.512 Y113.3
G1 F600 X105.911 Y112.699 E5.60149
G0 F6000 X105.345 Y112.699
G1 F600 X106.11 Y113.464 E5.64503
G0 F6000 X105.544 Y113.464
G1 F600 X104.779 Y112.699 E5.68857
G0 F6000 X104.214 Y112.699
G1 F600 X104.979 Y113.464 E5.73211
G0 F6000 X104.413 Y113.464
G1 F600 X104.002 Y113.053 E5.7555
G1 F1500 E-0.7445
G0 F6000 X103.563 Y113.053
G0 X103.635 Y112.332
G0 X106.174 Y112.332
G0 X109.733 Y112.425
G0 X110.806 Y112.486
G0 X113.5 Y112.486
G0 X114.573 Y112.425
G0 X115.143 Y112.425
G0 X115.143 Y112.705
G1 F1500 E5.7555
G1 F600 X115.563 Y112.705 E5.77241
G1 X115.563 Y113.461 E5.80283
G1 X115.143 Y113.461 E5.81973
G1 X115.143 Y112.705 E5.85016
G0 F6000 X115.302 Y113.039
G1 F600 X115.402 Y113.139 E5.85585
G0 F6000 X115.753 Y113.139
G1 F1500 E-0.64415
;MESH:NONMESH
G0 F300 X115.753 Y113.139 Z0.44
G0 F6000 X115.843 Y113.139
G0 X115.771 Y112.497
G0 X114.567 Y112.129
G0 X114.567 Y111.05
G0 X105.513 Y105.818
G0 X105.513 Y104.739
G0 X105.727 Y104.953
;TIME_ELAPSED:31.425569
;LAYER:1
;MESH:shaft.stl
G0 F7500 X103.727 Y104.953
;TYPE:WALL-INNER
G1 F1500 E5.85585
G1 X103.727 Y102.618 E5.94905
G1 X105.727 Y102.618 E6.02887
G1 X105.727 Y104.435 E6.10139
G1 X105.727 Y104.953 E6.12206
G1 X103.727 Y104.953 E6.20189
G0 F7500 X105.899 Y105.063
G0 X109.955 Y105.063
G0 X110.309 Y102.8
G0 X112.727 Y102.618
G1 F1500 X112.727 Y102.454
G1 X112.727 Y102.275
;TYPE:WALL-INNER
;BRIDGE
M106 S255
G1 F600 X116.727 Y102.274 E6.31364
;TYPE:WALL-INNER
M107
G1 F1500 X116.727 Y101.55 E6.34254
G1 X116.727 Y101.42 E6.34773
G1 X117.027 Y101.42 E6.3597
G1 X117.027 Y101.549 E6.36357
G1 X117.027 Y102.274 E6.38533
G1 X117.027 Y105.297 E6.50598
G1 X117.027 Y106.021
G1 X117.027 Y106.151
G1 X116.727 Y106.152
G1 X116.727 Y105.297
;TYPE:WALL-INNER
;BRIDGE
M106 S255
G1 F600 X112.727 Y105.297 E6.61774
;TYPE:WALL-INNER
M107
G1 F1500 X112.727 Y105.118 E6.62488
G1 X112.727 Y104.953 E6.63147
G1 X110.281 Y104.953 E6.72909
G1 X110.127 Y104.953
G1 X110.127 Y104.459 E6.74881
G1 X110.127 Y103.135
G1 X110.127 Y102.618
G1 X110.928 Y102.618 E6.78078
G1 X112.727 Y102.618
G1 F1500 E0.28078
G0 F7500 X110.309 Y102.8
G0 X109.955 Y105.063
G0 X105.899 Y105.063
G0 X106.127 Y104.835
;TYPE:WALL-OUTER
G1 F1500 E6.78078
G1 F900 X109.727 Y104.835 E6.92446
G1 X109.727 Y104.435 E6.94043
G1 X109.727 Y103.135 E6.99231
G1 X109.727 Y102.735 E7.00828
G1 X106.127 Y102.735 E7.15196
G1 X106.127 Y103.135 E7.16793
G1 X106.127 Y104.435 E7.21981
G1 X106.127 Y104.835 E7.23578
G1 F1500 E0.73578
G0 F7500 X105.827 Y104.835
G0 X103.597 Y105.083
G0 X103.327 Y105.353
G1 F1500 E7.23578
G1 F900 X103.327 Y102.218 E7.3609
G1 X104.394 Y102.218 E7.40349
G1 X105.727 Y102.218
;TYPE:WALL-OUTER
;BRIDGE
M106 S255
G1 F600 X110.127 Y102.218 E7.52642
;TYPE:WALL-OUTER
M107
G1 X111.127 Y102.218 E7.58629
G1 F675 X111.927 Y102.218 E7.62886
G1 F731.2 X112.327 Y102.218 E7.64851
G1 F900 X112.327 Y101.875 E7.6622
;TYPE:WALL-OUTER
;BRIDGE
M106 S255
G1 F600 X116.327 Y101.874 E7.77395
;TYPE:WALL-OUTER
M107
G1 F900 X116.327 Y101.02 E7.80804
G1 X117.427 Y101.02 E7.85194
G1 X117.427 Y101.547 E7.87297
G1 X117.427 Y106.019 E8.05146
G1 X117.427 Y106.551 E8.0727
G1 X116.327 Y106.552 E8.1166
G1 X116.327 Y105.697 E8.15072
;TYPE:WALL-OUTER
;BRIDGE
M106 S255
G1 F600 X112.327 Y105.697 E8.26248
;TYPE:WALL-OUTER
M107
G1 F900 X112.327 Y105.353 E8.27621
G1 X111.927 Y105.353 E8.29217
G1 X110.127 Y105.353 E8.36401
;TYPE:WALL-OUTER
;BRIDGE
M106 S255
G1 F600 X105.727 Y105.353 E8.48694
;TYPE:WALL-OUTER
M107
G1 X103.327 Y105.353 E8.63063
G0 F7500 X103.597 Y105.083
G0 X103.837 Y104.563
G0 X104.117 Y104.563
;TYPE:SKIN
G1 F1200 X104.117 Y103.008 E8.6989
G1 X105.337 Y103.008 E8.75246
G1 X105.337 Y104.563 E8.82073
G1 X104.117 Y104.563 E8.87429
G0 F7500 X103.837 Y104.563
G0 X105.545 Y104.771
G0 X105.617 Y104.127
G0 X105.176 Y104.127
G1 F1200 X104.9 Y104.402 E8.8914
G0 F7500 X104.335 Y104.402
G1 F1200 X105.176 Y103.561 E8.94361
G0 F7500 X105.004 Y103.167
G1 F1200 X104.277 Y103.895 E8.98878
G0 F7500 X104.277 Y103.329
G1 F1200 X104.438 Y103.167 E8.99881
G0 F7500 X104.438 Y102.728
G0 X105.899 Y102.507
G0 X109.955 Y102.507
G0 X110.237 Y103.008
G0 X110.517 Y103.008
G1 F1200 X113.117 Y103.008 E9.11296
G1 X113.117 Y102.665 E9.12802
G1 X116.637 Y102.664 E9.28256
G1 X116.637 Y104.907 E9.38103
G1 X113.117 Y104.907 E9.53557
G1 X113.117 Y104.563 E9.55068
G1 X110.517 Y104.563 E9.66482
G1 X110.517 Y103.008 E9.73309
G0 F7500 X110.676 Y103.718
G1 F1200 X111.227 Y103.167 E9.7673
G0 F7500 X111.792 Y103.167
G1 F1200 X110.676 Y104.284 E9.83663
G0 F7500 X111.122 Y104.403
G1 F1200 X112.358 Y103.167 E9.91337
G0 F7500 X112.924 Y103.167
G1 F1200 X111.688 Y104.403 E9.99011
G0 F7500 X112.253 Y104.403
G1 F1200 X113.832 Y102.824 E10.08815
G0 F7500 X114.398 Y102.824
G1 F1200 X112.819 Y104.403 E10.18619
G0 F7500 X113.276 Y104.512
G1 F1200 X114.964 Y102.823 E10.29102
G0 F7500 X115.53 Y102.823
G1 F1200 X113.607 Y104.747 E10.41045
G0 F7500 X114.172 Y104.747
G1 F1200 X116.096 Y102.823 E10.52991
G0 F7500 X116.476 Y103.009
G1 F1200 X114.738 Y104.747 E10.63782
G0 F7500 X115.304 Y104.747
G1 F1200 X116.476 Y103.575 E10.71059
G0 F7500 X116.476 Y104.141
G1 F1200 X115.87 Y104.747 E10.74821
G0 F7500 X115.87 Y105.187
G0 X110.027 Y105.009
G0 X109.866 Y105.093
;TYPE:SKIN
G1 F2100 X109.583 Y105.093 E10.75331
G1 X106.189 Y105.093 E10.81438
G1 X105.938 Y105.061 E10.81894
G0 F7500 X105.886 Y105.053
G0 X105.827 Y102.56
G0 X105.977 Y102.476
G1 F2100 X106.26 Y102.476 E10.82401
G1 X109.654 Y102.476 E10.88479
G1 X109.91 Y102.504 E10.8894
G0 F7500 X110.327 Y102.818
G1 F1500 E4.3894
;MESH:shaft.stl(1)
G0 F7500 X110.267 Y102.758
G0 X110.309 Y104.771
G0 X112.541 Y105.139
G0 X112.541 Y106.562
G0 X112.541 Y110.65
G0 X112.541 Y111.735
G0 X114.181 Y111.805
G0 X114.353 Y111.915
G0 X116.353 Y111.915
;TYPE:WALL-INNER
G1 F1500 E10.8894
G1 X116.353 Y114.251 E10.98263
G1 X114.353 Y114.251 E11.06246
G1 X114.353 Y112.433 E11.13502
G1 X114.353 Y111.915 E11.15569
G1 X116.353 Y111.915 E11.23552
G0 F7500 X114.181 Y111.805
G0 X110.125 Y111.805
G0 X109.771 Y114.069
G0 X107.353 Y114.251
G1 F1500 X107.353 Y114.415
G1 X107.353 Y114.594
;TYPE:WALL-INNER
;BRIDGE
M106 S255
G1 F600 X103.353 Y114.595 E11.34727
;TYPE:WALL-INNER
M107
G1 F1500 X103.353 Y115.448 E11.38132
G1 X103.053 Y115.448 E11.39329
G1 X103.053 Y115.319 E11.39716
G1 X103.053 Y114.595 E11.41889
G1 X103.053 Y111.571 E11.53958
G1 X103.053 Y110.847 E11.56848
G1 X103.053 Y110.717 E11.57367
G1 X103.353 Y110.716 E11.58564
G1 X103.353 Y111.571 E11.6113
;TYPE:WALL-INNER
;BRIDGE
M106 S255
G1 F600 X107.353 Y111.571 E11.72306
;TYPE:WALL-INNER
M107
G1 F1500 X107.353 Y111.75 E11.7302
G1 X107.353 Y111.915 E11.73679
G1 X109.799 Y111.915 E11.83441
G1 X109.953 Y111.915
G1 X109.953 Y112.409 E11.85413
G1 X109.953 Y113.733
G1 X109.953 Y114.251
G1 X109.152 Y114.251 E11.8861
G1 X107.353 Y114.251
G1 F1500 E5.3861
G0 F7500 X109.771 Y114.069
G0 X110.125 Y111.805
G0 X113.953 Y111.733
G0 X113.953 Y112.033
;TYPE:WALL-OUTER
G1 F1500 E11.8861
G1 F900 X110.353 Y112.033 E12.02978
G1 X110.353 Y112.433 E12.04575
G1 X110.353 Y113.733 E12.09763
G1 X110.353 Y114.133 E12.1136
G1 X113.953 Y114.133 E12.25728
G1 X113.953 Y113.733 E12.27325
G1 X113.953 Y112.433 E12.32513
G1 X113.953 Y112.033 E12.3411
G1 F1500 E5.8411
G0 F7500 X113.953 Y111.733
G0 X116.483 Y111.785
G0 X116.753 Y111.515
G1 F1500 E12.3411
G1 F900 X116.753 Y114.651 E12.46626
G1 X115.686 Y114.651 E12.50885
G1 X114.353 Y114.651
;TYPE:WALL-OUTER
;BRIDGE
M106 S255
G1 F600 X109.953 Y114.651 E12.63178
;TYPE:WALL-OUTER
M107
G1 X108.953 Y114.651 E12.69165
G1 F675 X108.153 Y114.651 E12.73422
G1 F731.2 X107.753 Y114.651 E12.75387
G1 F900 X107.753 Y114.994 E12.76756
;TYPE:WALL-OUTER
;BRIDGE
M106 S255
G1 F600 X103.753 Y114.995 E12.87931
;TYPE:WALL-OUTER
M107
G1 F900 X103.753 Y115.848 E12.91336
G1 X102.653 Y115.848 E12.95726
G1 X102.653 Y115.321 E12.97829
G1 X102.653 Y110.849 E13.15678
G1 X102.653 Y110.317 E13.17801
G1 X103.753 Y110.316 E13.22192
G1 X103.753 Y111.171 E13.25604
;TYPE:WALL-OUTER
;BRIDGE
M106 S255
G1 F600 X107.753 Y111.171 E13.3678
;TYPE:WALL-OUTER
M107
G1 F900 X107.753 Y111.515 E13.38153
G1 X108.153 Y111.515 E13.39749
G1 X109.953 Y111.515 E13.46933
;TYPE:WALL-OUTER
;BRIDGE
M106 S255
G1 F600 X114.353 Y111.515 E13.59226
;TYPE:WALL-OUTER
M107
G1 X116.753 Y111.515 E13.73595
G0 F7500 X116.483 Y111.785
G0 X115.963 Y112.025
G0 X115.963 Y112.305
;TYPE:SKIN
G1 F1200 X115.963 Y113.861 E13.80426
G1 X114.743 Y113.861 E13.85782
G1 X114.743 Y112.305 E13.92614
G1 X115.963 Y112.305 E13.9797
G0 F7500 X115.506 Y112.464
G1 F1200 X114.902 Y113.069 E14.01723
G0 F7500 X114.902 Y113.634
G1 F1200 X115.802 Y112.734 E14.07311
G0 F7500 X115.802 Y113.3
G1 F1200 X115.401 Y113.701 E14.09801
G0 F7500 X115.401 Y114.141
G0 X114.181 Y114.361
G0 X110.125 Y114.361
G0 X109.843 Y113.861
G0 X109.563 Y113.861
G1 F1200 X106.963 Y113.861 E14.21216
G1 X106.963 Y114.204 E14.22722
G1 X103.443 Y114.205 E14.38176
G1 X103.443 Y111.961 E14.48028
G1 X106.963 Y111.961 E14.63482
G1 X106.963 Y112.305 E14.64992
G1 X109.563 Y112.305 E14.76407
G1 X109.563 Y113.861 E14.83238
G0 F7500 X109.179 Y113.7
G1 F1200 X109.402 Y113.477 E14.84623
G0 F7500 X109.402 Y112.911
G1 F1200 X108.613 Y113.7 E14.89521
G0 F7500 X108.048 Y113.7
G1 F1200 X109.284 Y112.463 E14.97199
G0 F7500 X108.719 Y112.463
G1 F1200 X107.482 Y113.7 E15.04879
G0 F7500 X106.916 Y113.7
G1 F1200 X108.153 Y112.463 E15.12559
G0 F7500 X107.587 Y112.463
G1 F1200 X106.007 Y114.044 E15.22373
G0 F7500 X105.441 Y114.044
G1 F1200 X107.022 Y112.463 E15.32189
G0 F7500 X106.799 Y112.12
G1 F1200 X104.875 Y114.044 E15.44135
G0 F7500 X104.31 Y114.044
G1 F1200 X106.234 Y112.12 E15.56081
G0 F7500 X105.668 Y112.12
G1 F1200 X103.744 Y114.044 E15.68026
G0 F7500 X103.603 Y113.62
