;FLAVOR:Marlin
;TIME:4181
;Filament used: 1.69368m
;Layer height: 0.2
;MINX:61.285
;MINY:103.256
;MINZ:0.2
;MAXX:158.715
;MAXY:133.675
;MAXZ:12.24
;Generated with Cura_SteamEngine 4.8.0
M140 S60
M105
M190 S60
M104 S220
M105
M109 S220
M82 ;absolute extrusion mode
; Ender 3 Custom Start G-code
G92 E0 ; Reset Extruder
G28 ; Home all axes
G1 Z2.0 F3000 ; Move Z Axis up little to prevent scratching of Heat Bed
G1 X0.1 Y20 Z0.3 F5000.0 ; Move to start position
G1 X0.1 Y200.0 Z0.3 F1500.0 E15 ; Draw the first line
G1 X0.4 Y200.0 Z0.3 F5000.0 ; Move to side a little
G1 X0.4 Y20 Z0.3 F1500.0 E30 ; Draw the second line
G92 E0 ; Reset Extruder
G1 Z2.0 F3000 ; Move Z Axis up little to prevent scratching of Heat Bed
G1 X5 Y20 Z0.3 F5000.0 ; Move over to prevent blob squish
G92 E0
G92 E0
G1 F1500 E-6.5
;LAYER_COUNT:73
;LAYER:0
M107
G0 F6000 X105.289 Y121.164 Z0.2
;TYPE:SKIRT
G1 F1500 E0
G1 F600 X106.307 Y121.164 E0.03724
G1 X106.278 Y121.189 E0.03865
G1 X105.891 Y121.58 E0.05877
G1 X105.805 Y121.696 E0.06406
G1 X105.674 Y121.535 E0.07165
G1 X105.392 Y121.253 E0.08624
G1 X105.289 Y121.164 E0.09122
G0 F6000 X105.109 Y121.536
G1 F600 X104.713 Y121.197 E0.11029
G1 X104.271 Y120.922 E0.12934
G1 X103.898 Y120.763 E0.14417
G1 X107.532 Y120.764 E0.27713
G1 X107.12 Y121.009 E0.29466
G1 X106.842 Y121.228 E0.30761
G1 X106.542 Y121.49 E0.32218
G1 X106.176 Y121.862 E0.34128
G1 X105.872 Y122.285 E0.36034
G1 X105.799 Y122.318 E0.36327
G1 X105.767 Y122.264 E0.36556
G1 X105.391 Y121.818 E0.38691
G1 X105.109 Y121.536 E0.4015
G0 F6000 X104.826 Y121.819
G1 F600 X104.453 Y121.502 E0.41941
G1 X104.033 Y121.25 E0.43733
G1 X103.578 Y121.07 E0.45523
G1 X103.1 Y120.966 E0.47312
G1 X102.705 Y120.94 E0.48761
G1 X102.218 Y120.94 E0.50542
G1 X102.33 Y120.669 E0.51615
G1 X102.454 Y120.565 E0.52207
G1 X102.696 Y120.496 E0.53128
G1 X102.976 Y120.363 E0.54262
G1 X109.532 Y120.365 E0.78248
G1 X110.02 Y120.325 E0.80039
G1 X110.272 Y120.262 E0.8099
G1 X110.341 Y120.422 E0.81627
G1 X110.577 Y120.789 E0.83224
G1 X109.078 Y120.789 E0.88708
G1 X108.59 Y120.829 E0.90499
G1 X108.116 Y120.948 E0.92287
G1 X107.666 Y121.142 E0.9408
G1 X107.105 Y121.529 E0.96574
G1 X106.805 Y121.791 E0.98031
G1 X106.463 Y122.142 E0.99824
G1 X106.184 Y122.544 E1.01614
G1 X106.101 Y122.718 E1.02319
G1 X105.575 Y122.718 E1.04244
G1 X105.369 Y122.398 E1.05636
G1 X105.108 Y122.101 E1.07083
G1 X104.826 Y121.819 E1.08542
G0 F6000 X104.543 Y122.102
G1 F600 X104.194 Y121.809 E1.10209
G1 X103.799 Y121.582 E1.11876
G1 X103.371 Y121.427 E1.13541
G1 X102.705 Y121.34 E1.15999
G1 X101.496 Y121.34 E1.20422
G1 X101.644 Y121.158 E1.2128
G1 X101.866 Y120.76 E1.22947
G1 X101.959 Y120.519 E1.23893
G1 X101.999 Y120.399 E1.24355
G1 X102.264 Y120.205 E1.25557
G1 X102.584 Y120.11 E1.26778
G1 X102.881 Y119.963 E1.27991
G1 X109.532 Y119.965 E1.52324
G1 X109.986 Y119.925 E1.53991
G1 X110.426 Y119.807 E1.55658
G1 X110.509 Y119.768 E1.55994
G1 X110.546 Y119.904 E1.56509
G1 X110.74 Y120.316 E1.58175
G1 X111.15 Y120.848 E1.60633
G1 X111.432 Y121.13 E1.62092
G1 X111.503 Y121.189 E1.6243
G1 X109.078 Y121.189 E1.71302
G1 X108.624 Y121.229 E1.72969
G1 X108.184 Y121.347 E1.74636
G1 X107.772 Y121.541 E1.76302
G1 X107.368 Y121.831 E1.78121
G1 X107.068 Y122.093 E1.79579
G1 X106.752 Y122.421 E1.81245
G1 X106.499 Y122.8 E1.82912
G1 X106.359 Y123.118 E1.84183
G1 X105.33 Y123.118 E1.87948
G1 X105.235 Y122.916 E1.88765
G1 X104.825 Y122.384 E1.91222
G1 X104.543 Y122.102 E1.92681
G0 F6000 X104.261 Y122.384
G1 F600 X103.937 Y122.118 E1.94215
G1 X103.57 Y121.917 E1.95746
G1 X103.17 Y121.79 E1.97281
G1 X102.705 Y121.74 E1.98992
G1 X101.002 Y121.74 E2.05223
G1 X100.665 Y121.567 E2.06609
G1 X100.778 Y121.485 E2.0712
G1 X101.093 Y121.209 E2.08652
G1 X101.35 Y120.878 E2.10185
G1 X101.579 Y120.393 E2.12147
G1 X101.663 Y120.138 E2.1313
G1 X101.965 Y119.943 E2.14445
G1 X102.068 Y119.846 E2.14962
G1 X102.47 Y119.725 E2.16498
G1 X102.783 Y119.562 E2.1779
G1 X109.532 Y119.565 E2.42482
G1 X109.949 Y119.525 E2.44014
G1 X110.352 Y119.407 E2.45551
G1 X110.724 Y119.215 E2.47082
G1 X110.802 Y119.154 E2.47444
G1 X110.828 Y119.427 E2.48448
G1 X110.946 Y119.829 E2.49981
G1 X111.139 Y120.201 E2.51514
G1 X111.432 Y120.566 E2.53226
G1 X111.714 Y120.848 E2.54685
G1 X112.038 Y121.114 E2.56219
G1 X112.405 Y121.315 E2.5775
G1 X112.805 Y121.442 E2.59285
G1 X113.27 Y121.492 E2.60996
G1 X116.98 Y121.492 E2.7457
G1 X117.036 Y121.545 E2.74852
G1 X116.987 Y121.59 E2.75095
G1 X109.078 Y121.589 E3.04031
G1 X108.661 Y121.629 E3.05564
G1 X108.259 Y121.747 E3.07097
G1 X107.887 Y121.939 E3.08628
G1 X107.631 Y122.132 E3.09801
G1 X107.331 Y122.394 E3.11259
G1 X107.043 Y122.698 E3.12791
G1 X106.818 Y123.052 E3.14325
G1 X106.664 Y123.442 E3.15859
G1 X106.648 Y123.518 E3.16144
G1 X105.063 Y123.518 E3.21942
G1 X105.029 Y123.403 E3.22381
G1 X104.836 Y123.031 E3.23914
G1 X104.543 Y122.666 E3.25627
G1 X104.261 Y122.384 E3.27086
G0 F6000 X103.978 Y122.667
G1 F600 X103.683 Y122.429 E3.28473
G1 X103.345 Y122.258 E3.29859
G1 X102.979 Y122.161 E3.31244
G1 X102.705 Y122.14 E3.32249
G1 X100.905 Y122.14 E3.38835
G1 X99.845 Y121.596 E3.43194
G1 X99.905 Y121.576 E3.43425
G1 X100.221 Y121.394 E3.44759
G1 X100.544 Y121.161 E3.46216
G1 X100.826 Y120.908 E3.47603
G1 X101.049 Y120.602 E3.48988
G1 X101.2 Y120.267 E3.50332
G1 X101.338 Y119.85 E3.51939
G1 X101.461 Y119.799 E3.52426
G1 X101.773 Y119.584 E3.53813
G1 X101.872 Y119.478 E3.54343
G1 X101.99 Y119.454 E3.54784
G1 X102.352 Y119.341 E3.56171
G1 X102.682 Y119.155 E3.57557
G1 X102.802 Y119.163 E3.57997
G1 X109.532 Y119.165 E3.8262
G1 X109.909 Y119.125 E3.84007
G1 X110.269 Y119.007 E3.85393
G1 X110.597 Y118.817 E3.8678
G1 X110.992 Y118.419 E3.88831
G1 X111.188 Y118.148 E3.90055
G1 X111.188 Y119.01 E3.93209
G1 X111.228 Y119.387 E3.94596
G1 X111.346 Y119.747 E3.95982
G1 X111.536 Y120.074 E3.97365
G1 X111.715 Y120.283 E3.98372
G1 X111.997 Y120.565 E3.99831
G1 X112.292 Y120.803 E4.01218
G1 X112.63 Y120.974 E4.02604
G1 X112.996 Y121.071 E4.03989
G1 X113.27 Y121.092 E4.04994
G1 X117.137 Y121.092 E4.19142
G1 X117.351 Y121.292 E4.20214
G1 X117.654 Y121.52 E4.21601
G1 X117.713 Y121.548 E4.2184
G1 X117.623 Y121.591 E4.22205
G1 X117.351 Y121.798 E4.23456
G1 X117.143 Y121.99 E4.24491
G1 X109.078 Y121.989 E4.53998
G1 X108.701 Y122.029 E4.55385
G1 X108.341 Y122.147 E4.56771
G1 X107.894 Y122.433 E4.58713
G1 X107.594 Y122.695 E4.6017
G1 X107.336 Y122.973 E4.61557
G1 X107.143 Y123.299 E4.62944
G1 X106.994 Y123.811 E4.64894
G1 X106.98 Y123.918 E4.65289
G1 X104.755 Y123.918 E4.7343
G1 X104.747 Y123.845 E4.73698
G1 X104.629 Y123.485 E4.75084
G1 X104.439 Y123.158 E4.76468
G1 X104.26 Y122.949 E4.77475
G1 X103.978 Y122.667 E4.78934
G0 F6000 X103.695 Y122.95
G1 F600 X103.432 Y122.744 E4.80156
G1 X103.128 Y122.605 E4.81379
G1 X102.705 Y122.54 E4.82945
G1 X100.807 Y122.54 E4.89889
G1 X99.57 Y121.904 E4.94978
G1 X99.257 Y121.788 E4.96199
G1 X98.93 Y121.749 E4.97404
G1 X68.35 Y121.75 E6.09284
G1 X68.018 Y121.79 E6.10508
G1 X67.638 Y121.945 E6.12009
G1 X66.63 Y122.541 E6.16294
G1 X63.612 Y122.54 E6.27335
G1 X63.54 Y122.442 E6.2778
G1 X63.35 Y122.252 E6.28763
G1 X63.35 Y120.83 E6.33966
G1 X63.54 Y120.64 E6.34949
G1 X63.617 Y120.541 E6.35408
G1 X66.604 Y120.543 E6.46336
G1 X67.602 Y121.136 E6.50583
G1 X67.907 Y121.272 E6.51805
G1 X68.317 Y121.333 E6.53322
G1 X99.168 Y121.334 E7.66193
G1 X99.5 Y121.294 E7.67417
G1 X99.812 Y121.177 E7.68636
G1 X99.987 Y121.069 E7.69388
G1 X100.31 Y120.836 E7.70846
G1 X100.556 Y120.61 E7.72068
G1 X100.741 Y120.332 E7.73289
G1 X100.82 Y120.142 E7.74042
G1 X101.015 Y119.553 E7.76312
G1 X101.304 Y119.429 E7.77463
G1 X101.57 Y119.227 E7.78685
G1 X101.674 Y119.11 E7.79257
G1 X101.912 Y119.062 E7.80146
G1 X102.229 Y118.958 E7.81366
G1 X102.513 Y118.781 E7.82591
G1 X102.565 Y118.729 E7.8286
G1 X102.803 Y118.763 E7.83739
G1 X109.533 Y118.765 E8.08362
G1 X109.864 Y118.725 E8.09582
G1 X110.177 Y118.608 E8.10804
G1 X110.453 Y118.42 E8.12026
G1 X110.668 Y118.185 E8.13191
G1 X110.902 Y117.861 E8.14653
G1 X111.064 Y117.568 E8.15878
G1 X111.152 Y117.246 E8.171
G1 X111.161 Y116.912 E8.18322
G1 X111.095 Y116.598 E8.19496
G1 X110.354 Y114.374 E8.28073
G1 X109.984 Y112.942 E8.33484
G1 X109.862 Y112.631 E8.34706
G1 X109.644 Y112.329 E8.36069
G1 X109.37 Y112.04 E8.37526
G1 X109.113 Y111.826 E8.38749
G1 X108.785 Y111.671 E8.40076
G1 X108.687 Y111.639 E8.40454
G1 X108.897 Y111.429 E8.4154
G1 X109.103 Y111.166 E8.42762
G1 X109.242 Y110.862 E8.43985
G1 X109.307 Y110.439 E8.45551
G1 X109.307 Y105.564 E8.63387
G1 X109.386 Y105.506 E8.63745
G1 X109.569 Y105.321 E8.64698
G1 X110.416 Y105.321 E8.67796
G1 X110.616 Y105.518 E8.68823
G1 X110.708 Y105.589 E8.69249
G1 X110.708 Y110.439 E8.86993
G1 X110.748 Y110.771 E8.88216
G1 X110.865 Y111.083 E8.89435
G1 X111.118 Y111.429 E8.91004
G1 X111.359 Y111.67 E8.92251
G1 X111.381 Y111.853 E8.92925
G1 X111.498 Y112.165 E8.94144
G1 X111.588 Y112.298 E8.94732
G1 X111.588 Y119.01 E9.19288
G1 X111.628 Y119.342 E9.20512
G1 X111.745 Y119.654 E9.21731
G1 X111.998 Y120 E9.23299
G1 X112.28 Y120.282 E9.24758
G1 X112.543 Y120.488 E9.2598
G1 X112.847 Y120.627 E9.27203
G1 X113.27 Y120.692 E9.28769
G1 X117.294 Y120.692 E9.43491
G1 X117.624 Y121 E9.45143
G1 X117.894 Y121.197 E9.46366
G1 X118.202 Y121.325 E9.47586
G1 X118.405 Y121.366 E9.48344
G1 X119.719 Y121.532 E9.53189
G1 X119.975 Y121.534 E9.54126
G1 X120.023 Y121.541 E9.54303
G1 X119.7 Y121.556 E9.55486
G1 X118.386 Y121.733 E9.60337
G1 X118.063 Y121.816 E9.61557
G1 X117.768 Y121.974 E9.62782
G1 X117.623 Y122.092 E9.63466
G1 X117.301 Y122.39 E9.65071
G1 X109.078 Y122.389 E9.95156
G1 X108.746 Y122.429 E9.96379
G1 X108.434 Y122.546 E9.97598
G1 X108.157 Y122.735 E9.98825
G1 X107.857 Y122.997 E10.00282
G1 X107.633 Y123.245 E10.01505
G1 X107.475 Y123.539 E10.02726
G1 X107.39 Y123.865 E10.03959
G1 X107.329 Y124.319 E10.05635
G1 X104.387 Y124.317 E10.16398
G1 X104.387 Y124.222 E10.16746
G1 X104.347 Y123.89 E10.17969
G1 X104.23 Y123.578 E10.19188
G1 X103.977 Y123.232 E10.20756
G1 X103.695 Y122.95 E10.22216
G0 F6000 X103.412 Y123.233
G1 F600 X103.186 Y123.064 E10.23248
G1 X102.922 Y122.964 E10.24281
G1 X102.705 Y122.94 E10.2508
G1 X100.71 Y122.94 E10.32379
G1 X99.387 Y122.26 E10.37821
G1 X99.121 Y122.167 E10.38852
G1 X98.93 Y122.149 E10.39554
G1 X68.35 Y122.15 E11.51434
G1 X68.071 Y122.19 E11.52465
G1 X67.841 Y122.289 E11.53381
G1 X66.738 Y122.941 E11.58069
G1 X63.414 Y122.94 E11.7023
G1 X63.257 Y122.725 E11.71204
G1 X62.975 Y122.443 E11.72664
G1 X62.95 Y122.424 E11.72778
G1 X62.95 Y120.659 E11.79236
G1 X62.975 Y120.639 E11.79353
G1 X63.257 Y120.357 E11.80812
G1 X63.418 Y120.141 E11.81798
G1 X66.712 Y120.143 E11.93849
G1 X67.806 Y120.793 E11.98505
G1 X68.066 Y120.901 E11.99535
G1 X68.317 Y120.933 E12.00461
G1 X99.168 Y120.934 E13.13333
G1 X99.447 Y120.894 E13.14364
G1 X99.753 Y120.745 E13.15609
G1 X100.076 Y120.512 E13.17066
G1 X100.279 Y120.316 E13.18099
G1 X100.44 Y120.016 E13.19344
G1 X100.7 Y119.233 E13.22363
G1 X100.884 Y119.178 E13.23065
G1 X101.14 Y119.06 E13.24097
G1 X101.401 Y118.817 E13.25401
G1 X101.454 Y118.746 E13.25725
G1 X101.833 Y118.67 E13.2714
G1 X102.099 Y118.576 E13.28172
G1 X102.328 Y118.411 E13.29205
G1 X102.431 Y118.281 E13.29811
G1 X102.803 Y118.363 E13.31205
G1 X109.533 Y118.365 E13.55827
G1 X109.812 Y118.325 E13.56859
G1 X110.069 Y118.209 E13.5789
G1 X110.344 Y117.95 E13.59272
G1 X110.578 Y117.626 E13.60735
G1 X110.709 Y117.377 E13.61764
G1 X110.765 Y117.1 E13.62798
G1 X110.716 Y116.725 E13.64182
G1 X109.966 Y114.474 E13.72862
G1 X109.596 Y113.042 E13.78273
G1 X109.488 Y112.782 E13.79303
G1 X109.354 Y112.604 E13.80119
G1 X109.08 Y112.315 E13.81576
G1 X108.859 Y112.14 E13.82607
G1 X108.662 Y112.051 E13.83398
G1 X108.171 Y111.892 E13.85286
G1 X108.25 Y111.52 E13.86677
G1 X108.332 Y111.428 E13.87128
G1 X108.614 Y111.146 E13.88587
G1 X108.783 Y110.92 E13.8962
G1 X108.883 Y110.656 E13.90653
G1 X108.907 Y110.439 E13.91451
G1 X108.907 Y105.374 E14.09982
G1 X109.102 Y105.224 E14.10882
G1 X109.383 Y104.94 E14.12344
G1 X109.397 Y104.921 E14.1243
G1 X110.587 Y104.921 E14.16784
G1 X110.613 Y104.953 E14.16935
G1 X110.897 Y105.233 E14.18394
G1 X111.108 Y105.389 E14.19354
G1 X111.108 Y110.439 E14.3783
G1 X111.148 Y110.718 E14.38861
G1 X111.264 Y110.975 E14.39893
G1 X111.401 Y111.146 E14.40695
G1 X111.683 Y111.428 E14.42154
G1 X111.741 Y111.471 E14.42418
G1 X111.741 Y111.521 E14.42601
G1 X111.781 Y111.8 E14.43632
G1 X111.897 Y112.057 E14.44664
G1 X111.988 Y112.164 E14.45178
G1 X111.988 Y119.01 E14.70224
G1 X112.028 Y119.289 E14.71256
G1 X112.144 Y119.546 E14.72287
G1 X112.281 Y119.717 E14.73089
G1 X112.563 Y119.999 E14.74548
G1 X112.789 Y120.168 E14.7558
G1 X113.053 Y120.268 E14.76613
G1 X113.27 Y120.292 E14.77412
G1 X117.452 Y120.292 E14.92712
G1 X117.897 Y120.708 E14.94941
G1 X118.128 Y120.869 E14.95971
G1 X118.455 Y120.969 E14.97222
G1 X119.769 Y121.135 E15.02068
G1 X120.191 Y121.163 E15.03615
G1 X120.473 Y121.168 E15.04647
G1 X120.537 Y121.15 E15.0489
G1 X121.276 Y121.248 E15.07618
G1 X121.558 Y121.245 E15.0865
G1 X121.855 Y121.151 E15.09789
G1 X122.212 Y120.972 E15.1125
G1 X122.268 Y120.933 E15.115
G1 X151.65 Y120.932 E16.18997
G1 X151.929 Y120.892 E16.20029
G1 X152.159 Y120.793 E16.20945
G1 X153.262 Y120.141 E16.25633
G1 X156.586 Y120.142 E16.37794
G1 X156.743 Y120.357 E16.38768
G1 X157.025 Y120.639 E16.40227
G1 X157.05 Y120.658 E16.40342
G1 X157.05 Y122.423 E16.46799
G1 X157.025 Y122.443 E16.46916
G1 X156.743 Y122.725 E16.48375
G1 X156.582 Y122.941 E16.49361
G1 X153.288 Y122.939 E16.61413
G1 X152.194 Y122.289 E16.66068
G1 X151.934 Y122.181 E16.67098
G1 X151.683 Y122.149 E16.68024
G1 X122.255 Y122.149 E17.7569
G1 X122.217 Y122.12 E17.75865
G1 X121.864 Y121.935 E17.77323
G1 X121.598 Y121.841 E17.78355
G1 X121.265 Y121.83 E17.79574
G1 X120.565 Y121.925 E17.82158
G1 X120.514 Y121.911 E17.82352
G1 X120.227 Y121.914 E17.83402
G1 X119.754 Y121.952 E17.85138
G1 X118.44 Y122.129 E17.89989
G1 X118.168 Y122.206 E17.91023
G1 X117.894 Y122.386 E17.92223
G1 X117.457 Y122.79 E17.944
G1 X109.078 Y122.789 E18.25055
G1 X108.799 Y122.829 E18.26087
G1 X108.542 Y122.945 E18.27118
G1 X108.42 Y123.036 E18.27675
G1 X108.12 Y123.298 E18.29132
G1 X107.936 Y123.512 E18.30165
G1 X107.819 Y123.768 E18.31195
G1 X107.787 Y123.918 E18.31756
G1 X107.679 Y124.719 E18.34713
G1 X103.987 Y124.717 E18.4822
G1 X103.987 Y124.222 E18.50032
G1 X103.947 Y123.943 E18.51063
G1 X103.831 Y123.686 E18.52094
G1 X103.694 Y123.515 E18.52896
G1 X103.412 Y123.233 E18.54355
G0 F6000 X103.129 Y123.516
G1 F600 X102.95 Y123.392 E18.55152
G1 X102.705 Y123.34 E18.56068
G1 X100.615 Y123.34 E18.63715
G1 X99.204 Y122.615 E18.69518
G1 X98.93 Y122.549 E18.7055
G1 X68.35 Y122.55 E19.8243
G1 X68.045 Y122.634 E19.83587
G1 X66.849 Y123.341 E19.88671
G1 X63.133 Y123.34 E20.02266
G1 X63.11 Y123.217 E20.02724
G1 X62.974 Y123.008 E20.03636
G1 X62.692 Y122.726 E20.05095
G1 X62.55 Y122.628 E20.05726
G1 X62.55 Y120.448 E20.13702
G1 X62.692 Y120.356 E20.14321
G1 X62.974 Y120.074 E20.1578
G1 X63.098 Y119.895 E20.16577
G1 X63.131 Y119.741 E20.17153
G1 X66.822 Y119.743 E20.30657
G1 X68.01 Y120.449 E20.35713
G1 X68.317 Y120.533 E20.36878
G1 X99.168 Y120.534 E21.49749
G1 X99.383 Y120.494 E21.5055
G1 X99.519 Y120.421 E21.51114
G1 X99.842 Y120.188 E21.52571
G1 X99.993 Y120.03 E21.53371
G1 X100.061 Y119.89 E21.5394
G1 X100.387 Y118.908 E21.57726
G1 X100.77 Y118.794 E21.59188
G1 X100.964 Y118.695 E21.59985
G1 X101.226 Y118.383 E21.61475
G1 X101.755 Y118.277 E21.63449
G1 X101.957 Y118.196 E21.64246
G1 X102.118 Y118.048 E21.65046
G1 X102.214 Y117.853 E21.65841
G1 X102.232 Y117.725 E21.66314
G1 X102.502 Y117.882 E21.67456
G1 X102.803 Y117.963 E21.68597
G1 X109.533 Y117.965 E21.93219
G1 X109.747 Y117.925 E21.94016
G1 X110.019 Y117.716 E21.95271
G1 X110.253 Y117.392 E21.96733
G1 X110.347 Y117.195 E21.97532
G1 X110.336 Y116.851 E21.98791
G1 X109.584 Y114.596 E22.07488
G1 X109.209 Y113.142 E22.12981
G1 X109.063 Y112.879 E22.14082
G1 X108.789 Y112.59 E22.15539
G1 X108.539 Y112.432 E22.16621
G1 X107.612 Y112.132 E22.20186
G1 X107.612 Y111.991 E22.20702
G1 X107.784 Y111.794 E22.21658
G1 X107.85 Y111.52 E22.22689
G1 X107.85 Y111.274 E22.2359
