;FLAVOR:Marlin
;TIME:4828
;Filament used: 1.83458m
;Layer height: 0.2
;MINX:61.285
;MINY:94.565
;MINZ:0.2
;MAXX:158.715
;MAXY:125.064
;MAXZ:12.24
;Generated with Cura_SteamEngine 4.8.0
M140 S60
M105
M190 S60
M104 S220
M105
M109 S220
M82 ;absolute extrusion mode
; Ender 3 Custom Start G-code
G92 E0 ; Reset Extruder
G28 ; Home all axes
G1 Z2.0 F3000 ; Move Z Axis up little to prevent scratching of Heat Bed
G1 X0.1 Y20 Z0.3 F5000.0 ; Move to start position
G1 X0.1 Y200.0 Z0.3 F1500.0 E15 ; Draw the first line
G1 X0.4 Y200.0 Z0.3 F5000.0 ; Move to side a little
G1 X0.4 Y20 Z0.3 F1500.0 E30 ; Draw the second line
G92 E0 ; Reset Extruder
G1 Z2.0 F3000 ; Move Z Axis up little to prevent scratching of Heat Bed
G1 X5 Y20 Z0.3 F5000.0 ; Move over to prevent blob squish
G92 E0
G92 E0
G1 F1500 E-6.5
;LAYER_COUNT:73
;LAYER:0
M107
G0 F6000 X113.675 Y112.473 Z0.2
;TYPE:SKIRT
G1 F1500 E0
G1 F600 X114.014 Y112.473 E0.0124
G1 X114.321 Y112.851 E0.03022
G1 X114.178 Y113.016 E0.03821
G1 X114.063 Y112.861 E0.04527
G1 X113.689 Y112.485 E0.06467
G1 X113.675 Y112.473 E0.06535
G0 F6000 X113.425 Y112.786
G1 F600 X113.125 Y112.524 E0.07992
G1 X112.708 Y112.212 E0.09897
G1 X112.445 Y112.073 E0.10986
G1 X114.2 Y112.073 E0.17406
G1 X114.233 Y112.128 E0.17641
G1 X114.609 Y112.574 E0.19775
G1 X114.886 Y112.851 E0.21209
G1 X114.609 Y113.128 E0.22642
G1 X114.27 Y113.524 E0.24549
G1 X114.206 Y113.628 E0.24996
G1 X114.111 Y113.627 E0.25343
G1 X114.009 Y113.447 E0.261
G1 X113.685 Y113.039 E0.28006
G1 X113.425 Y112.786 E0.29334
G0 F6000 X113.162 Y113.087
G1 F600 X112.862 Y112.825 E0.30791
G1 X112.469 Y112.535 E0.32578
G1 X112.033 Y112.312 E0.34369
G1 X111.567 Y112.163 E0.36159
G1 X110.889 Y112.085 E0.38656
G1 X109.442 Y112.085 E0.4395
G1 X109.45 Y112.076 E0.43994
G1 X109.702 Y111.656 E0.45786
G1 X109.755 Y111.522 E0.46314
G1 X109.914 Y111.577 E0.46929
G1 X110.397 Y111.66 E0.48722
G1 X110.664 Y111.672 E0.497
G1 X114.425 Y111.673 E0.6346
G1 X114.631 Y111.994 E0.64855
G1 X114.892 Y112.291 E0.66302
G1 X115.174 Y112.573 E0.67761
G1 X115.5 Y112.85 E0.69326
G1 X115.471 Y112.868 E0.69451
G1 X115.174 Y113.129 E0.70898
G1 X114.892 Y113.411 E0.72357
G1 X114.575 Y113.784 E0.74148
G1 X114.429 Y114.028 E0.75188
G1 X113.882 Y114.027 E0.77189
G1 X113.878 Y114.017 E0.77229
G1 X113.626 Y113.598 E0.79018
G1 X113.162 Y113.087 E0.81543
G0 F6000 X112.899 Y113.389
G1 F600 X112.599 Y113.127 E0.83
G1 X112.231 Y112.858 E0.84668
G1 X111.822 Y112.658 E0.86333
G1 X111.384 Y112.533 E0.88
G1 X110.889 Y112.485 E0.89819
G1 X108.52 Y112.485 E0.98487
G1 X108.568 Y112.448 E0.98708
G1 X108.85 Y112.166 E1.00168
G1 X109.143 Y111.817 E1.01835
G1 X109.37 Y111.422 E1.03501
G1 X109.524 Y110.997 E1.05155
G1 X109.701 Y111.087 E1.05882
G1 X110.137 Y111.218 E1.07547
G1 X110.664 Y111.272 E1.09486
G1 X114.67 Y111.273 E1.24142
G1 X114.765 Y111.476 E1.24962
G1 X115.175 Y112.008 E1.27419
G1 X115.457 Y112.29 E1.28878
G1 X115.806 Y112.583 E1.30546
G1 X116.201 Y112.81 E1.32212
G1 X116.312 Y112.85 E1.32644
G1 X115.989 Y113.002 E1.3395
G1 X115.457 Y113.412 E1.36407
G1 X115.175 Y113.694 E1.37867
G1 X114.882 Y114.043 E1.39534
G1 X114.661 Y114.428 E1.41158
G1 X113.612 Y114.427 E1.44996
G1 X113.491 Y114.138 E1.46142
G1 X113.245 Y113.755 E1.47807
G1 X112.899 Y113.389 E1.4965
G0 F6000 X112.636 Y113.69
G1 F600 X112.336 Y113.428 E1.51107
G1 X111.996 Y113.184 E1.52638
G1 X111.615 Y113.008 E1.54174
G1 X111.208 Y112.908 E1.55707
G1 X110.889 Y112.885 E1.56877
G1 X102.986 Y112.886 E1.85791
G1 X102.92 Y112.847 E1.86072
G1 X102.98 Y112.813 E1.86324
G1 X106.732 Y112.81 E2.00051
G1 X107.149 Y112.77 E2.01584
G1 X107.551 Y112.651 E2.03118
G1 X107.923 Y112.458 E2.04651
G1 X108.286 Y112.166 E2.06356
G1 X108.568 Y111.884 E2.07815
G1 X108.834 Y111.56 E2.09348
G1 X109.035 Y111.193 E2.10879
G1 X109.162 Y110.793 E2.12415
G1 X109.212 Y110.322 E2.14148
G1 X109.222 Y110.333 E2.14202
G1 X109.563 Y110.576 E2.15734
G1 X109.944 Y110.75 E2.17266
G1 X110.351 Y110.849 E2.18799
G1 X110.664 Y110.872 E2.19947
G1 X114.937 Y110.873 E2.3558
G1 X114.971 Y110.989 E2.36023
G1 X115.164 Y111.361 E2.37556
G1 X115.457 Y111.726 E2.39268
G1 X115.739 Y112.008 E2.40727
G1 X116.063 Y112.274 E2.42261
G1 X116.43 Y112.475 E2.43792
G1 X116.83 Y112.602 E2.45327
G1 X117.295 Y112.652 E2.47038
G1 X119.112 Y112.652 E2.53686
G1 X119.445 Y112.85 E2.55104
G1 X119.107 Y113.05 E2.5654
G1 X117.295 Y113.05 E2.6317
G1 X116.878 Y113.09 E2.64702
G1 X116.476 Y113.208 E2.66235
G1 X116.104 Y113.401 E2.67769
G1 X115.739 Y113.694 E2.69481
G1 X115.457 Y113.976 E2.7094
G1 X115.191 Y114.3 E2.72474
G1 X114.99 Y114.667 E2.74005
G1 X114.939 Y114.828 E2.74623
G1 X113.317 Y114.827 E2.80557
G1 X113.275 Y114.648 E2.8123
G1 X113.105 Y114.265 E2.82763
G1 X112.865 Y113.922 E2.84294
G1 X112.636 Y113.69 E2.85487
G0 F6000 X112.373 Y113.991
G1 F600 X112.073 Y113.729 E2.86944
G1 X111.763 Y113.511 E2.88331
G1 X111.414 Y113.363 E2.89718
G1 X110.889 Y113.285 E2.91659
G1 X102.867 Y113.286 E3.21009
G1 X102.821 Y113.247 E3.21229
G1 X102.488 Y113.066 E3.22616
G1 X102.19 Y112.972 E3.23759
G1 X101.628 Y112.847 E3.25866
G1 X102.218 Y112.711 E3.28081
G1 X102.576 Y112.587 E3.29467
G1 X102.864 Y112.413 E3.30698
G1 X106.732 Y112.41 E3.4485
G1 X107.108 Y112.37 E3.46233
G1 X107.468 Y112.252 E3.47619
G1 X107.796 Y112.061 E3.49008
G1 X108.003 Y111.883 E3.50007
G1 X108.285 Y111.601 E3.51466
G1 X108.523 Y111.306 E3.52852
G1 X108.694 Y110.968 E3.54238
G1 X108.791 Y110.602 E3.55624
G1 X108.812 Y110.328 E3.56629
G1 X108.812 Y109.141 E3.60972
G1 X109.002 Y109.468 E3.62355
G1 X109.248 Y109.782 E3.63815
G1 X109.512 Y110.054 E3.65202
G1 X109.827 Y110.265 E3.66589
G1 X110.179 Y110.405 E3.67975
G1 X110.664 Y110.472 E3.69766
G1 X115.245 Y110.473 E3.86526
G1 X115.253 Y110.547 E3.86798
G1 X115.371 Y110.907 E3.88184
G1 X115.561 Y111.234 E3.89568
G1 X115.74 Y111.443 E3.90575
G1 X116.022 Y111.725 E3.92034
G1 X116.317 Y111.963 E3.93421
G1 X116.655 Y112.134 E3.94807
G1 X117.021 Y112.231 E3.96192
G1 X117.295 Y112.252 E3.97197
G1 X119.223 Y112.252 E4.04251
G1 X120.126 Y112.789 E4.08095
G1 X120.251 Y112.846 E4.08597
G1 X120.128 Y112.91 E4.09105
G1 X119.216 Y113.45 E4.12982
G1 X117.295 Y113.45 E4.20011
G1 X116.918 Y113.49 E4.21398
G1 X116.558 Y113.608 E4.22784
G1 X116.231 Y113.798 E4.24167
G1 X116.022 Y113.977 E4.25174
G1 X115.74 Y114.259 E4.26633
G1 X115.502 Y114.554 E4.2802
G1 X115.331 Y114.892 E4.29406
G1 X115.242 Y115.228 E4.30677
G1 X112.989 Y115.227 E4.3892
G1 X112.973 Y115.109 E4.39356
G1 X112.884 Y114.741 E4.40741
G1 X112.719 Y114.399 E4.4213
G1 X112.373 Y113.991 E4.44088
G0 F6000 X112.11 Y114.293
G1 F600 X111.81 Y114.031 E4.45545
G1 X111.534 Y113.842 E4.46769
G1 X111.221 Y113.725 E4.47991
G1 X110.889 Y113.685 E4.49215
G1 X102.719 Y113.686 E4.79106
G1 X102.561 Y113.554 E4.79859
G1 X102.103 Y113.362 E4.81676
G1 X100.569 Y113.022 E4.87424
G1 X100.237 Y112.989 E4.88645
G1 X100.062 Y113.002 E4.89287
G1 X99.729 Y112.977 E4.90509
G1 X99.585 Y112.958 E4.9104
G1 X99.253 Y112.922 E4.92262
G1 X99.114 Y112.941 E4.92775
G1 X98.838 Y112.885 E4.93806
G1 X98.505 Y112.858 E4.95028
G1 X98.028 Y112.963 E4.96815
G1 X97.796 Y113.059 E4.97733
G1 X92.637 Y113.059 E5.16608
G1 X92.305 Y113.099 E5.17832
G1 X91.937 Y113.246 E5.19281
G1 X91.592 Y113.445 E5.20739
G1 X91.325 Y113.646 E5.21961
G1 X91.08 Y113.957 E5.2341
G1 X90.859 Y114.339 E5.25024
G1 X89.128 Y114.339 E5.31357
G1 X88.875 Y113.924 E5.33136
G1 X88.668 Y113.662 E5.34357
G1 X88.364 Y113.432 E5.35752
G1 X88.016 Y113.237 E5.37211
G1 X87.708 Y113.109 E5.38432
G1 X87.332 Y113.058 E5.3982
G1 X68.364 Y113.057 E6.09217
G1 X68.032 Y113.097 E6.1044
G1 X67.725 Y113.211 E6.11638
G1 X66.479 Y113.85 E6.16761
G1 X63.612 Y113.849 E6.27251
G1 X63.54 Y113.751 E6.27695
G1 X63.35 Y113.561 E6.28679
G1 X63.35 Y112.139 E6.33881
G1 X63.54 Y111.949 E6.34864
G1 X63.617 Y111.851 E6.3532
G1 X66.481 Y111.852 E6.45798
G1 X67.717 Y112.487 E6.50882
G1 X68.03 Y112.603 E6.52104
G1 X68.357 Y112.642 E6.53308
G1 X87.364 Y112.641 E7.22848
G1 X87.696 Y112.601 E7.24071
G1 X88.064 Y112.454 E7.25521
G1 X88.409 Y112.255 E7.26978
G1 X88.676 Y112.054 E7.28201
G1 X88.921 Y111.742 E7.29652
G1 X89.141 Y111.361 E7.31262
G1 X90.856 Y111.361 E7.37536
G1 X91.076 Y111.743 E7.39149
G1 X91.277 Y112.01 E7.40372
G1 X91.588 Y112.255 E7.4182
G1 X91.934 Y112.455 E7.43283
G1 X92.241 Y112.587 E7.44505
G1 X92.636 Y112.643 E7.45965
G1 X100.598 Y112.638 E7.75095
G1 X100.912 Y112.602 E7.76251
G1 X102.128 Y112.321 E7.80817
G1 X102.442 Y112.208 E7.82038
G1 X102.703 Y112.014 E7.83228
G1 X106.731 Y112.01 E7.97965
G1 X107.063 Y111.97 E7.99188
G1 X107.376 Y111.852 E8.00412
G1 X107.72 Y111.6 E8.01972
G1 X108.002 Y111.318 E8.03431
G1 X108.208 Y111.055 E8.04653
G1 X108.347 Y110.751 E8.05876
G1 X108.412 Y110.328 E8.07442
G1 X108.412 Y103.62 E8.31984
G1 X108.562 Y103.343 E8.33137
G1 X108.646 Y103.019 E8.34361
G1 X108.65 Y102.967 E8.34552
G1 X108.879 Y102.738 E8.35737
G1 X109.085 Y102.475 E8.36959
G1 X109.224 Y102.171 E8.38182
G1 X109.289 Y101.75 E8.39741
G1 X109.294 Y98.467 E8.51752
G1 X109.291 Y98.251 E8.52542
G1 X109.292 Y96.884 E8.57544
G1 X109.386 Y96.815 E8.5797
G1 X109.569 Y96.63 E8.58922
G1 X110.416 Y96.63 E8.62021
G1 X110.616 Y96.827 E8.63048
G1 X110.693 Y96.887 E8.63405
G1 X110.693 Y97.822 E8.66826
G1 X110.733 Y98.154 E8.6805
G1 X110.85 Y98.466 E8.69269
G1 X111.103 Y98.812 E8.70837
G1 X111.385 Y99.094 E8.72296
G1 X111.587 Y99.253 E8.73236
G1 X111.588 Y99.859 E8.75454
G1 X111.447 Y100.119 E8.76536
G1 X111.363 Y100.443 E8.7776
G1 X111.35 Y100.632 E8.78453
G1 X111.35 Y102.83 E8.86495
G1 X111.363 Y102.939 E8.86897
G1 X111.187 Y102.997 E8.87575
G1 X110.885 Y103.139 E8.88796
G1 X110.599 Y103.375 E8.90152
G1 X110.328 Y103.667 E8.9161
G1 X110.131 Y103.937 E8.92833
G1 X109.996 Y104.279 E8.94178
G1 X109.061 Y108.018 E9.08278
G1 X109.019 Y108.35 E9.09503
G1 X109.057 Y108.682 E9.10725
G1 X109.172 Y108.995 E9.11945
G1 X109.317 Y109.221 E9.12928
G1 X109.563 Y109.535 E9.14387
G1 X109.799 Y109.772 E9.15611
G1 X110.084 Y109.946 E9.16833
G1 X110.402 Y110.047 E9.18053
G1 X110.665 Y110.072 E9.1902
G1 X115.613 Y110.074 E9.37123
G1 X115.613 Y110.17 E9.37474
G1 X115.653 Y110.502 E9.38697
G1 X115.77 Y110.814 E9.39916
G1 X116.023 Y111.16 E9.41485
G1 X116.305 Y111.442 E9.42944
G1 X116.568 Y111.648 E9.44166
G1 X116.872 Y111.787 E9.45389
G1 X117.295 Y111.852 E9.46955
G1 X119.333 Y111.852 E9.54411
G1 X120.33 Y112.445 E9.58655
G1 X120.636 Y112.581 E9.5988
G1 X121.046 Y112.642 E9.61397
G1 X127.364 Y112.641 E9.84512
G1 X127.696 Y112.601 E9.85735
G1 X128.064 Y112.454 E9.87185
G1 X128.409 Y112.255 E9.88642
G1 X128.676 Y112.054 E9.89865
G1 X128.921 Y111.742 E9.91316
G1 X129.141 Y111.361 E9.92926
G1 X130.859 Y111.361 E9.99211
G1 X131.08 Y111.743 E10.00826
G1 X131.28 Y112.011 E10.02049
G1 X131.592 Y112.256 E10.03501
G1 X131.937 Y112.455 E10.04958
G1 X132.245 Y112.586 E10.06183
G1 X132.637 Y112.642 E10.07631
G1 X151.636 Y112.643 E10.77141
G1 X151.968 Y112.603 E10.78365
G1 X152.275 Y112.489 E10.79563
G1 X153.521 Y111.85 E10.84686
G1 X156.388 Y111.851 E10.95175
G1 X156.46 Y111.949 E10.9562
G1 X156.65 Y112.139 E10.96603
G1 X156.65 Y113.561 E11.01806
G1 X156.46 Y113.751 E11.02789
G1 X156.383 Y113.849 E11.03245
G1 X153.519 Y113.848 E11.13723
G1 X152.283 Y113.213 E11.18807
G1 X151.97 Y113.097 E11.20028
G1 X151.643 Y113.058 E11.21233
G1 X132.637 Y113.059 E11.90769
G1 X132.305 Y113.099 E11.91992
G1 X131.937 Y113.246 E11.93442
G1 X131.592 Y113.445 E11.94899
G1 X131.325 Y113.646 E11.96122
G1 X131.08 Y113.957 E11.9757
G1 X130.859 Y114.339 E11.99185
G1 X129.144 Y114.339 E12.0546
G1 X128.925 Y113.959 E12.07064
G1 X128.725 Y113.691 E12.08288
G1 X128.413 Y113.446 E12.09739
G1 X128.067 Y113.246 E12.11201
G1 X127.76 Y113.114 E12.12424
G1 X127.366 Y113.058 E12.1388
G1 X121.045 Y113.059 E12.37006
G1 X120.713 Y113.099 E12.38229
G1 X120.332 Y113.254 E12.39734
G1 X119.325 Y113.85 E12.44015
G1 X117.295 Y113.85 E12.51442
G1 X116.963 Y113.89 E12.52666
G1 X116.651 Y114.007 E12.53885
G1 X116.305 Y114.26 E12.55453
G1 X116.023 Y114.542 E12.56912
G1 X115.817 Y114.805 E12.58134
G1 X115.678 Y115.109 E12.59357
G1 X115.613 Y115.532 E12.60923
G1 X115.613 Y115.628 E12.61274
G1 X112.639 Y115.627 E12.72155
G1 X112.577 Y115.162 E12.73871
G1 X112.493 Y114.838 E12.75096
G1 X112.336 Y114.544 E12.76315
G1 X112.11 Y114.293 E12.77551
G0 F6000 X111.847 Y114.594
G1 F600 X111.547 Y114.332 E12.79008
G1 X111.31 Y114.178 E12.80042
G1 X111.04 Y114.096 E12.81075
G1 X110.889 Y114.085 E12.81629
G1 X102.568 Y114.086 E13.12072
G1 X102.527 Y114.043 E13.12289
G1 X102.307 Y113.867 E13.1332
G1 X102.016 Y113.753 E13.14464
G1 X100.482 Y113.413 E13.20212
G1 X100.201 Y113.391 E13.21243
G1 X99.985 Y113.395 E13.22034
G1 X99.703 Y113.38 E13.23067
G1 X99.496 Y113.348 E13.23833
G1 X99.214 Y113.324 E13.24869
G1 X99.103 Y113.346 E13.25283
G1 X98.759 Y113.277 E13.26566
G1 X98.478 Y113.261 E13.27596
G1 X98.18 Y113.333 E13.28718
G1 X97.875 Y113.459 E13.29925
G1 X92.637 Y113.459 E13.49089
G1 X92.358 Y113.499 E13.5012
G1 X92.137 Y113.593 E13.50999
G1 X91.792 Y113.792 E13.52456
G1 X91.57 Y113.966 E13.53488
G1 X91.426 Y114.157 E13.54363
G1 X91.09 Y114.739 E13.56822
G1 X88.904 Y114.739 E13.64819
G1 X88.534 Y114.132 E13.6742
G1 X88.354 Y113.915 E13.68452
G1 X88.169 Y113.781 E13.69287
G1 X87.821 Y113.586 E13.70747
G1 X87.558 Y113.484 E13.71779
G1 X87.332 Y113.458 E13.72611
G1 X68.364 Y113.457 E14.42008
G1 X68.085 Y113.497 E14.43039
G1 X67.908 Y113.567 E14.43735
G1 X66.576 Y114.25 E14.49212
G1 X63.414 Y114.249 E14.60781
G1 X63.257 Y114.034 E14.61755
G1 X62.975 Y113.752 E14.63214
G1 X62.95 Y113.733 E14.63329
G1 X62.95 Y111.968 E14.69786
G1 X62.975 Y111.948 E14.69903
G1 X63.257 Y111.666 E14.71362
G1 X63.418 Y111.45 E14.72348
G1 X66.579 Y111.452 E14.83913
G1 X67.9 Y112.131 E14.89347
G1 X68.166 Y112.224 E14.90378
G1 X68.357 Y112.242 E14.9108
G1 X87.364 Y112.241 E15.60619
G1 X87.643 Y112.201 E15.6165
G1 X87.864 Y112.107 E15.62529
G1 X88.209 Y111.908 E15.63986
G1 X88.431 Y111.734 E15.65018
G1 X88.575 Y111.542 E15.65896
G1 X88.91 Y110.961 E15.6835
G1 X91.087 Y110.961 E15.76314
G1 X91.423 Y111.543 E15.78773
G1 X91.597 Y111.765 E15.79805
G1 X91.789 Y111.909 E15.80683
G1 X92.135 Y112.109 E15.82145
G1 X92.396 Y112.214 E15.83175
G1 X92.636 Y112.243 E15.84059
G1 X100.598 Y112.238 E16.13189
G1 X100.822 Y112.212 E16.14014
G1 X102.038 Y111.931 E16.1858
G1 X102.301 Y111.83 E16.19611
G1 X102.541 Y111.643 E16.20724
G1 X102.569 Y111.614 E16.20871
G1 X106.731 Y111.61 E16.36099
G1 X107.01 Y111.57 E16.3713
G1 X107.267 Y111.454 E16.38161
G1 X107.437 Y111.317 E16.3896
G1 X107.719 Y111.035 E16.40419
G1 X107.888 Y110.809 E16.41452
G1 X107.988 Y110.545 E16.42485
G1 X108.012 Y110.328 E16.43283
G1 X108.012 Y103.488 E16.68308
G1 X108.164 Y103.255 E16.69326
G1 X108.247 Y102.985 E16.7036
G1 X108.259 Y102.781 E16.71107
G1 X108.314 Y102.737 E16.71365
G1 X108.596 Y102.455 E16.72824
G1 X108.765 Y102.229 E16.73856
G1 X108.865 Y101.965 E16.74889
G1 X108.889 Y101.75 E16.75681
G1 X108.894 Y98.472 E16.87674
G1 X108.891 Y98.25 E16.88486
G1 X108.892 Y96.69 E16.94193
G1 X109.102 Y96.533 E16.95153
G1 X109.383 Y96.249 E16.96614
G1 X109.397 Y96.23 E16.96701
G1 X110.587 Y96.23 E17.01055
G1 X110.613 Y96.262 E17.01205
G1 X110.897 Y96.542 E17.02665
G1 X111.093 Y96.687 E17.03557
G1 X111.093 Y97.822 E17.07709
G1 X111.133 Y98.101 E17.0874
G1 X111.249 Y98.358 E17.09772
G1 X111.386 Y98.529 E17.10573
G1 X111.668 Y98.811 E17.12033
G1 X111.894 Y98.98 E17.13065
G1 X111.987 Y99.015 E17.13429
G1 X111.988 Y99.988 E17.16988
G1 X111.845 Y100.207 E17.17945
G1 X111.762 Y100.477 E17.18979
G1 X111.75 Y100.632 E17.19548
G1 X111.75 Y102.83 E17.27589
G1 X111.79 Y103.109 E17.2862
G1 X111.833 Y103.205 E17.29005
G1 X111.312 Y103.377 E17.31013
G1 X111.059 Y103.502 E17.32045
G1 X110.892 Y103.647 E17.32854
G1 X110.621 Y103.939 E17.34312
G1 X110.46 Y104.171 E17.35345
G1 X110.384 Y104.376 E17.36145
G1 X109.449 Y108.115 E17.50246
G1 X109.42 Y108.396 E17.51279
G1 X109.47 Y108.674 E17.52312
G1 X109.632 Y108.975 E17.53563
G1 X109.878 Y109.289 E17.55022
G1 X110.081 Y109.484 E17.56052
G1 X110.331 Y109.615 E17.57085
G1 X110.665 Y109.672 E17.58325
G1 X116.013 Y109.674 E17.77891
G1 X116.013 Y110.17 E17.79706
G1 X116.053 Y110.449 E17.80737
