;FLAVOR:Marlin
;TIME:3913
;Filament used: 2.36415m
;Layer height: 0.2
;MINX:48.861
;MINY:98.916
;MINZ:0.2
;MAXX:171.111
;MAXY:123.929
;MAXZ:10.2
;Generated with Cura_SteamEngine 4.8.0
M140 S60
M105
M190 S60
M104 S220
M105
M109 S220
M82 ;absolute extrusion mode
; Ender 3 Custom Start G-code
G92 E0 ; Reset Extruder
G28 ; Home all axes
G1 Z2.0 F3000 ; Move Z Axis up little to prevent scratching of Heat Bed
G1 X0.1 Y20 Z0.3 F5000.0 ; Move to start position
G1 X0.1 Y200.0 Z0.3 F1500.0 E15 ; Draw the first line
G1 X0.4 Y200.0 Z0.3 F5000.0 ; Move to side a little
G1 X0.4 Y20 Z0.3 F1500.0 E30 ; Draw the second line
G92 E0 ; Reset Extruder
G1 Z2.0 F3000 ; Move Z Axis up little to prevent scratching of Heat Bed
G1 X5 Y20 Z0.3 F5000.0 ; Move over to prevent blob squish
G92 E0
G92 E0
G1 F1500 E-6.5
;LAYER_COUNT:58
;LAYER:0
M107
G0 F6000 X52.361 Y105.317 Z0.2
;TYPE:SKIRT
G1 F1500 E0
G1 F600 X52.574 Y105.25 E0.00817
G1 X52.724 Y105.254 E0.01366
G1 X52.809 Y105.655 E0.02866
G1 X52.955 Y105.989 E0.04199
G1 X52.78 Y105.989 E0.04839
G1 X52.523 Y105.945 E0.05793
G1 X52.286 Y105.813 E0.06786
G1 X52.216 Y105.677 E0.07346
G1 X52.232 Y105.454 E0.08164
G1 X52.361 Y105.317 E0.08852
G0 F6000 X52.07 Y105.036
G1 F600 X52.167 Y104.961 E0.09301
G1 X52.431 Y104.868 E0.10325
G1 X52.538 Y104.85 E0.10722
G1 X52.89 Y104.871 E0.12012
G1 X53.098 Y104.871 E0.12773
G1 X53.126 Y105.261 E0.14203
G1 X53.234 Y105.666 E0.15737
G1 X53.392 Y105.998 E0.17082
G1 X53.505 Y106.193 E0.17907
G1 X53.422 Y106.39 E0.18689
G1 X52.742 Y106.388 E0.21177
G1 X52.425 Y106.335 E0.22352
G1 X52.154 Y106.216 E0.23435
G1 X51.92 Y106.005 E0.24588
G1 X51.824 Y105.779 E0.25486
G1 X51.817 Y105.468 E0.26624
G1 X51.901 Y105.224 E0.27569
G1 X52.07 Y105.036 E0.28493
G0 F6000 X51.797 Y104.743
G1 F600 X51.972 Y104.606 E0.29307
G1 X52.332 Y104.48 E0.30702
G1 X52.509 Y104.45 E0.31359
G1 X52.889 Y104.471 E0.32751
G1 X53.553 Y104.47 E0.35181
G1 X53.529 Y104.547 E0.35476
G1 X53.495 Y104.925 E0.36864
G1 X53.541 Y105.301 E0.3825
G1 X53.738 Y105.798 E0.40206
G1 X53.938 Y106.143 E0.41665
G1 X53.951 Y106.161 E0.41746
G1 X53.748 Y106.647 E0.43673
G1 X53.712 Y106.791 E0.44216
G1 X52.711 Y106.788 E0.47879
G1 X52.324 Y106.723 E0.49314
G1 X51.929 Y106.549 E0.50893
G1 X51.578 Y106.222 E0.52649
G1 X51.43 Y105.876 E0.54025
G1 X51.406 Y105.589 E0.55079
G1 X51.423 Y105.397 E0.55784
G1 X51.489 Y105.125 E0.56808
G1 X51.579 Y104.985 E0.57417
G1 X51.797 Y104.743 E0.58609
G0 F6000 X51.524 Y104.448
G1 F600 X51.777 Y104.25 E0.59784
G1 X52.233 Y104.09 E0.61552
G1 X52.472 Y104.05 E0.62439
G1 X52.888 Y104.071 E0.63963
G1 X53.92 Y104.069 E0.67738
G1 X54.058 Y104.226 E0.68503
G1 X54.008 Y104.343 E0.68969
G1 X53.914 Y104.664 E0.70192
G1 X53.899 Y104.997 E0.71412
G1 X53.963 Y105.325 E0.72635
G1 X54.084 Y105.597 E0.73724
G1 X54.284 Y105.942 E0.75183
G1 X54.394 Y106.142 E0.76018
G1 X54.117 Y106.802 E0.78637
G1 X54.02 Y107.188 E0.80093
G1 X54.017 Y107.192 E0.80111
G1 X52.673 Y107.188 E0.85028
G1 X52.232 Y107.114 E0.86664
G1 X51.957 Y107.021 E0.87726
G1 X51.713 Y106.887 E0.88745
G1 X51.47 Y106.698 E0.89871
G1 X51.238 Y106.442 E0.91135
G1 X51.036 Y105.972 E0.93007
G1 X51.005 Y105.587 E0.9442
G1 X51.026 Y105.334 E0.95349
G1 X51.115 Y104.968 E0.96727
G1 X51.262 Y104.738 E0.97725
G1 X51.524 Y104.448 E0.99155
G0 F6000 X51.248 Y104.157
G1 F600 X51.582 Y103.895 E1.00708
G1 X52.134 Y103.701 E1.02849
G1 X52.442 Y103.649 E1.03992
G1 X52.888 Y103.671 E1.05626
G1 X54.135 Y103.669 E1.10188
G1 X54.354 Y103.962 E1.11526
G1 X54.538 Y104.124 E1.12423
G1 X54.376 Y104.501 E1.13924
G1 X54.302 Y104.773 E1.14956
G1 X54.308 Y105.055 E1.15988
G1 X54.43 Y105.397 E1.17316
G1 X54.63 Y105.742 E1.18775
G1 X54.775 Y105.926 E1.19632
G1 X54.807 Y106.191 E1.20609
G1 X54.486 Y106.957 E1.23647
G1 X54.413 Y107.248 E1.24745
G1 X54.405 Y107.333 E1.25057
G1 X54.239 Y107.592 E1.26183
G1 X52.642 Y107.588 E1.32026
G1 X52.133 Y107.502 E1.33914
G1 X51.795 Y107.389 E1.35218
G1 X51.488 Y107.219 E1.36502
G1 X51.199 Y106.994 E1.37842
G1 X50.895 Y106.66 E1.39495
G1 X50.644 Y106.073 E1.4183
G1 X50.603 Y105.581 E1.43637
G1 X50.629 Y105.276 E1.44756
G1 X50.743 Y104.806 E1.46526
G1 X50.943 Y104.496 E1.47876
G1 X51.248 Y104.157 E1.49544
G0 F6000 X50.975 Y103.862
G1 F600 X51.388 Y103.538 E1.51464
G1 X52.027 Y103.314 E1.53942
G1 X52.412 Y103.249 E1.5537
G1 X52.725 Y103.251 E1.56515
G1 X52.887 Y103.271 E1.57113
G1 X54.418 Y103.269 E1.62714
G1 X54.486 Y103.492 E1.63567
G1 X54.619 Y103.662 E1.64357
G1 X54.918 Y103.926 E1.65816
G1 X55.029 Y103.993 E1.6629
G1 X54.744 Y104.658 E1.68937
G1 X54.695 Y104.871 E1.69737
G1 X54.776 Y105.196 E1.70962
G1 X54.976 Y105.541 E1.72421
G1 X55.159 Y105.729 E1.73381
G1 X55.194 Y106.105 E1.74763
G1 X55.232 Y106.211 E1.75175
G1 X54.855 Y107.111 E1.78745
G1 X54.792 Y107.489 E1.80147
G1 X54.665 Y107.65 E1.80897
G1 X54.475 Y107.993 E1.82332
G1 X52.61 Y107.988 E1.89155
G1 X52.033 Y107.891 E1.91296
G1 X51.636 Y107.757 E1.92829
G1 X51.266 Y107.554 E1.94373
G1 X50.922 Y107.285 E1.9597
G1 X50.555 Y106.881 E1.97967
G1 X50.25 Y106.17 E2.00798
G1 X50.202 Y105.584 E2.02949
G1 X50.234 Y105.206 E2.04337
G1 X50.37 Y104.647 E2.06442
G1 X50.624 Y104.252 E2.0816
G1 X50.975 Y103.862 E2.10079
G0 F6000 X50.702 Y103.568
G1 F600 X51.191 Y103.184 E2.12354
G1 X51.934 Y102.924 E2.15234
G1 X52.376 Y102.849 E2.16874
G1 X52.768 Y102.851 E2.18309
G1 X52.886 Y102.871 E2.18746
G1 X54.772 Y102.868 E2.25647
G1 X54.817 Y103.236 E2.27003
G1 X54.884 Y103.362 E2.27525
G1 X55.183 Y103.626 E2.28984
G1 X55.316 Y103.676 E2.29504
G1 X55.601 Y103.675 E2.30547
G1 X55.111 Y104.816 E2.3509
G1 X55.122 Y104.995 E2.35746
G1 X55.322 Y105.34 E2.37205
G1 X55.472 Y105.439 E2.37863
G1 X55.62 Y105.457 E2.38408
G1 X55.555 Y105.672 E2.3923
G1 X55.592 Y106.068 E2.40685
G1 X55.663 Y106.217 E2.41289
G1 X55.224 Y107.266 E2.45449
G1 X55.209 Y107.324 E2.45669
G1 X55.177 Y107.663 E2.46914
G1 X55.015 Y107.844 E2.47803
G1 X54.711 Y108.392 E2.50096
G1 X54.43 Y108.393 E2.51124
G1 X52.572 Y108.388 E2.57922
G1 X51.941 Y108.281 E2.60263
G1 X51.47 Y108.123 E2.62081
G1 X51.05 Y107.892 E2.63834
G1 X50.648 Y107.579 E2.65698
G1 X50.215 Y107.101 E2.68058
G1 X49.856 Y106.265 E2.71387
G1 X49.8 Y105.585 E2.73883
G1 X49.838 Y105.141 E2.75513
G1 X49.997 Y104.487 E2.77976
G1 X50.304 Y104.009 E2.80054
G1 X50.702 Y103.568 E2.82228
G0 F6000 X52.581 Y115.318
G1 F600 X54.71 Y115.318 E2.90017
G1 X55.044 Y115.911 E2.92507
G1 X55.181 Y116.07 E2.93275
G1 X55.219 Y116.406 E2.94512
G1 X55.234 Y116.462 E2.94724
G1 X55.665 Y117.483 E2.98779
G1 X55.592 Y117.615 E2.9933
G1 X55.534 Y118.01 E3.00791
G1 X55.549 Y118.12 E3.01197
G1 X55.668 Y118.391 E3.0228
G1 X55.588 Y118.536 E3.02886
G1 X55.534 Y118.931 E3.04345
G1 X55.646 Y119.264 E3.0563
G1 X55.456 Y119.55 E3.06886
G1 X55.438 Y119.738 E3.07577
G1 X55.564 Y120.037 E3.08764
G1 X55.373 Y120.037 E3.09463
G1 X55.241 Y120.087 E3.09979
G1 X54.942 Y120.351 E3.11439
G1 X54.876 Y120.476 E3.11956
G1 X54.83 Y120.84 E3.13298
G1 X52.956 Y120.844 E3.20155
G1 X52.851 Y120.859 E3.20543
G1 X52.371 Y120.857 E3.22299
G1 X51.895 Y120.776 E3.24065
G1 X51.181 Y120.525 E3.26834
G1 X50.702 Y120.148 E3.29064
G1 X50.314 Y119.716 E3.31189
G1 X50.004 Y119.232 E3.33292
G1 X49.833 Y118.544 E3.35885
G1 X49.799 Y118.119 E3.37445
G1 X49.856 Y117.442 E3.39931
G1 X50.214 Y116.613 E3.43235
G1 X50.661 Y116.122 E3.45664
G1 X51.039 Y115.83 E3.47411
G1 X51.491 Y115.582 E3.49298
G1 X51.921 Y115.431 E3.50965
G1 X52.581 Y115.318 E3.53415
G0 F6000 X52.613 Y115.718
G1 F600 X54.475 Y115.718 E3.60227
G1 X54.695 Y116.108 E3.61866
G1 X54.799 Y116.243 E3.62489
G1 X54.865 Y116.617 E3.63878
G1 X55.221 Y117.46 E3.67226
G1 X55.196 Y117.557 E3.67593
G1 X55.138 Y117.952 E3.69054
G1 X55.183 Y118.281 E3.70268
G1 X55.231 Y118.39 E3.70704
G1 X55.192 Y118.482 E3.7107
G1 X55.138 Y118.877 E3.72528
G1 X55.181 Y119.196 E3.73706
G1 X55.037 Y119.529 E3.75033
G1 X55.03 Y119.754 E3.75857
G1 X54.976 Y119.787 E3.76088
G1 X54.677 Y120.051 E3.77548
G1 X54.542 Y120.223 E3.78348
G1 X54.477 Y120.441 E3.7918
G1 X52.955 Y120.444 E3.84748
G1 X52.817 Y120.459 E3.85256
G1 X52.409 Y120.457 E3.86749
G1 X51.991 Y120.386 E3.883
G1 X51.378 Y120.17 E3.90678
G1 X50.976 Y119.855 E3.92547
G1 X50.635 Y119.473 E3.9442
G1 X50.376 Y119.071 E3.9617
G1 X50.229 Y118.481 E3.98394
G1 X50.201 Y118.119 E3.99723
G1 X50.25 Y117.539 E4.01852
G1 X50.555 Y116.833 E4.04666
G1 X50.931 Y116.42 E4.06709
G1 X51.26 Y116.166 E4.0823
G1 X51.66 Y115.945 E4.09902
G1 X52.02 Y115.819 E4.11297
G1 X52.613 Y115.718 E4.13498
G0 F6000 X52.652 Y116.118
G1 F600 X54.242 Y116.118 E4.19315
G1 X54.413 Y116.395 E4.20506
G1 X54.424 Y116.496 E4.20878
G1 X54.497 Y116.773 E4.21926
G1 X54.802 Y117.496 E4.24797
G1 X54.743 Y117.894 E4.26269
G1 X54.741 Y118.176 E4.27301
G1 X54.795 Y118.428 E4.28244
G1 X54.741 Y118.823 E4.29702
G1 X54.743 Y119.105 E4.30734
G1 X54.761 Y119.168 E4.30974
G1 X54.668 Y119.361 E4.31758
G1 X54.636 Y119.553 E4.3247
G1 X54.412 Y119.751 E4.33564
G1 X54.229 Y119.966 E4.34596
G1 X54.195 Y120.042 E4.34901
G1 X52.954 Y120.044 E4.39441
G1 X52.783 Y120.059 E4.40069
G1 X52.441 Y120.057 E4.41321
G1 X52.092 Y119.998 E4.42616
G1 X51.572 Y119.815 E4.44633
G1 X51.253 Y119.564 E4.46118
G1 X50.955 Y119.231 E4.47753
G1 X50.748 Y118.909 E4.49153
G1 X50.626 Y118.418 E4.51004
G1 X50.603 Y118.124 E4.52083
G1 X50.643 Y117.637 E4.53871
G1 X50.896 Y117.053 E4.56199
G1 X51.203 Y116.715 E4.5787
G1 X51.481 Y116.5 E4.59156
G1 X51.82 Y116.314 E4.6057
G1 X52.118 Y116.209 E4.61726
G1 X52.652 Y116.118 E4.63708
G0 F6000 X52.684 Y116.518
G1 F600 X54.011 Y116.518 E4.68563
G1 X54.027 Y116.54 E4.68663
G1 X54.128 Y116.928 E4.70129
G1 X54.389 Y117.547 E4.72587
G1 X54.347 Y117.836 E4.73656
G1 X54.338 Y118.17 E4.74878
G1 X54.396 Y118.394 E4.75725
G1 X54.345 Y118.768 E4.77106
G1 X54.339 Y119.102 E4.78328
G1 X54.268 Y119.345 E4.79254
G1 X54.147 Y119.452 E4.79845
G1 X53.978 Y119.642 E4.80775
G1 X52.953 Y119.644 E4.84525
G1 X52.78 Y119.659 E4.85161
G1 X52.474 Y119.657 E4.8628
G1 X52.193 Y119.61 E4.87323
G1 X51.769 Y119.46 E4.88968
G1 X51.527 Y119.27 E4.90094
G1 X51.271 Y118.985 E4.91495
G1 X51.122 Y118.752 E4.92507
G1 X51.022 Y118.351 E4.94019
G1 X51.004 Y118.119 E4.94871
G1 X51.036 Y117.737 E4.96273
G1 X51.237 Y117.273 E4.98123
G1 X51.478 Y117.007 E4.99436
G1 X51.699 Y116.837 E5.00456
G1 X51.983 Y116.68 E5.01644
G1 X52.219 Y116.597 E5.02559
G1 X52.684 Y116.518 E5.04285
G0 F6000 X52.716 Y116.918
G1 F600 X53.716 Y116.918 E5.07943
G1 X53.76 Y117.084 E5.08572
G1 X53.977 Y117.599 E5.10616
G1 X53.951 Y117.778 E5.11278
G1 X53.936 Y118.156 E5.12662
G1 X53.986 Y118.446 E5.13739
G1 X53.949 Y118.714 E5.14728
G1 X53.939 Y119.032 E5.15892
G1 X53.883 Y119.152 E5.16377
G1 X53.8 Y119.242 E5.16825
G1 X52.952 Y119.244 E5.19927
G1 X52.776 Y119.259 E5.20574
G1 X52.512 Y119.258 E5.21539
G1 X52.294 Y119.221 E5.22348
G1 X51.961 Y119.103 E5.23641
G1 X51.804 Y118.98 E5.24371
G1 X51.591 Y118.743 E5.25537
G1 X51.494 Y118.59 E5.26199
G1 X51.417 Y118.282 E5.27361
G1 X51.405 Y118.128 E5.27926
G1 X51.43 Y117.833 E5.29009
G1 X51.576 Y117.493 E5.30363
G1 X51.748 Y117.305 E5.31295
G1 X51.919 Y117.173 E5.32085
G1 X52.148 Y117.047 E5.33042
G1 X52.324 Y116.985 E5.33724
G1 X52.716 Y116.918 E5.35179
G0 F6000 X52.755 Y117.318
G1 F600 X53.424 Y117.318 E5.37627
G1 X53.565 Y117.651 E5.3895
G1 X53.555 Y117.719 E5.39202
G1 X53.534 Y118.138 E5.40736
G1 X53.58 Y118.458 E5.41919
G1 X53.545 Y118.843 E5.43334
G1 X52.952 Y118.844 E5.45503
G1 X52.544 Y118.858 E5.46997
G1 X52.395 Y118.832 E5.4755
G1 X52.157 Y118.749 E5.48472
G1 X52.078 Y118.686 E5.48842
G1 X51.908 Y118.496 E5.49775
G1 X51.813 Y118.219 E5.50846
G1 X51.822 Y117.933 E5.51893
G1 X51.917 Y117.713 E5.5277
G1 X52.141 Y117.507 E5.53883
G1 X52.417 Y117.376 E5.55001
G1 X52.755 Y117.318 E5.56256
G0 F6000 X52.787 Y117.718
G1 F600 X53.157 Y117.718 E5.57609
G1 X53.133 Y118.116 E5.59068
G1 X53.172 Y118.444 E5.60277
G1 X52.776 Y118.459 E5.61726
G1 X52.497 Y118.444 E5.62749
G1 X52.352 Y118.393 E5.63311
G1 X52.237 Y118.264 E5.63943
G1 X52.216 Y118.031 E5.64799
G1 X52.292 Y117.896 E5.65366
G1 X52.521 Y117.763 E5.66335
G1 X52.787 Y117.718 E5.67322
G1 F1500 E-0.82678
G0 F6000 X65.558 Y113.953
G0 X85.142 Y113.4
G0 X134.858 Y113.4
G0 X154.441 Y113.953
G0 X160.806 Y115.823
G0 X164.327 Y117.492
G1 F1500 E5.67322
G1 F600 X164.772 Y116.43 E5.71535
G1 X164.787 Y116.374 E5.71747
G1 X164.82 Y116.059 E5.72905
G1 X164.987 Y115.872 E5.73823
G1 X165.292 Y115.318 E5.76136
G1 X165.57 Y115.317 E5.77154
G1 X167.412 Y115.322 E5.83893
G1 X168.107 Y115.438 E5.86471
G1 X168.515 Y115.581 E5.88052
G1 X168.945 Y115.816 E5.89845
G1 X169.34 Y116.122 E5.91673
G1 X169.789 Y116.621 E5.94129
G1 X170.145 Y117.436 E5.97383
G1 X170.2 Y118.071 E5.99715
G1 X170.162 Y118.556 E6.01495
G1 X169.996 Y119.228 E6.04027
G1 X169.663 Y119.748 E6.06286
G1 X169.296 Y120.152 E6.08283
G1 X168.838 Y120.519 E6.10431
G1 X168.058 Y120.789 E6.1345
G1 X167.641 Y120.859 E6.14997
G1 X167.187 Y120.859 E6.16658
G1 X167.059 Y120.839 E6.17132
G1 X165.228 Y120.842 E6.23831
G1 X165.183 Y120.474 E6.25188
G1 X165.116 Y120.348 E6.2571
G1 X164.817 Y120.084 E6.27169
G1 X164.684 Y120.034 E6.27689
G1 X164.395 Y120.035 E6.28746
G1 X164.889 Y118.881 E6.33339
G1 X164.878 Y118.701 E6.33999
G1 X164.676 Y118.356 E6.35461
G1 X164.525 Y118.258 E6.3612
G1 X164.375 Y118.242 E6.36672
G1 X164.508 Y117.925 E6.3793
G1 X164.49 Y117.737 E6.38621
G1 X164.327 Y117.492 E6.39697
G0 F6000 X164.779 Y117.449
G1 F600 X165.141 Y116.585 E6.43125
G1 X165.204 Y116.234 E6.44429
G1 X165.338 Y116.065 E6.45218
G1 X165.53 Y115.717 E6.46672
G1 X167.375 Y115.722 E6.53423
G1 X168.011 Y115.828 E6.55782
G1 X168.35 Y115.947 E6.57096
G1 X168.726 Y116.152 E6.58663
G1 X169.069 Y116.418 E6.60251
G1 X169.447 Y116.837 E6.62316
G1 X169.751 Y117.536 E6.65104
G1 X169.798 Y118.071 E6.67069
G1 X169.766 Y118.495 E6.68625
G1 X169.624 Y119.066 E6.70778
G1 X169.343 Y119.505 E6.72685
G1 X169.023 Y119.857 E6.74425
G1 X168.64 Y120.164 E6.76221
G1 X167.961 Y120.399 E6.7885
G1 X167.605 Y120.459 E6.8017
G1 X167.222 Y120.459 E6.81572
G1 X167.058 Y120.439 E6.82176
G1 X165.582 Y120.441 E6.87576
G1 X165.514 Y120.218 E6.88429
G1 X165.381 Y120.048 E6.89219
G1 X165.082 Y119.784 E6.90678
G1 X164.967 Y119.715 E6.91169
G1 X165.257 Y119.038 E6.93863
G1 X165.305 Y118.825 E6.94662
G1 X165.223 Y118.499 E6.95892
G1 X165.021 Y118.154 E6.97355
G1 X164.893 Y118.007 E6.98068
G1 X164.924 Y117.867 E6.98593
G1 X164.891 Y117.652 E6.99388
G1 X164.779 Y117.449 E7.00237
G0 F6000 X165.216 Y117.443
G1 F600 X165.51 Y116.74 E7.03024
G1 X165.583 Y116.457 E7.04094
G1 X165.765 Y116.118 E7.05501
G1 X167.346 Y116.122 E7.11286
G1 X167.905 Y116.215 E7.13359
G1 X168.188 Y116.314 E7.14456
G1 X168.503 Y116.487 E7.15771
G1 X168.798 Y116.715 E7.17135
G1 X169.107 Y117.058 E7.18824
G1 X169.359 Y117.635 E7.21127
G1 X169.397 Y118.071 E7.22729
G1 X169.37 Y118.427 E7.24035
G1 X169.25 Y118.909 E7.25852
G1 X169.025 Y119.26 E7.27377
G1 X168.744 Y119.569 E7.28906
G1 X168.446 Y119.809 E7.30305
G1 X167.862 Y120.011 E7.32566
G1 X167.573 Y120.059 E7.33638
G1 X167.257 Y120.059 E7.34794
G1 X167.057 Y120.039 E7.3553
G1 X165.865 Y120.041 E7.39891
G1 X165.646 Y119.748 E7.41229
G1 X165.458 Y119.582 E7.42147
G1 X165.624 Y119.195 E7.43687
G1 X165.698 Y118.923 E7.44719
G1 X165.692 Y118.641 E7.45751
G1 X165.568 Y118.297 E7.47088
G1 X165.366 Y117.952 E7.48551
G1 X165.315 Y117.888 E7.4885
G1 X165.31 Y117.68 E7.49612
G1 X165.216 Y117.443 E7.50544
G0 F6000 X165.656 Y117.425
G1 F600 X165.879 Y116.894 E7.52652
G1 X165.967 Y116.548 E7.53958
G1 X165.989 Y116.518 E7.54094
G1 X167.309 Y116.522 E7.58923
G1 X167.811 Y116.605 E7.60785
G1 X168.024 Y116.68 E7.61611
G1 X168.282 Y116.821 E7.62687
G1 X168.521 Y117.006 E7.63792
G1 X168.767 Y117.279 E7.65137
G1 X168.966 Y117.735 E7.66957
G1 X168.995 Y118.077 E7.68213
G1 X168.973 Y118.366 E7.69273
G1 X168.878 Y118.747 E7.7071
G1 X168.703 Y119.021 E7.71899
G1 X168.475 Y119.272 E7.7314
G1 X168.249 Y119.454 E7.74202
G1 X167.765 Y119.621 E7.76075
G1 X167.537 Y119.659 E7.7692
G1 X167.28 Y119.659 E7.77861
G1 X167.057 Y119.639 E7.7868
G1 X166.08 Y119.641 E7.82254
G1 X165.938 Y119.48 E7.8304
G1 X165.992 Y119.353 E7.83545
G1 X166.086 Y119.032 E7.84768
G1 X166.101 Y118.698 E7.85992
G1 X166.037 Y118.371 E7.87211
