;FLAVOR:Marlin
;TIME:1665
;Filament used: 0.843531m
;Layer height: 0.2
;MINX:77.65
;MINY:101.735
;MINZ:0.2
;MAXX:142.35
;MAXY:118.401
;MAXZ:6.44
;Generated with Cura_SteamEngine 4.8.0
M140 S60
M105
M190 S60
M104 S220
M105
M109 S220
M82 ;absolute extrusion mode
; Ender 3 Custom Start G-code
G92 E0 ; Reset Extruder
G28 ; Home all axes
G1 Z2.0 F3000 ; Move Z Axis up little to prevent scratching of Heat Bed
G1 X0.1 Y20 Z0.3 F5000.0 ; Move to start position
G1 X0.1 Y200.0 Z0.3 F1500.0 E15 ; Draw the first line
G1 X0.4 Y200.0 Z0.3 F5000.0 ; Move to side a little
G1 X0.4 Y20 Z0.3 F1500.0 E30 ; Draw the second line
G92 E0 ; Reset Extruder
G1 Z2.0 F3000 ; Move Z Axis up little to prevent scratching of Heat Bed
G1 X5 Y20 Z0.3 F5000.0 ; Move over to prevent blob squish
G92 E0
G92 E0
G1 F1500 E-6.5
;LAYER_COUNT:41
;LAYER:0
M107
;MESH:leftShaft.stl
G0 F6000 X83.95 Y104.169 Z0.2
;TYPE:WALL-INNER
G1 F1500 E0
G1 F600 X89.35 Y104.169 E0.19757
G1 X89.35 Y103.996 E0.20389
G1 X93.95 Y103.996 E0.37219
G1 X93.95 Y103.588 E0.38712
G1 X93.95 Y103.465 E0.39162
G1 X94.15 Y103.588 E0.39585
G1 X94.15 Y103.997 E0.40336
G1 X130.337 Y103.996 E1.7273
G1 X130.337 Y104.169 E1.73363
G1 X141.65 Y104.169 E2.14753
G1 X141.65 Y106.54 E2.23428
G1 X130.337 Y106.54 E2.64817
G1 X130.337 Y106.713 E2.6545
G1 X94.725 Y106.712 E3.95741
G1 X94.465 Y106.927 E3.96975
G1 X94.253 Y107.058 E3.97887
G1 X93.95 Y107.245 E3.9919
G1 X93.95 Y106.889 E3.99924
G1 X93.95 Y106.888 E3.99928
G1 X93.95 Y106.713 E4.00568
G1 X89.35 Y106.713 E4.17398
G1 X89.35 Y106.54 E4.18031
G1 X83.95 Y106.54 E4.37787
G1 X83.95 Y104.169 E4.46462
G0 F6000 X83.55 Y103.905
;TYPE:WALL-OUTER
G1 F600 X78.35 Y103.905 E4.65487
G1 X78.35 Y106.804 E4.76093
G1 X83.55 Y106.804 E4.95118
G1 X83.55 Y103.905 E5.05724
G1 F1500 E-1.44276
G0 F6000 X83.75 Y103.905
G0 X86.77 Y103.901
G0 X94.55 Y103.797
G0 X94.55 Y103.597
G1 F1500 E5.05724
G1 F600 X130.737 Y103.596 E6.38118
G1 X130.737 Y103.769 E6.38751
G1 X142.05 Y103.769 E6.80141
G1 X142.05 Y106.94 E6.91743
G1 X130.737 Y106.94 E7.33133
G1 X130.737 Y107.113 E7.33766
G1 X94.869 Y107.112 E8.64993
G1 X94.7 Y107.252 E8.65796
G1 X93.695 Y107.872 E8.70116
G1 X93.55 Y107.955 E8.70727
G1 X93.55 Y107.113 E8.73808
G1 X88.95 Y107.113 E8.90637
G1 X88.95 Y106.94 E8.9127
G1 X77.95 Y106.94 E9.31515
G1 X77.95 Y103.769 E9.43117
G1 X88.95 Y103.769 E9.83361
G1 X88.95 Y103.596 E9.83994
G1 X93.55 Y103.596 E10.00824
G1 X93.55 Y102.753 E10.03908
G1 X93.664 Y102.818 E10.04388
G1 X94.55 Y103.364 E10.08196
G1 X94.55 Y103.597 E10.09048
G0 F6000 X94.55 Y103.797
G0 X84.132 Y104.351
G0 X84.132 Y106.358
G0 X94.141 Y106.903
G0 X94.682 Y106.596
G0 X94.584 Y106.322
;TYPE:SKIN
G1 F600 X94.34 Y106.525 E10.10326
G1 X94.34 Y106.323 E10.11139
G1 X89.74 Y106.323 E10.29651
G1 X89.74 Y106.15 E10.30347
G1 X84.34 Y106.15 E10.5208
G1 X84.34 Y104.559 E10.58483
G1 X89.74 Y104.559 E10.80215
G1 X89.74 Y104.386 E10.80911
G1 X129.947 Y104.386 E12.42723
G1 X129.947 Y104.559 E12.43419
G1 X141.26 Y104.559 E12.88948
G1 X141.26 Y106.15 E12.95351
G1 X129.947 Y106.15 E13.4088
G1 X129.947 Y106.323 E13.41576
G1 X94.584 Y106.322 E14.83894
G0 F6000 X94.682 Y106.596
G0 X94.196 Y106.872
G0 X85.058 Y106.43
G0 X85.058 Y105.988
G1 F600 X84.499 Y105.43 E14.87073
G0 F6000 X84.499 Y104.864
G1 F600 X85.624 Y105.988 E14.93473
G0 F6000 X86.189 Y105.988
G1 F600 X84.919 Y104.718 E15.00701
G0 F6000 X85.484 Y104.718
G1 F600 X86.755 Y105.988 E15.07932
G0 F6000 X87.321 Y105.988
G1 F600 X86.05 Y104.718 E15.15163
G0 F6000 X86.616 Y104.718
G1 F600 X87.887 Y105.988 E15.22394
G0 F6000 X88.452 Y105.988
G1 F600 X87.182 Y104.718 E15.29622
G0 F6000 X87.747 Y104.718
G1 F600 X89.018 Y105.988 E15.36853
G0 F6000 X89.584 Y105.988
G1 F600 X88.313 Y104.718 E15.44084
G0 F6000 X88.879 Y104.718
G1 F600 X90.322 Y106.162 E15.523
G0 F6000 X90.888 Y106.162
G1 F600 X89.444 Y104.718 E15.60518
G0 F6000 X89.9 Y104.607
G1 F600 X91.454 Y106.162 E15.69365
G0 F6000 X92.02 Y106.162
G1 F600 X90.403 Y104.545 E15.78569
G0 F6000 X90.969 Y104.545
G1 F600 X92.585 Y106.162 E15.87769
G0 F6000 X93.151 Y106.162
G1 F600 X91.534 Y104.545 E15.96972
G0 F6000 X92.1 Y104.545
G1 F600 X93.717 Y106.162 E16.06175
G0 F6000 X94.282 Y106.162
G1 F600 X92.666 Y104.545 E16.15375
G0 F6000 X93.232 Y104.545
G1 F600 X94.847 Y106.16 E16.24567
G0 F6000 X95.412 Y106.16
G1 F600 X93.797 Y104.545 E16.33759
G0 F6000 X94.363 Y104.545
G1 F600 X95.978 Y106.16 E16.4295
G0 F6000 X96.544 Y106.16
G1 F600 X94.929 Y104.545 E16.52142
G0 F6000 X95.494 Y104.545
G1 F600 X97.109 Y106.16 E16.61334
G0 F6000 X97.675 Y106.16
G1 F600 X96.06 Y104.545 E16.70526
G0 F6000 X96.626 Y104.545
G1 F600 X98.241 Y106.16 E16.79717
G0 F6000 X98.806 Y106.16
G1 F600 X97.191 Y104.545 E16.88909
G0 F6000 X97.757 Y104.545
G1 F600 X99.372 Y106.16 E16.98101
G0 F6000 X99.938 Y106.16
G1 F600 X98.323 Y104.545 E17.07293
G0 F6000 X98.888 Y104.545
G1 F600 X100.503 Y106.16 E17.16484
G0 F6000 X101.069 Y106.16
G1 F600 X99.454 Y104.545 E17.25676
G0 F6000 X100.02 Y104.545
G1 F600 X101.635 Y106.16 E17.34868
G0 F6000 X102.2 Y106.16
G1 F600 X100.585 Y104.545 E17.44059
G0 F6000 X101.151 Y104.545
G1 F600 X102.766 Y106.16 E17.53251
G0 F6000 X103.332 Y106.16
G1 F600 X101.717 Y104.545 E17.62443
G0 F6000 X102.282 Y104.545
G1 F600 X103.898 Y106.16 E17.71637
G0 F6000 X104.463 Y106.16
G1 F600 X102.848 Y104.545 E17.80829
G0 F6000 X103.414 Y104.545
G1 F600 X105.029 Y106.16 E17.90021
G0 F6000 X105.595 Y106.16
G1 F600 X103.98 Y104.545 E17.99213
G0 F6000 X104.545 Y104.545
G1 F600 X106.16 Y106.16 E18.08404
G0 F6000 X106.727 Y106.161
G1 F600 X105.111 Y104.545 E18.17602
G0 F6000 X105.677 Y104.545
G1 F600 X107.292 Y106.161 E18.26796
G0 F6000 X107.858 Y106.161
G1 F600 X106.242 Y104.545 E18.35994
G0 F6000 X106.808 Y104.545
G1 F600 X108.424 Y106.161 E18.45191
G0 F6000 X108.989 Y106.161
G1 F600 X107.374 Y104.545 E18.54386
G0 F6000 X107.939 Y104.545
G1 F600 X109.555 Y106.161 E18.63583
G0 F6000 X110.121 Y106.161
G1 F600 X108.505 Y104.545 E18.72781
G0 F6000 X109.071 Y104.545
G1 F600 X110.686 Y106.161 E18.81975
G0 F6000 X111.252 Y106.161
G1 F600 X109.636 Y104.545 E18.91173
G0 F6000 X110.202 Y104.545
G1 F600 X111.818 Y106.161 E19.0037
G0 F6000 X112.384 Y106.161
G1 F600 X110.768 Y104.545 E19.09567
G0 F6000 X111.333 Y104.545
G1 F600 X112.949 Y106.161 E19.18765
G0 F6000 X113.515 Y106.161
G1 F600 X111.899 Y104.545 E19.27962
G0 F6000 X112.465 Y104.545
G1 F600 X114.081 Y106.161 E19.3716
G0 F6000 X114.646 Y106.161
G1 F600 X113.031 Y104.545 E19.46354
G0 F6000 X113.596 Y104.545
G1 F600 X115.212 Y106.161 E19.55552
G0 F6000 X115.778 Y106.161
G1 F600 X114.162 Y104.545 E19.64749
G0 F6000 X114.728 Y104.545
G1 F600 X116.343 Y106.161 E19.73944
G0 F6000 X116.909 Y106.161
G1 F600 X115.293 Y104.545 E19.83141
G0 F6000 X115.859 Y104.545
G1 F600 X117.475 Y106.161 E19.92338
G0 F6000 X118.041 Y106.162
G1 F600 X116.425 Y104.545 E20.01539
G0 F6000 X116.99 Y104.545
G1 F600 X118.607 Y106.162 E20.10742
G0 F6000 X119.172 Y106.162
G1 F600 X117.556 Y104.545 E20.19942
G0 F6000 X118.122 Y104.545
G1 F600 X119.738 Y106.162 E20.29142
G0 F6000 X120.304 Y106.162
G1 F600 X118.687 Y104.545 E20.38345
G0 F6000 X119.253 Y104.545
G1 F600 X120.87 Y106.162 E20.47548
G0 F6000 X121.435 Y106.162
G1 F600 X119.819 Y104.545 E20.56749
G0 F6000 X120.384 Y104.545
G1 F600 X122.001 Y106.162 E20.65952
G0 F6000 X122.567 Y106.162
G1 F600 X120.95 Y104.545 E20.75155
G0 F6000 X121.516 Y104.545
G1 F600 X123.132 Y106.162 E20.84355
G0 F6000 X123.698 Y106.162
G1 F600 X122.081 Y104.545 E20.93558
G0 F6000 X122.647 Y104.545
G1 F600 X124.264 Y106.162 E21.02761
G0 F6000 X124.829 Y106.162
G1 F600 X123.213 Y104.545 E21.11962
G0 F6000 X123.779 Y104.545
G1 F600 X125.395 Y106.162 E21.21162
G0 F6000 X125.961 Y106.162
G1 F600 X124.344 Y104.545 E21.30365
G0 F6000 X124.91 Y104.545
G1 F600 X126.526 Y106.162 E21.39565
G0 F6000 X127.092 Y106.162
G1 F600 X125.476 Y104.545 E21.48766
G0 F6000 X126.041 Y104.545
G1 F600 X127.658 Y106.162 E21.57969
G0 F6000 X128.223 Y106.162
G1 F600 X126.607 Y104.545 E21.67169
G0 F6000 X127.173 Y104.545
G1 F600 X128.789 Y106.162 E21.76369
G0 F6000 X129.355 Y106.162
G1 F600 X127.738 Y104.545 E21.85572
G0 F6000 X128.304 Y104.545
G1 F600 X129.786 Y106.027 E21.94007
G0 F6000 X130.314 Y105.989
G1 F600 X128.87 Y104.545 E22.02226
G0 F6000 X129.435 Y104.545
G1 F600 X130.879 Y105.989 E22.10444
G0 F6000 X131.445 Y105.989
G1 F600 X130.174 Y104.718 E22.17678
G0 F6000 X130.74 Y104.718
G1 F600 X132.011 Y105.989 E22.24912
G0 F6000 X132.576 Y105.989
G1 F600 X131.306 Y104.718 E22.32143
G0 F6000 X131.871 Y104.718
G1 F600 X133.142 Y105.989 E22.39377
G0 F6000 X133.708 Y105.989
G1 F600 X132.437 Y104.718 E22.4661
G0 F6000 X133.003 Y104.718
G1 F600 X134.273 Y105.989 E22.53841
G0 F6000 X134.839 Y105.989
G1 F600 X133.568 Y104.718 E22.61075
G0 F6000 X134.134 Y104.718
G1 F600 X135.405 Y105.989 E22.68309
G0 F6000 X135.97 Y105.989
G1 F600 X134.7 Y104.718 E22.7554
G0 F6000 X135.265 Y104.718
G1 F600 X136.536 Y105.989 E22.82774
G0 F6000 X137.102 Y105.989
G1 F600 X135.831 Y104.718 E22.90008
G0 F6000 X136.397 Y104.718
G1 F600 X137.668 Y105.989 E22.97242
G0 F6000 X138.233 Y105.989
G1 F600 X136.963 Y104.718 E23.04473
G0 F6000 X137.528 Y104.718
G1 F600 X138.799 Y105.989 E23.11707
G0 F6000 X139.365 Y105.989
G1 F600 X138.094 Y104.718 E23.1894
G0 F6000 X138.66 Y104.718
G1 F600 X139.93 Y105.989 E23.26171
G0 F6000 X140.496 Y105.989
G1 F600 X139.225 Y104.718 E23.33405
G0 F6000 X139.791 Y104.718
G1 F600 X141.062 Y105.989 E23.40639
G0 F6000 X141.099 Y105.461
G1 F600 X140.357 Y104.718 E23.44865
G0 F6000 X140.922 Y104.718
G1 F600 X141.099 Y104.895 E23.45873
G0 F6000 X141.55 Y104.895
G1 F1500 E16.95873
;MESH:rightShaft.stl
G0 F6000 X141.468 Y106.358
G0 X94.827 Y106.994
G0 X95.172 Y107.975
G0 X92.17 Y111.531
G0 X92.17 Y112.682
G0 X87.056 Y112.968
;TYPE:WALL-INNER
G1 F1500 E23.45873
G1 F600 X92.456 Y112.968 E23.65629
G1 X92.456 Y112.796 E23.66258
G1 X97.056 Y112.796 E23.83088
G1 X97.056 Y112.387 E23.84584
G1 X97.056 Y112.263 E23.85038
G1 X97.256 Y112.387 E23.85462
G1 X97.256 Y112.796 E23.86212
G1 X128.909 Y112.797 E25.02019
G1 X129.298 Y112.612 E25.03595
G1 X130.843 Y111.981 E25.097
G1 X133.204 Y111.084 E25.18941
G1 X133.363 Y111.027 E25.19559
G1 X138.857 Y111.026 E25.39659
G1 X139.056 Y111.026 E25.40387
G1 X139.056 Y111.225 E25.40858
G1 X139.056 Y112.139 E25.44202
G1 X133.156 Y112.139 E25.65788
G1 X133.156 Y116.168 E25.80529
G1 X139.056 Y116.168 E26.02114
G1 X139.056 Y117.281 E26.06187
G1 X133.361 Y117.282 E26.27022
G1 X133.207 Y117.226 E26.27622
G1 X130.821 Y116.319 E26.36961
G1 X130.229 Y116.075 E26.39303
G1 X129.283 Y115.691 E26.43039
G1 X128.91 Y115.511 E26.44554
G1 X97.838 Y115.513 E27.58234
G1 X97.585 Y115.718 E27.59426
G1 X97.36 Y115.857 E27.60393
G1 X97.056 Y116.044 E27.61699
G1 X97.056 Y115.688 E27.62433
G1 X97.056 Y115.687 E27.62436
G1 X97.056 Y115.512 E27.63077
G1 X92.456 Y115.512 E27.79906
G1 X92.456 Y115.34 E27.80536
G1 X87.056 Y115.34 E28.00292
G1 X87.056 Y112.968 E28.0897
G0 F6000 X86.656 Y112.704
;TYPE:WALL-OUTER
G1 F600 X81.456 Y112.704 E28.27995
G1 X81.456 Y115.604 E28.38605
G1 X86.656 Y115.604 E28.5763
G1 X86.656 Y112.704 E28.6824
G1 F1500 E22.1824
G0 F6000 X86.856 Y112.704
G0 X130.057 Y112.509
G0 X133.395 Y111.198
G0 X138.874 Y111.208
G0 X138.874 Y111.957
G0 X133.564 Y111.957
G0 X133.356 Y112.539
G0 X133.556 Y112.539
G1 F1500 E28.6824
G1 F600 X133.556 Y115.768 E28.80054
G1 X139.456 Y115.768 E29.01639
G1 X139.456 Y117.681 E29.08638
G1 X133.293 Y117.682 E29.31186
G1 X133.065 Y117.6 E29.32073
G1 X130.668 Y116.689 E29.41455
G1 X130.077 Y116.445 E29.43794
G1 X129.133 Y116.062 E29.47521
G1 X128.819 Y115.911 E29.48796
G1 X97.98 Y115.913 E30.61624
G1 X97.816 Y116.046 E30.62396
G1 X96.77 Y116.69 E30.6689
G1 X96.656 Y116.755 E30.6737
G1 X96.656 Y115.912 E30.70455
G1 X92.056 Y115.912 E30.87284
G1 X92.056 Y115.74 E30.87914
G1 X81.056 Y115.74 E31.28158
G1 X81.056 Y112.568 E31.39763
G1 X92.056 Y112.568 E31.80008
G1 X92.056 Y112.396 E31.80638
G1 X96.656 Y112.396 E31.97467
G1 X96.656 Y111.552 E32.00555
G1 X96.77 Y111.617 E32.01035
G1 X97.656 Y112.164 E32.04845
G1 X97.656 Y112.396 E32.05693
G1 X128.819 Y112.397 E33.19707
G1 X129.146 Y112.242 E33.21031
G1 X129.62 Y112.047 E33.22906
G1 X130.701 Y111.607 E33.27176
G1 X133.069 Y110.707 E33.36444
G1 X133.292 Y110.627 E33.37311
G1 X139.456 Y110.626 E33.59863
G1 X139.456 Y112.539 E33.66862
G1 X133.556 Y112.539 E33.88448
G0 F6000 X133.356 Y112.539
G0 X133.863 Y111.966
G0 X138.874 Y111.957
G0 X138.874 Y111.208
G0 X133.241 Y111.189
G0 X133.339 Y111.45
;TYPE:SKIN
G1 F600 X133.431 Y111.417 E33.88841
G1 X138.666 Y111.416 E34.09909
G1 X138.666 Y111.749 E34.11249
G1 X132.766 Y111.749 E34.34994
G1 X132.766 Y116.558 E34.54347
G1 X138.666 Y116.558 E34.78092
G1 X138.666 Y116.891 E34.79432
G1 X133.431 Y116.892 E35.005
G1 X133.34 Y116.859 E35.0089
G1 X130.96 Y115.954 E35.11137
G1 X130.377 Y115.714 E35.13674
G1 X129.449 Y115.338 E35.17704
G1 X128.999 Y115.121 E35.19714
G1 X97.7 Y115.123 E36.45677
G1 X97.446 Y115.328 E36.4699
G1 X97.446 Y115.122 E36.47819
G1 X92.846 Y115.122 E36.66332
G1 X92.846 Y114.95 E36.67024
G1 X87.446 Y114.95 E36.88756
G1 X87.446 Y113.358 E36.95163
G1 X92.846 Y113.358 E37.16895
G1 X92.846 Y113.186 E37.17588
G1 X128.997 Y113.187 E38.63076
G1 X129.46 Y112.967 E38.65139
G1 X130.981 Y112.346 E38.71751
G1 X133.339 Y111.45 E38.81903
G0 F6000 X133.241 Y111.189
G0 X132.203 Y111.583
G0 X132.357 Y111.992
G1 F600 X132.605 Y112.241 E38.83317
G0 F6000 X132.605 Y112.806
G1 F600 X131.948 Y112.149 E38.87056
G0 F6000 X131.538 Y112.304
G1 F600 X132.605 Y113.372 E38.93132
G0 F6000 X132.605 Y113.938
G1 F600 X131.128 Y112.461 E39.01538
G0 F6000 X130.724 Y112.623
G1 F600 X132.605 Y114.503 E39.12241
G0 F6000 X132.605 Y115.069
G1 F600 X130.323 Y112.787 E39.25229
G0 F6000 X129.922 Y112.951
G1 F600 X132.605 Y115.635 E39.40502
G0 F6000 X132.605 Y116.2
G1 F600 X129.52 Y113.115 E39.5806
G0 F6000 X129.136 Y113.297
G1 F600 X132.028 Y116.188 E39.74517
G0 F6000 X131.115 Y115.841
G1 F600 X128.62 Y113.347 E39.88715
G0 F6000 X128.054 Y113.347
G1 F600 X130.162 Y115.454 E40.00709
G0 F6000 X129.996 Y115.861
G0 X128.975 Y115.42
G0 X129.166 Y115.024
G1 F600 X127.489 Y113.347 E40.10254
G0 F6000 X126.923 Y113.347
G1 F600 X128.537 Y114.96 E40.19437
G0 F6000 X127.971 Y114.96
G1 F600 X126.357 Y113.347 E40.2862
G0 F6000 X125.792 Y113.347
G1 F600 X127.405 Y114.96 E40.37801
G0 F6000 X126.84 Y114.96
G1 F600 X125.226 Y113.347 E40.46984
G0 F6000 X124.66 Y113.347
G1 F600 X126.274 Y114.96 E40.56167
G0 F6000 X125.708 Y114.96
G1 F600 X124.095 Y113.347 E40.65347
G0 F6000 X123.529 Y113.347
G1 F600 X125.143 Y114.96 E40.74531
G0 F6000 X124.577 Y114.96
G1 F600 X122.963 Y113.347 E40.83714
G0 F6000 X122.398 Y113.347
G1 F600 X124.011 Y114.96 E40.92894
G0 F6000 X123.445 Y114.96
G1 F600 X121.832 Y113.347 E41.02074
G0 F6000 X121.266 Y113.347
G1 F600 X122.88 Y114.96 E41.11258
G0 F6000 X122.314 Y114.96
G1 F600 X120.701 Y113.347 E41.20438
G0 F6000 X120.135 Y113.347
G1 F600 X121.748 Y114.96 E41.29618
G0 F6000 X121.183 Y114.96
G1 F600 X119.569 Y113.347 E41.38802
G0 F6000 X119.003 Y113.347
G1 F600 X120.617 Y114.96 E41.47985
G0 F6000 X120.051 Y114.96
G1 F600 X118.438 Y113.347 E41.57165
G0 F6000 X117.872 Y113.347
G1 F600 X119.486 Y114.96 E41.66348
G0 F6000 X118.92 Y114.96
G1 F600 X117.306 Y113.347 E41.75531
G0 F6000 X116.74 Y113.346
G1 F600 X118.354 Y114.96 E41.84717
G0 F6000 X117.789 Y114.96
G1 F600 X116.174 Y113.346 E41.93906
G0 F6000 X115.609 Y113.346
G1 F600 X117.223 Y114.96 E42.03092
G0 F6000 X116.657 Y114.96
G1 F600 X115.043 Y113.346 E42.12278
G0 F6000 X114.477 Y113.346
G1 F600 X116.092 Y114.96 E42.21467
G0 F6000 X115.526 Y114.96
G1 F600 X113.912 Y113.346 E42.30653
G0 F6000 X113.346 Y113.346
G1 F600 X114.96 Y114.96 E42.39839
G0 F6000 X114.395 Y114.96
G1 F600 X112.78 Y113.346 E42.49028
G0 F6000 X112.215 Y113.346
G1 F600 X113.829 Y114.96 E42.58214
G0 F6000 X113.264 Y114.961
G1 F600 X111.649 Y113.346 E42.67406
G0 F6000 X111.083 Y113.346
G1 F600 X112.698 Y114.961 E42.76598
G0 F6000 X112.132 Y114.961
G1 F600 X110.517 Y113.346 E42.85789
G0 F6000 X109.952 Y113.346
G1 F600 X111.567 Y114.961 E42.94981
G0 F6000 X111.001 Y114.961
G1 F600 X109.386 Y113.346 E43.04173
G0 F6000 X108.82 Y113.346
