;FLAVOR:Marlin
;TIME:1885
;Filament used: 0.407292m
;Layer height: 0.12
;MINX:91.895
;MINY:100.376
;MINZ:0.24
;MAXX:128.165
;MAXY:120.185
;MAXZ:6.72
;Generated with Cura_SteamEngine 4.8.0
M140 S60
M105
M190 S60
M104 S220
M105
M109 S220
M82 ;absolute extrusion mode
; Ender 3 Custom Start G-code
G92 E0 ; Reset Extruder
G28 ; Home all axes
G1 Z2.0 F3000 ; Move Z Axis up little to prevent scratching of Heat Bed
G1 X0.1 Y20 Z0.3 F5000.0 ; Move to start position
G1 X0.1 Y200.0 Z0.3 F1500.0 E15 ; Draw the first line
G1 X0.4 Y200.0 Z0.3 F5000.0 ; Move to side a little
G1 X0.4 Y20 Z0.3 F1500.0 E30 ; Draw the second line
G92 E0 ; Reset Extruder
G1 Z2.0 F3000 ; Move Z Axis up little to prevent scratching of Heat Bed
G1 X5 Y20 Z0.3 F5000.0 ; Move over to prevent blob squish
G92 E0
G92 E0
G1 F1500 E-6.5
;LAYER_COUNT:55
;LAYER:0
M107
;MESH:inputGear.stl
G0 F6000 X96.872 Y110.538 Z0.24
;TYPE:WALL-INNER
G1 F1500 E0
G1 F1200 X96.637 Y110.503 E0.00948
G1 X96.463 Y110.34 E0.019
G1 X96.411 Y110.113 E0.02829
G1 X96.498 Y109.889 E0.03788
G1 X96.69 Y109.758 E0.04716
G1 X96.812 Y109.739 E0.05209
G1 X97.034 Y109.805 E0.06133
G1 X97.184 Y109.988 E0.07078
G1 X97.205 Y110.228 E0.08039
G1 X97.088 Y110.436 E0.08992
G1 X96.872 Y110.538 E0.09945
G0 F6000 X96.933 Y110.938
G1 F1200 X96.691 Y110.938 E0.10911
G1 X96.462 Y110.867 E0.11868
G1 X96.264 Y110.733 E0.12822
G1 X96.113 Y110.542 E0.13794
G1 X96.025 Y110.319 E0.14751
G1 X96.007 Y110.082 E0.15699
G1 X96.062 Y109.844 E0.16674
G1 X96.18 Y109.639 E0.17618
G1 X96.36 Y109.472 E0.18598
G1 X96.57 Y109.372 E0.19527
G1 X96.751 Y109.345 E0.20257
G1 X96.812 Y109.335 E0.20504
G1 X97.054 Y109.372 E0.21481
G1 X97.262 Y109.471 E0.224
G1 X97.446 Y109.64 E0.23398
G1 X97.562 Y109.843 E0.24331
G1 X97.618 Y110.084 E0.25318
G1 X97.6 Y110.316 E0.26247
G1 X97.51 Y110.546 E0.27233
G1 X97.401 Y110.683 E0.27931
G1 X97.361 Y110.734 E0.2819
G1 X97.165 Y110.866 E0.29133
G1 X96.933 Y110.938 E0.30103
G0 F6000 X96.993 Y111.338
;TYPE:WALL-OUTER
G1 F1200 X96.631 Y111.338 E0.31548
G1 X96.285 Y111.231 E0.32993
G1 X95.989 Y111.03 E0.34421
G1 X95.763 Y110.745 E0.35873
G1 X95.631 Y110.408 E0.37317
G1 X95.603 Y110.052 E0.38743
G1 X95.685 Y109.697 E0.40197
G1 X95.863 Y109.387 E0.41624
G1 X96.132 Y109.139 E0.43084
G1 X96.454 Y108.984 E0.4451
G1 X96.812 Y108.93 E0.45955
G1 X97.17 Y108.984 E0.474
G1 X97.492 Y109.139 E0.48827
G1 X97.761 Y109.386 E0.50284
G1 X97.939 Y109.697 E0.51714
G1 X98.022 Y110.053 E0.53173
G1 X97.994 Y110.408 E0.54595
G1 X97.862 Y110.746 E0.56043
G1 X97.636 Y111.03 E0.57491
G1 X97.339 Y111.231 E0.58923
G1 X96.993 Y111.338 E0.60368
G0 F6000 X96.928 Y110.903
G0 X97.082 Y110.658
;TYPE:SKIN
G1 F1200 X96.83 Y110.124 E0.60792
G1 X96.419 Y110.561 E0.61223
G1 X96.293 Y109.87 E0.61727
G1 X97.278 Y109.723 E0.62442
G1 X97.394 Y110.122 E0.62741
G0 F6000 X97.411 Y110.162
G1 F1500 E-5.87259
;MESH:outputGear.stl
G0 F6000 X97.778 Y110.358
G0 X98.859 Y110.441
G0 X110.008 Y111.516
G0 X108.409 Y112.468
G0 X112.526 Y114.519
;TYPE:WALL-INNER
G1 F1500 E0.62741
G1 F1200 X113.195 Y114.443 E0.65428
G1 X113.847 Y114.263 E0.68128
G1 X114.462 Y113.986 E0.7082
G1 X115.027 Y113.622 E0.73502
G1 X115.53 Y113.172 E0.76196
G1 X115.959 Y112.652 E0.78886
G1 X116.305 Y112.073 E0.81579
G1 X116.555 Y111.449 E0.84261
G1 X116.708 Y110.794 E0.86946
G1 X116.761 Y110.119 E0.89648
G1 X116.708 Y109.446 E0.92343
G1 X116.556 Y108.791 E0.95027
G1 X116.305 Y108.165 E0.97718
G1 X115.959 Y107.586 E1.00411
G1 X115.53 Y107.066 E1.03101
G1 X115.027 Y106.616 E1.05795
G1 X114.462 Y106.252 E1.08477
G1 X113.847 Y105.973 E1.11173
G1 X113.195 Y105.796 E1.13869
G1 X112.526 Y105.719 E1.16557
G1 X111.852 Y105.744 E1.19249
G1 X111.191 Y105.873 E1.21937
G1 X110.556 Y106.101 E1.2463
G1 X109.964 Y106.423 E1.27319
G1 X109.427 Y106.83 E1.30009
G1 X108.959 Y107.318 E1.32707
G1 X108.573 Y107.868 E1.35389
G1 X108.273 Y108.473 E1.38084
G1 X108.069 Y109.116 E1.40777
G1 X107.967 Y109.782 E1.43466
G1 X107.967 Y110.456 E1.46156
G1 X108.069 Y111.122 E1.48845
G1 X108.273 Y111.765 E1.51538
G1 X108.573 Y112.37 E1.54233
G1 X108.959 Y112.92 E1.56915
G1 X109.427 Y113.408 E1.59613
G1 X109.964 Y113.815 E1.62303
G1 X110.556 Y114.137 E1.64992
G1 X111.191 Y114.365 E1.67685
G1 X111.852 Y114.494 E1.70373
G1 X112.526 Y114.519 E1.73065
G0 F6000 X112.511 Y114.118
G1 F1200 X113.119 Y114.049 E1.75507
G1 X113.711 Y113.886 E1.77958
G1 X114.27 Y113.634 E1.80405
G1 X114.784 Y113.303 E1.82845
G1 X115.241 Y112.894 E1.85293
G1 X115.631 Y112.421 E1.8774
G1 X115.945 Y111.895 E1.90185
G1 X116.172 Y111.328 E1.92623
G1 X116.312 Y110.732 E1.95066
G1 X116.36 Y110.119 E1.9752
G1 X116.312 Y109.507 E1.9997
G1 X116.173 Y108.912 E2.02409
G1 X115.945 Y108.343 E2.04856
G1 X115.631 Y107.817 E2.07301
G1 X115.241 Y107.344 E2.09747
G1 X114.784 Y106.935 E2.12195
G1 X114.27 Y106.604 E2.14635
G1 X113.711 Y106.351 E2.17084
G1 X113.119 Y106.19 E2.19533
G1 X112.511 Y106.12 E2.21976
G1 X111.898 Y106.143 E2.24424
G1 X111.297 Y106.26 E2.26868
G1 X110.72 Y106.467 E2.29314
G1 X110.182 Y106.76 E2.31759
G1 X109.694 Y107.13 E2.34204
G1 X109.269 Y107.573 E2.36654
G1 X108.918 Y108.073 E2.39092
G1 X108.645 Y108.623 E2.41543
G1 X108.46 Y109.207 E2.43988
G1 X108.367 Y109.813 E2.46435
G1 X108.367 Y110.425 E2.48877
G1 X108.46 Y111.031 E2.51324
G1 X108.645 Y111.615 E2.53769
G1 X108.918 Y112.165 E2.5622
G1 X109.269 Y112.665 E2.58658
G1 X109.694 Y113.108 E2.61109
G1 X110.182 Y113.478 E2.63553
G1 X110.72 Y113.771 E2.65998
G1 X111.297 Y113.978 E2.68445
G1 X111.898 Y114.095 E2.70888
G1 X112.511 Y114.118 E2.73337
G0 F6000 X112.496 Y113.717
;TYPE:WALL-OUTER
G1 F1200 X113.043 Y113.655 E2.75534
G1 X113.575 Y113.509 E2.77736
G1 X114.078 Y113.282 E2.79938
G1 X114.541 Y112.984 E2.82136
G1 X114.952 Y112.616 E2.84338
G1 X115.303 Y112.19 E2.86541
G1 X115.585 Y111.717 E2.88739
G1 X115.79 Y111.207 E2.90932
G1 X115.916 Y110.67 E2.93134
G1 X115.959 Y110.119 E2.9534
G1 X115.916 Y109.569 E2.97542
G1 X115.79 Y109.033 E2.99739
G1 X115.585 Y108.521 E3.0194
G1 X115.303 Y108.048 E3.04138
G1 X114.952 Y107.622 E3.06341
G1 X114.541 Y107.254 E3.08543
G1 X114.078 Y106.956 E3.10741
G1 X113.575 Y106.729 E3.12943
G1 X113.043 Y106.584 E3.15144
G1 X112.496 Y106.521 E3.17342
G1 X111.944 Y106.542 E3.19547
G1 X111.403 Y106.647 E3.21746
G1 X110.884 Y106.833 E3.23947
G1 X110.4 Y107.097 E3.26147
G1 X109.961 Y107.43 E3.28346
G1 X109.579 Y107.828 E3.30548
G1 X109.263 Y108.278 E3.32743
G1 X109.017 Y108.773 E3.34949
G1 X108.851 Y109.298 E3.37146
G1 X108.767 Y109.844 E3.39351
G1 X108.767 Y110.394 E3.41546
G1 X108.851 Y110.94 E3.43751
G1 X109.017 Y111.465 E3.45949
G1 X109.263 Y111.96 E3.48155
G1 X109.579 Y112.41 E3.5035
G1 X109.961 Y112.808 E3.52552
G1 X110.4 Y113.141 E3.54751
G1 X110.884 Y113.405 E3.56951
G1 X111.403 Y113.591 E3.59152
G1 X111.944 Y113.696 E3.61351
G1 X112.496 Y113.717 E3.63556
G0 F6000 X112.512 Y114.156
G1 F1500 E-2.86444
G0 F6000 X112.451 Y114.706
G0 X112.555 Y117.009
G0 X112.357 Y117.227
;TYPE:WALL-INNER
G1 F1500 E3.63556
G1 F1200 X111.727 Y117.199 E3.66073
G1 X111.105 Y117.117 E3.68577
G1 X110.527 Y116.988 E3.70941
G1 X109.951 Y116.807 E3.7335
G1 X109.325 Y116.548 E3.76054
G1 X108.816 Y116.284 E3.78343
G1 X108.278 Y115.94 E3.80891
G1 X107.782 Y115.56 E3.83385
G1 X107.323 Y115.14 E3.85868
G1 X106.921 Y114.701 E3.88244
G1 X106.527 Y114.187 E3.90829
G1 X106.191 Y113.656 E3.93337
G1 X105.924 Y113.142 E3.95649
G1 X105.668 Y112.527 E3.98308
G1 X105.49 Y111.96 E4.0068
G1 X105.358 Y111.36 E4.03132
G1 X105.277 Y110.747 E4.05599
G1 X105.249 Y110.119 E4.08108
G1 X105.277 Y109.487 E4.10633
G1 X105.358 Y108.878 E4.13085
G1 X105.49 Y108.282 E4.15522
G1 X105.672 Y107.706 E4.17933
G1 X105.928 Y107.088 E4.20603
G1 X106.194 Y106.577 E4.22902
G1 X106.53 Y106.047 E4.25406
G1 X106.921 Y105.537 E4.27971
G1 X107.323 Y105.098 E4.30347
G1 X107.792 Y104.669 E4.32884
G1 X108.271 Y104.302 E4.35292
G1 X108.816 Y103.954 E4.37873
G1 X109.325 Y103.69 E4.40162
G1 X109.951 Y103.431 E4.42866
G1 X110.527 Y103.25 E4.45275
G1 X111.105 Y103.121 E4.47639
G1 X111.727 Y103.039 E4.50143
G1 X112.357 Y103.011 E4.5266
G1 X112.988 Y103.039 E4.55181
G1 X113.609 Y103.121 E4.57681
G1 X114.177 Y103.247 E4.60003
G1 X114.773 Y103.435 E4.62498
G1 X115.382 Y103.687 E4.65128
G1 X115.905 Y103.958 E4.67479
G1 X116.423 Y104.289 E4.69933
G1 X116.947 Y104.689 E4.72564
G1 X117.385 Y105.091 E4.74936
G1 X117.787 Y105.53 E4.77312
G1 X118.184 Y106.049 E4.7992
G1 X118.516 Y106.57 E4.82386
G1 X118.799 Y107.113 E4.8483
G1 X119.032 Y107.674 E4.87254
G1 X119.226 Y108.289 E4.89828
G1 X119.362 Y108.904 E4.92342
G1 X119.436 Y109.464 E4.94597
G1 X119.465 Y110.119 E4.97213
G1 X119.438 Y110.747 E4.99722
G1 X119.357 Y111.355 E5.0217
G1 X119.224 Y111.959 E5.04639
G1 X119.043 Y112.533 E5.07041
G1 X118.794 Y113.135 E5.09641
G1 X118.516 Y113.668 E5.1204
G1 X118.184 Y114.189 E5.14506
G1 X117.787 Y114.708 E5.17114
G1 X117.385 Y115.147 E5.1949
G1 X116.949 Y115.546 E5.21849
G1 X116.426 Y115.947 E5.24479
G1 X115.907 Y116.279 E5.26938
G1 X115.382 Y116.551 E5.29298
G1 X114.773 Y116.803 E5.31929
G1 X114.177 Y116.991 E5.34423
G1 X113.609 Y117.117 E5.36745
G1 X112.988 Y117.199 E5.39245
G1 X112.357 Y117.227 E5.41766
G0 F6000 X112.357 Y117.628
G1 F1200 X111.692 Y117.598 E5.44423
G1 X111.044 Y117.513 E5.47031
G1 X110.425 Y117.375 E5.49563
G1 X109.804 Y117.179 E5.52162
G1 X109.162 Y116.914 E5.54934
G1 X108.617 Y116.631 E5.57385
G1 X108.044 Y116.265 E5.60098
G1 X107.527 Y115.869 E5.62698
G1 X107.04 Y115.423 E5.65333
G1 X106.618 Y114.962 E5.67828
G1 X106.605 Y114.944 E5.67916
G1 X106.195 Y114.41 E5.70603
G1 X105.845 Y113.858 E5.73212
G1 X105.561 Y113.311 E5.75672
G1 X105.295 Y112.671 E5.78438
G1 X105.288 Y112.648 E5.78534
G1 X105.101 Y112.056 E5.81012
G1 X104.963 Y111.425 E5.8359
G1 X104.878 Y110.784 E5.86171
G1 X104.848 Y110.119 E5.88828
G1 X104.878 Y109.45 E5.915
G1 X104.963 Y108.811 E5.94073
G1 X105.101 Y108.185 E5.96632
G1 X105.298 Y107.562 E5.9924
G1 X105.564 Y106.92 E6.02013
G1 X105.845 Y106.38 E6.04443
G1 X106.198 Y105.824 E6.07071
G1 X106.213 Y105.805 E6.07168
G1 X106.618 Y105.276 E6.09827
G1 X107.04 Y104.815 E6.12322
G1 X107.531 Y104.366 E6.14977
G1 X107.549 Y104.353 E6.15066
G1 X108.045 Y103.972 E6.17562
G1 X108.601 Y103.618 E6.20193
G1 X108.617 Y103.607 E6.2027
G1 X109.162 Y103.324 E6.22721
G1 X109.804 Y103.059 E6.25493
G1 X109.83 Y103.051 E6.25602
G1 X110.425 Y102.863 E6.28092
G1 X111.044 Y102.725 E6.30624
G1 X111.692 Y102.64 E6.33232
G1 X112.357 Y102.61 E6.35889
G1 X113.023 Y102.64 E6.3855
G1 X113.67 Y102.725 E6.41154
G1 X114.29 Y102.863 E6.43689
G1 X114.91 Y103.058 E6.46283
G1 X115.545 Y103.321 E6.49027
G1 X116.104 Y103.611 E6.5154
G1 X116.657 Y103.964 E6.54159
G1 X117.201 Y104.38 E6.56892
G1 X117.668 Y104.808 E6.5942
G1 X118.096 Y105.275 E6.61948
G1 X118.509 Y105.815 E6.64662
G1 X118.866 Y106.375 E6.67312
G1 X119.158 Y106.935 E6.69833
G1 X119.409 Y107.54 E6.72447
G1 X119.615 Y108.192 E6.75176
G1 X119.754 Y108.825 E6.77763
G1 X119.757 Y108.851 E6.77867
G1 X119.836 Y109.438 E6.80231
G1 X119.866 Y110.119 E6.82952
G1 X119.837 Y110.784 E6.85609
G1 X119.752 Y111.423 E6.88182
G1 X119.613 Y112.053 E6.90757
G1 X119.415 Y112.68 E6.93381
G1 X119.158 Y113.303 E6.96071
G1 X118.866 Y113.863 E6.98591
G1 X118.509 Y114.423 E7.01242
G1 X118.096 Y114.963 E7.03955
G1 X117.668 Y115.43 E7.06484
G1 X117.204 Y115.855 E7.08995
G1 X116.657 Y116.274 E7.11745
G1 X116.106 Y116.626 E7.14355
G1 X115.545 Y116.917 E7.16877
G1 X114.91 Y117.18 E7.1962
G1 X114.29 Y117.375 E7.22214
G1 X114.264 Y117.38 E7.2232
G1 X113.67 Y117.513 E7.24749
G1 X113.023 Y117.598 E7.27354
G1 X112.357 Y117.628 E7.30015
G0 F6000 X112.357 Y118.029
;TYPE:WALL-OUTER
G1 F1200 X111.657 Y117.997 E7.32812
G1 X110.983 Y117.909 E7.35524
G1 X110.323 Y117.762 E7.38223
G1 X109.657 Y117.552 E7.4101
G1 X108.999 Y117.28 E7.43852
G1 X108.418 Y116.978 E7.46466
G1 X107.818 Y116.595 E7.49307
G1 X107.266 Y116.172 E7.52082
G1 X106.757 Y115.706 E7.54837
G1 X106.309 Y115.217 E7.57484
G1 X105.868 Y114.641 E7.60379
G1 X105.499 Y114.06 E7.63126
G1 X105.195 Y113.475 E7.65757
G1 X104.923 Y112.818 E7.68595
G1 X104.712 Y112.15 E7.71391
G1 X104.568 Y111.494 E7.74072
G1 X104.479 Y110.819 E7.76789
G1 X104.447 Y110.119 E7.79586
G1 X104.479 Y109.413 E7.82407
G1 X104.568 Y108.744 E7.851
G1 X104.712 Y108.088 E7.87781
G1 X104.924 Y107.419 E7.90582
G1 X105.196 Y106.761 E7.93424
G1 X105.499 Y106.178 E7.96046
G1 X105.868 Y105.597 E7.98793
G1 X106.309 Y105.021 E8.01689
G1 X106.757 Y104.532 E8.04335
G1 X107.266 Y104.066 E8.0709
G1 X107.819 Y103.642 E8.09871
G1 X108.418 Y103.26 E8.12707
G1 X108.999 Y102.958 E8.1532
G1 X109.657 Y102.686 E8.18162
G1 X110.323 Y102.476 E8.20949
G1 X110.983 Y102.329 E8.23648
G1 X111.657 Y102.241 E8.26361
G1 X112.357 Y102.209 E8.29157
G1 X113.058 Y102.241 E8.31958
G1 X113.731 Y102.329 E8.34667
G1 X114.392 Y102.476 E8.3737
G1 X115.057 Y102.686 E8.40153
G1 X115.708 Y102.955 E8.42964
G1 X116.303 Y103.264 E8.4564
G1 X116.891 Y103.639 E8.48424
G1 X117.455 Y104.071 E8.51259
G1 X117.951 Y104.525 E8.53943
G1 X118.405 Y105.021 E8.56627
G1 X118.834 Y105.581 E8.59442
G1 X119.216 Y106.18 E8.62278
G1 X119.522 Y106.767 E8.6492
G1 X119.788 Y107.409 E8.67694
G1 X120.002 Y108.088 E8.70535
G1 X120.147 Y108.746 E8.73224
G1 X120.236 Y109.413 E8.7591
G1 X120.267 Y110.119 E8.7873
G1 X120.236 Y110.819 E8.81527
G1 X120.147 Y111.492 E8.84237
G1 X120.002 Y112.15 E8.86926
G1 X119.789 Y112.824 E8.89747
G1 X119.52 Y113.475 E8.92558
G1 X119.216 Y114.058 E8.95183
G1 X118.834 Y114.657 E8.98018
G1 X118.405 Y115.217 E9.00834
G1 X117.951 Y115.713 E9.03517
G1 X117.455 Y116.167 E9.06201
G1 X116.891 Y116.599 E9.09037
G1 X116.305 Y116.973 E9.11811
G1 X115.708 Y117.283 E9.14496
G1 X115.057 Y117.552 E9.17307
G1 X114.392 Y117.762 E9.20091
G1 X113.731 Y117.909 E9.22793
G1 X113.058 Y117.997 E9.25502
G1 X112.357 Y118.029 E9.28303
G0 F6000 X112.357 Y117.589
G0 X112.357 Y116.837
;TYPE:SKIN
G1 F1200 X111.749 Y116.809 E9.30732
G1 X111.183 Y116.734 E9.33011
G1 X110.623 Y116.61 E9.353
G1 X110.09 Y116.442 E9.37531
G1 X109.489 Y116.193 E9.40127
G1 X109 Y115.94 E9.42325
G1 X108.513 Y115.628 E9.44633
G1 X108.026 Y115.255 E9.47081
G1 X107.599 Y114.864 E9.49392
G1 X107.221 Y114.452 E9.51624
G1 X106.849 Y113.965 E9.5407
G1 X106.521 Y113.447 E9.56517
G1 X106.278 Y112.978 E9.58625
G1 X106.035 Y112.393 E9.61153
G1 X105.867 Y111.858 E9.63391
G1 X105.741 Y111.285 E9.65733
G1 X105.667 Y110.725 E9.67988
G1 X105.639 Y110.119 E9.70409
G1 X105.667 Y109.505 E9.72862
G1 X105.741 Y108.954 E9.75081
G1 X105.867 Y108.383 E9.77415
G1 X106.036 Y107.85 E9.79646
G1 X106.286 Y107.245 E9.82259
G1 X106.528 Y106.779 E9.84355
G1 X106.849 Y106.273 E9.86747
G1 X107.226 Y105.781 E9.8922
G1 X107.599 Y105.374 E9.91424
G1 X108.041 Y104.969 E9.93817
G1 X108.494 Y104.622 E9.96094
G1 X109.006 Y104.296 E9.98517
G1 X109.493 Y104.043 E10.00707
G1 X110.09 Y103.796 E10.03286
G1 X110.623 Y103.628 E10.05516
G1 X111.183 Y103.504 E10.07805
G1 X111.749 Y103.429 E10.10084
G1 X112.357 Y103.401 E10.12513
G1 X112.966 Y103.429 E10.14947
G1 X113.543 Y103.505 E10.17269
G1 X114.067 Y103.622 E10.19412
G1 X114.634 Y103.8 E10.21784
G1 X115.219 Y104.042 E10.24311
G1 X115.711 Y104.297 E10.26523
G1 X116.206 Y104.613 E10.28867
G1 X116.692 Y104.984 E10.31307
G1 X117.108 Y105.366 E10.33561
G1 X117.487 Y105.779 E10.35798
G1 X117.87 Y106.28 E10.38315
G1 X118.178 Y106.765 E10.40608
G1 X118.441 Y107.271 E10.42884
G1 X118.668 Y107.818 E10.45248
G1 X118.849 Y108.39 E10.47643
G1 X118.979 Y108.98 E10.50054
G1 X119.046 Y109.482 E10.52075
G1 X119.075 Y110.119 E10.5462
G1 X119.048 Y110.724 E10.57037
G1 X118.975 Y111.276 E10.5926
G1 X118.847 Y111.858 E10.61638
G1 X118.678 Y112.394 E10.63881
G1 X118.44 Y112.969 E10.66365
G1 X118.178 Y113.473 E10.68632
G1 X117.87 Y113.958 E10.70925
G1 X117.487 Y114.458 E10.73439
G1 X117.109 Y114.871 E10.75674
G1 X116.705 Y115.241 E10.7786
G1 X116.188 Y115.637 E10.80459
G1 X115.723 Y115.935 E10.82664
G1 X115.223 Y116.194 E10.84911
G1 X114.634 Y116.438 E10.87456
G1 X114.067 Y116.616 E10.89828
G1 X113.543 Y116.733 E10.91971
G1 X112.966 Y116.809 E10.94293
G1 X112.357 Y116.837 E10.96727
G1 F1500 E4.46727
G0 F6000 X112.357 Y117.117
G0 X112.639 Y117.005
G0 X112.534 Y114.71
G0 X112.541 Y114.909
G1 F1500 E10.96727
