;FLAVOR:Marlin
;TIME:1041
;Filament used: 0.646788m
;Layer height: 0.2
;MINX:95.612
;MINY:90.78
;MINZ:0.2
;MAXX:125.094
;MAXY:127.227
;MAXZ:12.68
;Generated with Cura_SteamEngine 4.8.0
M140 S60
M105
M190 S60
M104 S220
M105
M109 S220
M82 ;absolute extrusion mode
; Ender 3 Custom Start G-code
G92 E0 ; Reset Extruder
G28 ; Home all axes
G1 Z2.0 F3000 ; Move Z Axis up little to prevent scratching of Heat Bed
G1 X0.1 Y20 Z0.3 F5000.0 ; Move to start position
G1 X0.1 Y200.0 Z0.3 F1500.0 E15 ; Draw the first line
G1 X0.4 Y200.0 Z0.3 F5000.0 ; Move to side a little
G1 X0.4 Y20 Z0.3 F1500.0 E30 ; Draw the second line
G92 E0 ; Reset Extruder
G1 Z2.0 F3000 ; Move Z Axis up little to prevent scratching of Heat Bed
G1 X5 Y20 Z0.3 F5000.0 ; Move over to prevent blob squish
G92 E0
G92 E0
G1 F1500 E-6.5
;LAYER_COUNT:56
;LAYER:0
M107
;MESH:wheelClip.stl
G0 F6000 X109.061 Y97.68 Z0.2
;TYPE:WALL-INNER
G1 F1500 E0
G1 F600 X108.817 Y97.68 E0.00893
G1 X108.817 Y97.48 E0.01624
G1 X109.061 Y97.48 E0.02072
G1 X109.061 Y97.68 E0.02519
G0 F6000 X109.466 Y97.58
;TYPE:WALL-OUTER
G1 F600 X109.444 Y98.08 E0.0435
G1 X108.417 Y98.08 E0.08108
G1 X108.417 Y97.08 E0.11766
G1 X109.444 Y97.08 E0.15524
G1 X109.466 Y97.58 E0.17355
G0 F6000 X109.026 Y97.58
G1 F1500 E-6.32645
G0 F6000 X108.531 Y97.194
G0 X107.552 Y97.194
G0 X100.668 Y93.593
G0 X100.111 Y92.792
G0 X99.711 Y92.72
;TYPE:WALL-INNER
G1 F1500 E0.17355
G1 F600 X99.546 Y92.834 E0.18089
G1 X99.407 Y92.633 E0.18983
G1 X99.571 Y92.519 E0.19428
G1 X99.711 Y92.72 E0.19875
G0 F6000 X100.268 Y92.82
;TYPE:WALL-OUTER
G1 F600 X99.446 Y93.391 E0.23537
G1 X98.86 Y92.547 E0.27296
G1 X99.246 Y92.252 E0.29074
G1 X99.681 Y91.975 E0.30961
G1 X100.268 Y92.82 E0.34725
G1 F1500 E-6.15275
G0 F6000 X100.015 Y92.753
G0 X99.474 Y93.234
G0 X100.031 Y94.036
G0 X100.031 Y101.124
G0 X99.474 Y101.926
G0 X99.712 Y102.441
;TYPE:WALL-INNER
G1 F1500 E0.34725
G1 F600 X99.572 Y102.642 E0.35621
G1 X99.406 Y102.527 E0.3636
G1 X99.546 Y102.325 E0.36814
G1 X99.712 Y102.441 E0.37268
G0 F6000 X100.268 Y102.341
;TYPE:WALL-OUTER
G1 F600 X99.681 Y103.185 E0.41029
G1 X99.246 Y102.908 E0.42916
G1 X98.86 Y102.612 E0.44696
G1 X99.446 Y101.769 E0.48452
G1 X100.268 Y102.341 E0.52116
G0 F6000 X100.014 Y102.407
G0 X99.651 Y103.03
G0 X100.047 Y103.441
G0 X100.194 Y103.588
;TYPE:SKIN
G1 F600 X100.677 Y103.788 E0.52863
G1 X101.84 Y104.103 E0.54586
G1 X103.068 Y104.199 E0.56347
G1 X104.338 Y104.055 E0.58174
G1 X105.422 Y103.725 E0.59794
G1 X106.542 Y103.148 E0.61595
G1 X107.497 Y102.405 E0.63325
G1 X108.295 Y101.507 E0.65043
G1 X108.934 Y100.449 E0.6681
G1 X109.385 Y99.202 E0.68705
G1 X109.522 Y98.491 E0.69741
G0 F6000 X109.456 Y98.425
G0 X109.593 Y96.865
G0 X109.523 Y96.795
G1 F600 X109.496 Y96.485 E0.70259
G1 X109.19 Y95.33 E0.72249
G1 X108.685 Y94.26 E0.74219
G0 F6000 X108.47 Y93.763
G1 F600 X106.783 Y92.075 E0.78585
G0 F6000 X106.285 Y91.86
G1 F600 X105.695 Y91.552 E0.79591
G1 X104.793 Y91.217 E0.81046
G1 X103.733 Y91.005 E0.82681
G1 X102.569 Y90.972 E0.84442
G1 X101.343 Y91.16 E0.86318
G1 X100.096 Y91.611 E0.88323
G1 X99.91 Y91.708 E0.8864
G0 F6000 X99.856 Y91.653
G0 X98.622 Y92.682
G0 X98.569 Y92.629
G1 F600 X98.422 Y92.765 E0.8893
G1 X97.625 Y93.666 E0.90668
G1 X96.989 Y94.726 E0.92455
G1 X96.541 Y95.976 E0.94375
G1 X96.442 Y96.442 E0.95064
G1 F1500 E-5.54936
G0 F6000 X96.508 Y96.508
G0 X96.366 Y98.629
G0 X96.45 Y98.712
G1 F1500 E0.95064
G1 F600 X96.515 Y99.061 E0.9568
G1 X96.756 Y99.868 E0.97143
G1 X97.284 Y100.961 E0.99251
G0 F6000 X97.532 Y101.492
G1 F600 X98.62 Y102.579 E1.02065
G0 F6000 X99.764 Y103.441
G1 F600 X99.797 Y103.474 E1.0215
G1 F1500 E-5.4785
;MESH:wheelHub.stl
G0 F6000 X99.853 Y104.254
G0 X107.609 Y114.752
G0 X107.609 Y113.317
G0 X105.682 Y113.487
;TYPE:WALL-INNER
G1 F1500 E1.0215
G1 F600 X105.682 Y120.366 E1.27318
G1 X112.561 Y120.366 E1.52485
G1 X112.561 Y113.487 E1.77653
G1 X105.682 Y113.487 E2.0282
G0 F6000 X106.082 Y113.887
;TYPE:WALL-OUTER
G1 F600 X106.082 Y119.966 E2.25061
G1 X112.161 Y119.966 E2.47302
G1 X112.161 Y113.887 E2.69543
G1 X106.082 Y113.887 E2.91783
G1 F1500 E-3.58217
G0 F6000 X106.082 Y113.587
G0 X109.973 Y113.297
G0 X109.973 Y114.752
G0 X110.895 Y106.211
G0 X110.708 Y107.654
G0 X109.973 Y107.366
;TYPE:WALL-INNER
G1 F1500 E2.91783
G1 F600 X110.792 Y107.473 E2.94805
G1 X111.605 Y107.654 E2.97852
G1 X112.396 Y107.903 E3.00886
G1 X113.187 Y108.231 E3.04019
G1 X113.917 Y108.611 E3.0703
G1 X114.626 Y109.064 E3.10109
G1 X115.289 Y109.571 E3.13162
G1 X115.91 Y110.139 E3.16241
G1 X116.471 Y110.752 E3.19281
G1 X116.988 Y111.426 E3.22389
G1 X117.439 Y112.135 E3.25463
G1 X117.818 Y112.863 E3.28466
G1 X118.147 Y113.657 E3.31611
G1 X118.391 Y114.43 E3.34576
G1 X118.576 Y115.265 E3.37705
G1 X118.683 Y116.071 E3.4068
G1 X118.72 Y116.926 E3.43811
G1 X118.683 Y117.777 E3.46928
G1 X118.576 Y118.587 E3.49917
G1 X118.393 Y119.416 E3.53023
G1 X118.147 Y120.196 E3.56015
G1 X117.816 Y120.995 E3.59179
G1 X117.437 Y121.724 E3.62185
G1 X116.99 Y122.426 E3.6523
G1 X116.477 Y123.095 E3.68314
G1 X115.91 Y123.714 E3.71386
G1 X115.296 Y124.276 E3.74431
G1 X114.616 Y124.797 E3.77565
G1 X113.921 Y125.24 E3.8058
G1 X113.187 Y125.622 E3.83608
G1 X112.396 Y125.95 E3.86741
G1 X111.605 Y126.199 E3.89775
G1 X110.791 Y126.38 E3.92825
G1 X109.972 Y126.488 E3.95848
G1 X109.122 Y126.525 E3.98961
G1 X108.272 Y126.488 E4.02073
G1 X107.453 Y126.38 E4.05096
G1 X106.639 Y126.199 E4.08147
G1 X105.848 Y125.95 E4.11181
G1 X105.06 Y125.624 E4.143
G1 X104.32 Y125.239 E4.17352
G1 X103.619 Y124.792 E4.20394
G1 X102.954 Y124.282 E4.2346
G1 X102.334 Y123.714 E4.26537
G1 X101.761 Y123.088 E4.29641
G1 X101.258 Y122.432 E4.32666
G1 X100.807 Y121.724 E4.35737
G1 X100.428 Y120.995 E4.38743
G1 X100.097 Y120.196 E4.41907
G1 X99.849 Y119.408 E4.4493
G1 X99.668 Y118.594 E4.4798
G1 X99.561 Y117.778 E4.50991
G1 X99.524 Y116.926 E4.54111
G1 X99.561 Y116.069 E4.5725
G1 X99.668 Y115.259 E4.60239
G1 X99.849 Y114.445 E4.6329
G1 X100.097 Y113.657 E4.66312
G1 X100.426 Y112.863 E4.69457
G1 X100.809 Y112.126 E4.72496
G1 X101.253 Y111.429 E4.75519
G1 X101.768 Y110.757 E4.78617
G1 X102.334 Y110.139 E4.81683
G1 X102.947 Y109.577 E4.84725
G1 X103.627 Y109.057 E4.87857
G1 X104.323 Y108.613 E4.90878
G1 X105.06 Y108.229 E4.93918
G1 X105.848 Y107.903 E4.97038
G1 X106.639 Y107.654 E5.00072
G1 X107.452 Y107.473 E5.03119
G1 X108.271 Y107.366 E5.06141
G1 X109.122 Y107.329 E5.09257
G1 X109.973 Y107.366 E5.12374
G0 F6000 X110.008 Y106.967
;TYPE:WALL-OUTER
G1 F600 X110.853 Y107.077 E5.15492
G1 X111.707 Y107.267 E5.18692
G1 X112.543 Y107.531 E5.219
G1 X113.356 Y107.867 E5.25118
G1 X114.112 Y108.261 E5.28237
G1 X114.86 Y108.739 E5.31485
G1 X115.543 Y109.262 E5.34632
G1 X116.193 Y109.856 E5.37854
G1 X116.779 Y110.496 E5.41029
G1 X117.32 Y111.201 E5.4428
G1 X117.785 Y111.932 E5.4745
G1 X118.182 Y112.695 E5.50596
G1 X118.519 Y113.51 E5.53823
G1 X118.782 Y114.343 E5.57019
G1 X118.971 Y115.197 E5.60219
G1 X119.082 Y116.034 E5.63308
G1 X119.121 Y116.927 E5.66578
G1 X119.082 Y117.812 E5.69819
G1 X118.971 Y118.656 E5.72934
G1 X118.782 Y119.51 E5.76134
G1 X118.519 Y120.343 E5.7933
G1 X118.18 Y121.163 E5.82576
G1 X117.787 Y121.918 E5.8569
G1 X117.32 Y122.652 E5.88873
G1 X116.78 Y123.356 E5.92119
G1 X116.193 Y123.997 E5.95299
G1 X115.551 Y124.585 E5.98484
G1 X114.85 Y125.122 E6.01715
G1 X114.116 Y125.59 E6.049
G1 X113.356 Y125.986 E6.08035
G1 X112.543 Y126.322 E6.11254
G1 X111.707 Y126.586 E6.14461
G1 X110.851 Y126.776 E6.17669
G1 X110.007 Y126.887 E6.20784
G1 X109.122 Y126.926 E6.24025
G1 X108.237 Y126.887 E6.27266
G1 X107.393 Y126.776 E6.3038
G1 X106.537 Y126.586 E6.33588
G1 X105.701 Y126.322 E6.36795
G1 X104.892 Y125.988 E6.39998
G1 X104.125 Y125.589 E6.43161
G1 X103.393 Y125.122 E6.46337
G1 X102.693 Y124.585 E6.49565
G1 X102.051 Y123.997 E6.5275
G1 X101.458 Y123.349 E6.55964
G1 X100.928 Y122.658 E6.5915
G1 X100.457 Y121.918 E6.62359
G1 X100.064 Y121.163 E6.65474
G1 X99.725 Y120.343 E6.6872
G1 X99.462 Y119.51 E6.71916
G1 X99.272 Y118.654 E6.75124
G1 X99.162 Y117.813 E6.78227
G1 X99.123 Y116.927 E6.81472
G1 X99.162 Y116.034 E6.84742
G1 X99.272 Y115.198 E6.87827
G1 X99.462 Y114.343 E6.91031
G1 X99.725 Y113.51 E6.94227
G1 X100.062 Y112.695 E6.97454
G1 X100.459 Y111.932 E7.00601
G1 X100.928 Y111.195 E7.03797
G1 X101.459 Y110.502 E7.06991
G1 X102.051 Y109.856 E7.10197
G1 X102.693 Y109.268 E7.13382
G1 X103.392 Y108.733 E7.16602
G1 X104.128 Y108.263 E7.19797
G1 X104.892 Y107.865 E7.22949
G1 X105.701 Y107.531 E7.26151
G1 X106.537 Y107.267 E7.29358
G1 X107.391 Y107.077 E7.32559
G1 X108.236 Y106.967 E7.35677
G1 X109.122 Y106.928 E7.38922
G1 X110.008 Y106.967 E7.42166
G0 F6000 X109.97 Y107.405
G0 X109.95 Y107.756
;TYPE:SKIN
G1 F600 X110.726 Y107.857 E7.45316
G1 X111.495 Y108.028 E7.48486
G1 X112.252 Y108.267 E7.51681
G1 X113.029 Y108.589 E7.55066
G1 X113.721 Y108.949 E7.58205
G1 X114.409 Y109.388 E7.61489
G1 X115.033 Y109.865 E7.6465
G1 X115.634 Y110.415 E7.67929
G1 X116.165 Y110.995 E7.71094
G1 X116.678 Y111.664 E7.74486
G1 X117.101 Y112.33 E7.77662
G1 X117.46 Y113.021 E7.80796
G1 X117.783 Y113.801 E7.84193
G1 X118.014 Y114.531 E7.87275
G1 X118.193 Y115.341 E7.90613
G1 X118.293 Y116.088 E7.93646
G1 X118.33 Y116.926 E7.97022
G1 X118.293 Y117.754 E8.00358
G1 X118.193 Y118.51 E8.03427
G1 X118.018 Y119.307 E8.0671
G1 X117.783 Y120.052 E8.09854
G1 X117.458 Y120.838 E8.13277
G1 X117.099 Y121.529 E8.16411
G1 X116.68 Y122.188 E8.19554
G1 X116.167 Y122.857 E8.22947
G1 X115.641 Y123.432 E8.26083
G1 X115.052 Y123.971 E8.29296
G1 X114.387 Y124.481 E8.32669
G1 X113.725 Y124.902 E8.35826
G1 X113.029 Y125.264 E8.38983
G1 X112.252 Y125.586 E8.42368
G1 X111.495 Y125.825 E8.45563
G1 X110.725 Y125.996 E8.48737
G1 X109.949 Y126.098 E8.51887
G1 X109.122 Y126.135 E8.55219
G1 X108.295 Y126.098 E8.5855
G1 X107.519 Y125.996 E8.617
G1 X106.749 Y125.824 E8.64876
G1 X105.987 Y125.585 E8.68089
G1 X105.22 Y125.267 E8.71431
G1 X104.516 Y124.901 E8.74624
G1 X103.848 Y124.476 E8.77811
G1 X103.192 Y123.972 E8.8114
G1 X102.615 Y123.444 E8.84287
G1 X102.066 Y122.844 E8.8756
G1 X101.568 Y122.194 E8.90856
G1 X101.145 Y121.529 E8.94028
G1 X100.786 Y120.837 E8.97165
G1 X100.461 Y120.053 E9.00581
G1 X100.221 Y119.291 E9.03796
G1 X100.052 Y118.526 E9.06949
G1 X99.951 Y117.755 E9.10078
G1 X99.914 Y116.926 E9.13418
G1 X99.951 Y116.086 E9.16802
G1 X100.052 Y115.322 E9.19903
G1 X100.221 Y114.562 E9.23036
G1 X100.461 Y113.8 E9.26252
G1 X100.784 Y113.02 E9.29649
G1 X101.147 Y112.321 E9.32819
G1 X101.563 Y111.667 E9.35938
G1 X102.078 Y110.995 E9.39346
G1 X102.609 Y110.414 E9.42513
G1 X103.194 Y109.878 E9.45706
G1 X103.844 Y109.381 E9.48999
G1 X104.527 Y108.946 E9.52258
G1 X105.212 Y108.589 E9.55367
G1 X105.987 Y108.268 E9.58743
G1 X106.749 Y108.028 E9.61958
G1 X107.518 Y107.857 E9.65128
G1 X108.294 Y107.756 E9.68278
G1 X109.122 Y107.719 E9.71613
G1 X109.95 Y107.756 E9.74949
G1 F1500 E3.24949
G0 F6000 X109.986 Y107.479
G0 X110.752 Y107.679
G0 X111.07 Y106.24
G0 X110.752 Y114.752
G0 X110.752 Y113.297
G0 X112.701 Y113.377
G0 X112.951 Y113.097
G1 F1500 E9.74949
G1 F600 X105.292 Y113.097 E10.05772
G1 X105.292 Y120.756 E10.36596
G1 X112.951 Y120.756 E10.67419
G1 X112.951 Y113.097 E10.98243
G1 F1500 E4.48243
G0 F6000 X112.701 Y113.377
G0 X112.731 Y115.414
G0 X111.296 Y115.414
G0 X118.063 Y110.761
G0 X116.821 Y111.554
G0 X117.382 Y112.265
G0 X116.992 Y112.466
G1 F1500 E10.98243
G1 F600 X113.582 Y109.057 E11.17648
G0 F6000 X113.786 Y108.667
G0 X112.676 Y108.139
G0 X112.507 Y108.547
G1 F600 X117.501 Y113.541 E11.46071
G0 F6000 X117.809 Y114.415
G1 F600 X111.634 Y108.24 E11.81216
G0 F6000 X110.885 Y108.057
G1 F600 X117.989 Y115.16 E12.21645
G0 F6000 X118.097 Y115.834
G1 F600 X110.214 Y107.951 E12.66511
G0 F6000 X109.598 Y107.9
G1 F600 X118.148 Y116.451 E13.15176
G0 F6000 X118.164 Y117.033
G1 F600 X109.015 Y107.883 E13.6725
G0 F6000 X108.474 Y107.908
G1 F600 X118.139 Y117.574 E14.22261
G0 F6000 X118.087 Y118.087
G1 F600 X113.11 Y113.11 E14.50587
G0 F6000 X112.936 Y112.936
G1 F600 X107.961 Y107.961 E14.78902
G0 F6000 X107.466 Y108.031
G1 F600 X112.37 Y112.936 E15.06816
G0 F6000 X111.804 Y112.936
G1 F600 X107.003 Y108.135 E15.34141
G0 F6000 X106.558 Y108.255
G1 F600 X111.239 Y112.936 E15.60783
G0 F6000 X110.673 Y112.936
G1 F600 X106.128 Y108.39 E15.86653
G0 F6000 X105.722 Y108.55
G1 F600 X110.107 Y112.936 E16.11613
G0 F6000 X109.542 Y112.936
G1 F600 X105.322 Y108.716 E16.35631
G0 F6000 X104.946 Y108.906
G1 F600 X108.976 Y112.936 E16.58568
G0 F6000 X108.41 Y112.936
G1 F600 X104.577 Y109.103 E16.80383
G0 F6000 X104.231 Y109.322
G1 F600 X107.845 Y112.936 E17.00952
G0 F6000 X107.279 Y112.936
G1 F600 X103.889 Y109.546 E17.20246
G0 F6000 X103.569 Y109.791
G1 F600 X106.713 Y112.936 E17.38143
G0 F6000 X106.148 Y112.936
G1 F600 X103.252 Y110.04 E17.54626
G0 F6000 X102.957 Y110.311
G1 F600 X105.582 Y112.936 E17.69566
G0 F6000 X105.132 Y113.052
G1 F600 X102.666 Y110.586 E17.83601
G0 F6000 X102.396 Y110.882
G1 F600 X105.132 Y113.617 E17.9917
G0 F6000 X105.132 Y114.183
G1 F600 X102.133 Y111.184 E18.16239
G0 F6000 X101.887 Y111.504
G1 F600 X105.132 Y114.749 E18.34707
G0 F6000 X105.132 Y115.314
G1 F600 X101.647 Y111.829 E18.54542
G0 F6000 X101.427 Y112.175
G1 F600 X105.132 Y115.88 E18.75629
G0 F6000 X105.132 Y116.446
G1 F600 X101.216 Y112.53 E18.97917
G0 F6000 X101.023 Y112.903
G1 F600 X105.132 Y117.012 E19.21303
G0 F6000 X105.132 Y117.577
G1 F600 X100.845 Y113.29 E19.45703
G0 F6000 X100.679 Y113.69
G1 F600 X105.132 Y118.143 E19.71047
G0 F6000 X105.132 Y118.709
G1 F600 X100.531 Y114.107 E19.97236
G0 F6000 X100.395 Y114.537
G1 F600 X105.132 Y119.274 E20.24196
G0 F6000 X105.132 Y119.84
G1 F600 X100.287 Y114.995 E20.51772
G0 F6000 X100.193 Y115.467
G1 F600 X105.132 Y120.406 E20.79882
G0 F6000 X105.641 Y120.915
G1 F600 X110.578 Y125.852 E21.07981
G0 F6000 X111.051 Y125.758
G1 F600 X106.207 Y120.915 E21.35547
G0 F6000 X106.773 Y120.915
G1 F600 X111.509 Y125.651 E21.62502
G0 F6000 X111.939 Y125.515
G1 F600 X107.338 Y120.915 E21.88686
G0 F6000 X107.904 Y120.915
G1 F600 X112.356 Y125.367 E22.14024
G0 F6000 X112.756 Y125.201
G1 F600 X108.47 Y120.915 E22.38418
G0 F6000 X109.035 Y120.915
G1 F600 X113.143 Y125.022 E22.61795
G0 F6000 X113.516 Y124.829
G1 F600 X109.601 Y120.915 E22.84075
G0 F6000 X110.167 Y120.915
G1 F600 X113.871 Y124.619 E23.05156
G0 F6000 X114.216 Y124.398
G1 F600 X110.732 Y120.915 E23.24982
G0 F6000 X111.298 Y120.915
G1 F600 X114.542 Y124.158 E23.43442
G0 F6000 X114.862 Y123.913
G1 F600 X111.864 Y120.915 E23.60505
G0 F6000 X112.429 Y120.915
G1 F600 X115.164 Y123.649 E23.76069
G0 F6000 X115.459 Y123.378
G1 F600 X112.995 Y120.915 E23.9009
G0 F6000 X113.11 Y120.464
G1 F600 X115.736 Y123.09 E24.05035
G0 F6000 X116.007 Y122.795
G1 F600 X113.11 Y119.899 E24.21521
G0 F6000 X113.11 Y119.333
G1 F600 X116.256 Y122.478 E24.39423
G0 F6000 X116.501 Y122.158
G1 F600 X113.11 Y118.767 E24.58723
G0 F6000 X113.11 Y118.202
G1 F600 X116.727 Y121.818 E24.79306
G0 F6000 X116.946 Y121.471
G1 F600 X113.11 Y117.636 E25.01136
G0 F6000 X113.11 Y117.07
G1 F600 X117.142 Y121.101 E25.24081
G0 F6000 X117.331 Y120.725
G1 F600 X113.11 Y116.505 E25.48102
G0 F6000 X113.11 Y115.939
G1 F600 X117.497 Y120.325 E25.73067
G0 F6000 X117.657 Y119.92
G1 F600 X113.11 Y115.373 E25.98947
G0 F6000 X113.11 Y114.807
G1 F600 X117.793 Y119.49 E26.256
G0 F6000 X117.912 Y119.044
G1 F600 X113.11 Y114.242 E26.5293
G0 F6000 X113.11 Y113.676
G1 F600 X118.014 Y118.579 E26.80838
G0 F6000 X118.443 Y118.674
G0 X117.987 Y120.135
G0 X117.29 Y121.636
G0 X116.344 Y122.986
G0 X115.188 Y124.143
G0 X113.834 Y125.093
G0 X112.335 Y125.79
G0 X111.441 Y126.029
G0 X110.136 Y126.356
G0 X110.079 Y125.918
G1 F600 X100.127 Y115.966 E27.3748
G0 F6000 X100.092 Y116.497
G1 F600 X109.549 Y125.954 E27.91304
G0 F6000 X108.997 Y125.968
G1 F600 X100.078 Y117.049 E28.42066
G0 F6000 X100.105 Y117.642
G1 F600 X108.405 Y125.941 E28.89303
G0 F6000 X107.763 Y125.865
G1 F600 X100.181 Y118.283 E29.32455
G0 F6000 X100.316 Y118.984
G1 F600 X107.061 Y125.729 E29.70844
G0 F6000 X106.273 Y125.506
G1 F600 X100.54 Y119.773 E30.03473
G0 F6000 X100.904 Y120.703
G1 F600 X105.344 Y125.143 E30.28744
G0 F6000 X105.174 Y125.551
G0 X103.812 Y124.783
G0 X104.048 Y124.413
