;FLAVOR:Marlin
;TIME:378
;Filament used: 0.206903m
;Layer height: 0.2
;MINX:98.63
;MINY:97.357
;MINZ:0.2
;MAXX:121.331
;MAXY:122.666
;MAXZ:2.8
;Generated with Cura_SteamEngine 4.8.0
M140 S60
M105
M190 S60
M104 S220
M105
M109 S220
M82 ;absolute extrusion mode
; Ender 3 Custom Start G-code
G92 E0 ; Reset Extruder
G28 ; Home all axes
G1 Z2.0 F3000 ; Move Z Axis up little to prevent scratching of Heat Bed
G1 X0.1 Y20 Z0.3 F5000.0 ; Move to start position
G1 X0.1 Y200.0 Z0.3 F1500.0 E15 ; Draw the first line
G1 X0.4 Y200.0 Z0.3 F5000.0 ; Move to side a little
G1 X0.4 Y20 Z0.3 F1500.0 E30 ; Draw the second line
G92 E0 ; Reset Extruder
G1 Z2.0 F3000 ; Move Z Axis up little to prevent scratching of Heat Bed
G1 X5 Y20 Z0.3 F5000.0 ; Move over to prevent blob squish
G92 E0
G92 E0
G1 F1500 E-6.5
;LAYER_COUNT:13
;LAYER:0
M107
;MESH:inputBearing.stl(1)
G0 F6000 X102.574 Y99.44 Z0.2
;TYPE:WALL-OUTER
G1 F1500 E0
G1 F600 X101.967 Y99.469 E0.02223
G1 X101.374 Y99.612 E0.04455
G1 X100.822 Y99.865 E0.06677
G1 X100.325 Y100.218 E0.08907
G1 X99.905 Y100.66 E0.11138
G1 X99.576 Y101.172 E0.13364
G1 X99.35 Y101.736 E0.15587
G1 X99.234 Y102.334 E0.17816
G1 X99.234 Y102.944 E0.20048
G1 X99.35 Y103.541 E0.22273
G1 X99.576 Y104.106 E0.24499
G1 X99.905 Y104.618 E0.26726
G1 X100.325 Y105.06 E0.28956
G1 X100.822 Y105.413 E0.31187
G1 X101.376 Y105.666 E0.33415
G1 X101.967 Y105.808 E0.35639
G1 X102.574 Y105.838 E0.37862
G1 X103.177 Y105.752 E0.40091
G1 X103.754 Y105.552 E0.42325
G1 X104.281 Y105.248 E0.44551
G1 X104.74 Y104.849 E0.46776
G1 X105.118 Y104.371 E0.49005
G1 X105.395 Y103.829 E0.51232
G1 X105.568 Y103.245 E0.53461
G1 X105.625 Y102.639 E0.55688
G1 X105.568 Y102.033 E0.57915
G1 X105.395 Y101.449 E0.60143
G1 X105.118 Y100.907 E0.6237
G1 X104.74 Y100.429 E0.64599
G1 X104.281 Y100.03 E0.66825
G1 X103.754 Y99.726 E0.6905
G1 X103.177 Y99.526 E0.71285
G1 X102.574 Y99.44 E0.73513
G0 F6000 X102.748 Y99.156
G1 F600 X103.172 Y99.221 E0.75083
G1 X103.588 Y99.339 E0.76665
G1 X103.979 Y99.505 E0.78219
G1 X104.352 Y99.72 E0.79794
G1 X104.699 Y99.982 E0.81385
G1 X105.008 Y100.28 E0.82955
G1 X105.276 Y100.616 E0.84528
G1 X105.505 Y100.984 E0.86113
G1 X105.683 Y101.373 E0.87679
G1 X105.815 Y101.786 E0.89265
G1 X105.895 Y102.213 E0.90854
G1 X105.922 Y102.639 E0.92416
G1 X105.895 Y103.064 E0.93974
G1 X105.815 Y103.492 E0.95567
G1 X105.683 Y103.905 E0.97153
G1 X105.505 Y104.294 E0.98718
G1 X105.276 Y104.662 E1.00304
G1 X105.008 Y104.998 E1.01877
G1 X104.7 Y105.296 E1.03445
G1 X104.355 Y105.556 E1.05025
G1 X103.979 Y105.773 E1.06613
G1 X103.588 Y105.939 E1.08167
G1 X103.172 Y106.057 E1.0975
G1 X102.748 Y106.122 E1.11319
G1 X102.313 Y106.136 E1.12911
G1 X101.884 Y106.097 E1.14487
G1 X101.467 Y106.005 E1.1605
G1 X101.055 Y105.86 E1.17648
G1 X100.678 Y105.672 E1.19189
G1 X100.314 Y105.431 E1.20786
G1 X99.989 Y105.154 E1.22348
G1 X99.691 Y104.826 E1.2397
G1 X99.449 Y104.484 E1.25502
G1 X99.243 Y104.1 E1.27097
G1 X99.089 Y103.704 E1.28651
G1 X98.983 Y103.28 E1.3025
G1 X98.93 Y102.855 E1.31817
G1 X98.93 Y102.423 E1.33398
G1 X98.983 Y101.998 E1.34965
G1 X99.089 Y101.574 E1.36564
G1 X99.243 Y101.178 E1.38118
G1 X99.449 Y100.794 E1.39713
G1 X99.691 Y100.452 E1.41245
G1 X99.989 Y100.124 E1.42867
G1 X100.314 Y99.847 E1.44429
G1 X100.678 Y99.606 E1.46026
G1 X101.055 Y99.418 E1.47567
G1 X101.467 Y99.273 E1.49165
G1 X101.884 Y99.181 E1.50728
G1 X102.313 Y99.142 E1.52304
G1 X102.748 Y99.156 E1.53896
G1 F1500 E-4.96104
;MESH:outputBearing.stl
G0 F6000 X102.743 Y99.263
G0 X103.812 Y99.599
G0 X104.362 Y99.916
G0 X104.841 Y100.333
G0 X105.236 Y100.832
G0 X105.525 Y101.398
G0 X105.802 Y102.639
G0 X106.785 Y102.701
G0 X109.153 Y103.821
G0 X109.368 Y104.883
G0 X110.341 Y105.029
;TYPE:WALL-INNER
G1 F1500 E1.53896
G1 F600 X110.213 Y105.029 E1.54364
G1 X109.811 Y105.029 E1.55835
G1 X109.683 Y105.029 E1.56304
G1 X109.397 Y105.075 E1.57363
G1 X109.031 Y105.135 E1.5872
G1 X109.006 Y105.143 E1.58816
G1 X108.616 Y105.273 E1.6032
G1 X108.421 Y105.338 E1.61072
G1 X108.61 Y105.258 E1.61087
G1 X109.003 Y105.136 E1.61134
G1 X109.03 Y105.131 E1.61138
G1 X109.393 Y105.057 E1.61175
G1 X109.682 Y105.029 E1.61206
G1 X109.811 Y105.016 E1.61216
G1 X110.213 Y105.016 E1.61264
G1 X110.341 Y105.028 E1.61272
G1 X110.631 Y105.057 E1.62338
G1 X110.993 Y105.13 E1.63689
G1 X111.021 Y105.136 E1.63794
G1 X111.414 Y105.258 E1.653
G1 X111.603 Y105.338 E1.6605
G1 X111.409 Y105.274 E1.66064
G1 X111.019 Y105.144 E1.66109
G1 X110.993 Y105.135
G1 X110.628 Y105.076 E1.66151
G1 X110.341 Y105.029 E1.66176
G0 F6000 X111.632 Y105.35
G1 F600 X111.787 Y105.416 E1.66793
G1 X112.158 Y105.617 E1.68336
G1 X112.204 Y105.648 E1.68539
G1 X112.488 Y105.843 E1.698
G1 X112.732 Y106.046 E1.70961
G1 X112.816 Y106.116 E1.71361
G1 X113.081 Y106.39 E1.72756
G1 X113.186 Y106.522 E1.73373
G1 X113.346 Y106.721 E1.74307
G1 X113.566 Y107.061 E1.75788
G1 X113.752 Y107.423 E1.77278
G1 X113.845 Y107.662 E1.78216
G1 X113.904 Y107.812 E1.78806
G1 X114.01 Y108.187 E1.80231
G1 X114.029 Y108.295 E1.80632
G1 X114.085 Y108.614 E1.81817
G1 X114.11 Y108.949 E1.83046
G1 X114.114 Y109 E1.83234
G1 X114.103 Y109.427 E1.84796
G1 X114.081 Y109.607 E1.8546
G1 X114.053 Y109.832 E1.86289
G1 X113.966 Y110.218 E1.87737
G1 X113.954 Y110.256 E1.87883
G1 X113.832 Y110.616 E1.89273
G1 X113.717 Y110.871 E1.90297
G1 X113.664 Y110.986 E1.9076
G1 X113.46 Y111.341 E1.92258
G1 X113.387 Y111.443 E1.92717
G1 X113.217 Y111.678 E1.93778
G1 X112.973 Y111.955 E1.95129
G1 X112.956 Y111.974 E1.95222
G1 X112.649 Y112.259 E1.96755
G1 X112.475 Y112.391 E1.97554
G1 X112.327 Y112.504 E1.98235
G1 X111.976 Y112.717 E1.99737
G1 X111.919 Y112.745 E1.99969
G1 X111.598 Y112.9 E2.01274
G1 X111.311 Y113.004 E2.0239
G1 X111.231 Y113.033 E2.02702
G1 X110.822 Y113.137 E2.04246
G1 X110.669 Y113.16 E2.04812
G1 X110.428 Y113.198 E2.05704
G1 X110.012 Y113.217 E2.07228
G1 X109.596 Y113.198 E2.08752
G1 X109.356 Y113.161 E2.0964
G1 X109.202 Y113.137 E2.1021
G1 X108.793 Y113.033 E2.11754
G1 X108.714 Y113.005 E2.12061
G1 X108.426 Y112.9 E2.13182
G1 X108.106 Y112.746 E2.14482
G1 X108.048 Y112.717 E2.14719
G1 X107.697 Y112.504 E2.16221
G1 X107.55 Y112.392 E2.16897
G1 X107.375 Y112.259 E2.17701
G1 X107.068 Y111.974 E2.19234
G1 X107.052 Y111.956 E2.19322
G1 X106.807 Y111.678 E2.20678
G1 X106.638 Y111.444 E2.21734
G1 X106.564 Y111.341 E2.22198
G1 X106.36 Y110.986 E2.23696
G1 X106.308 Y110.872 E2.24154
G1 X106.192 Y110.616 E2.25182
G1 X106.071 Y110.257 E2.26568
G1 X106.058 Y110.218 E2.26719
G1 X105.971 Y109.832 E2.28167
G1 X105.944 Y109.608 E2.28992
G1 X105.921 Y109.427 E2.2966
G1 X105.91 Y109 E2.31222
G1 X105.913 Y108.95 E2.31406
G1 X105.939 Y108.614 E2.32639
G1 X105.994 Y108.296 E2.33819
G1 X106.014 Y108.187 E2.34225
G1 X106.12 Y107.812 E2.3565
G1 X106.178 Y107.663 E2.36235
G1 X106.272 Y107.423 E2.37178
G1 X106.458 Y107.061 E2.38667
G1 X106.678 Y106.721 E2.40149
G1 X106.837 Y106.523 E2.41078
G1 X106.943 Y106.39 E2.417
G1 X107.208 Y106.116 E2.43095
G1 X107.291 Y106.047 E2.4349
G1 X107.536 Y105.843 E2.44656
G1 X107.819 Y105.649 E2.45912
G1 X107.866 Y105.617 E2.4612
G1 X108.237 Y105.416 E2.47663
G1 X108.392 Y105.35 E2.4828
G1 X108.244 Y105.428 E2.48288
G1 X107.87 Y105.624 E2.4833
G1 X107.821 Y105.65
G1 X107.547 Y105.856 E2.48362
G1 X107.293 Y106.048 E2.48392
G1 X107.219 Y106.125 E2.48399
G1 X106.955 Y106.401 E2.48454
G1 X106.838 Y106.523 E2.48467
G1 X106.693 Y106.731 E2.48489
G1 X106.462 Y107.063 E2.48528
G1 X106.288 Y107.43 E2.48565
G1 X106.178 Y107.662 E2.48583
G1 X106.135 Y107.816 E2.48595
G1 X106.028 Y108.19 E2.48648
G1 X105.997 Y108.296 E2.48657
G1 X105.959 Y108.616 E2.48691
G1 X105.918 Y108.95 E2.48727
G1 X105.919 Y108.999
G1 X105.936 Y109.426 E2.48776
G1 X105.944 Y109.607 E2.48788
G1 X105.988 Y109.828 E2.4881
G1 X106.067 Y110.216 E2.48855
G1 X106.075 Y110.255
G1 X106.209 Y110.609 E2.48894
G1 X106.309 Y110.871 E2.48916
G1 X106.371 Y110.979 E2.48926
G1 X106.576 Y111.333 E2.4898
G1 X106.639 Y111.442 E2.48986
G1 X106.821 Y111.665 E2.49015
G1 X107.056 Y111.952 E2.49056
G1 X107.073 Y111.967
G1 X107.386 Y112.245 E2.49104
G1 X107.55 Y112.391 E2.4912
G1 X107.706 Y112.489 E2.49139
G1 X108.053 Y112.708 E2.4919
G1 X108.107 Y112.743 E2.49194
G1 X108.433 Y112.882 E2.49231
G1 X108.714 Y113.002 E2.4926
G1 X108.795 Y113.021 E2.4927
G1 X109.205 Y113.122 E2.49326
G1 X109.356 Y113.159 E2.49336
G1 X109.597 Y113.178 E2.49358
G1 X110.012 Y113.212 E2.49406
G1 X110.426 Y113.179 E2.4945
G1 X110.668 Y113.159 E2.49469
G1 X110.818 Y113.123 E2.49483
G1 X111.228 Y113.022 E2.49535
G1 X111.31 Y113.002 E2.49538
G1 X111.59 Y112.883 E2.49568
G1 X111.917 Y112.743 E2.49599
G1 X111.97 Y112.709 E2.496
G1 X112.317 Y112.49 E2.49655
G1 X112.474 Y112.391 E2.49668
G1 X112.637 Y112.246 E2.4969
G1 X112.95 Y111.968 E2.49736
G1 X112.968 Y111.952
G1 X113.202 Y111.666 E2.49778
G1 X113.385 Y111.442 E2.49804
G1 X113.447 Y111.334 E2.49815
G1 X113.652 Y110.98 E2.49868
G1 X113.715 Y110.871 E2.49873
G1 X113.814 Y110.61 E2.49902
G1 X113.949 Y110.255 E2.49942
G1 X113.956 Y110.217
G1 X114.035 Y109.829 E2.49993
G1 X114.08 Y109.607 E2.50013
G1 X114.087 Y109.427 E2.50029
G1 X114.104 Y109 E2.50079
G1 X114.106 Y108.95 E2.50081
G1 X114.066 Y108.617 E2.50116
G1 X114.027 Y108.296 E2.50146
G1 X113.997 Y108.191 E2.50157
G1 X113.89 Y107.817 E2.50207
G1 X113.846 Y107.662 E2.5022
G1 X113.737 Y107.431 E2.50242
G1 X113.562 Y107.063 E2.50282
G1 X113.332 Y106.732 E2.50319
G1 X113.186 Y106.523 E2.50336
G1 X113.07 Y106.402 E2.50351
G1 X112.806 Y106.126 E2.50403
G1 X112.731 Y106.048 E2.5041
G1 X112.478 Y105.857 E2.50441
G1 X112.203 Y105.65 E2.50471
G1 X112.155 Y105.625 E2.50475
G1 X111.781 Y105.429 E2.50521
G1 X111.632 Y105.35 E2.50532
G0 F6000 X110.358 Y105.129
G0 X110.309 Y105.424
;TYPE:WALL-OUTER
G1 F600 X109.715 Y105.424 E2.52705
G1 X109.126 Y105.52 E2.54889
G1 X108.561 Y105.708 E2.57067
G1 X108.033 Y105.985 E2.59249
G1 X107.556 Y106.344 E2.61433
G1 X107.145 Y106.774 E2.63609
G1 X106.805 Y107.262 E2.65785
G1 X106.549 Y107.802 E2.67972
G1 X106.385 Y108.374 E2.70149
G1 X106.314 Y108.966 E2.7233
G1 X106.337 Y109.56 E2.74505
G1 X106.456 Y110.145 E2.76689
G1 X106.667 Y110.701 E2.78865
G1 X106.965 Y111.217 E2.81045
G1 X107.342 Y111.678 E2.83224
G1 X107.788 Y112.074 E2.85406
G1 X108.291 Y112.392 E2.87583
G1 X108.839 Y112.626 E2.89763
G1 X109.419 Y112.768 E2.91948
G1 X110.012 Y112.816 E2.94124
G1 X110.605 Y112.768 E2.96301
G1 X111.185 Y112.626 E2.98486
G1 X111.733 Y112.392 E3.00666
G1 X112.236 Y112.074 E3.02843
G1 X112.682 Y111.678 E3.05025
G1 X113.059 Y111.217 E3.07204
G1 X113.357 Y110.701 E3.09384
G1 X113.568 Y110.145 E3.1156
G1 X113.687 Y109.56 E3.13744
G1 X113.71 Y108.966 E3.15919
G1 X113.639 Y108.374 E3.181
G1 X113.475 Y107.802 E3.20277
G1 X113.219 Y107.262 E3.22463
G1 X112.879 Y106.774 E3.24639
G1 X112.468 Y106.344 E3.26816
G1 X111.991 Y105.985 E3.29
G1 X111.463 Y105.708 E3.31181
G1 X110.898 Y105.52 E3.3336
G1 X110.309 Y105.424 E3.35543
G0 F6000 X110.688 Y104.666
G1 F600 X111.118 Y104.753 E3.37148
G1 X111.558 Y104.889 E3.38833
G1 X111.958 Y105.059 E3.40423
G1 X112.36 Y105.276 E3.42095
G1 X112.725 Y105.526 E3.43713
G1 X113.084 Y105.826 E3.45425
G1 X113.379 Y106.13 E3.46975
G1 X113.668 Y106.491 E3.48667
G1 X113.908 Y106.863 E3.50286
G1 X114.113 Y107.262 E3.51928
G1 X114.278 Y107.682 E3.53578
G1 X114.396 Y108.1 E3.55168
G1 X114.478 Y108.567 E3.56902
G1 X114.51 Y108.99 E3.58454
G1 X114.498 Y109.454 E3.60152
G1 X114.443 Y109.9 E3.61797
G1 X114.347 Y110.322 E3.6338
G1 X114.198 Y110.766 E3.65093
G1 X114.018 Y111.162 E3.66685
G1 X113.792 Y111.555 E3.68343
G1 X113.526 Y111.924 E3.70008
G1 X113.238 Y112.251 E3.71602
G1 X112.899 Y112.566 E3.73295
G1 X112.55 Y112.831 E3.74898
G1 X112.164 Y113.065 E3.7655
G1 X111.757 Y113.262 E3.78204
G1 X111.344 Y113.412 E3.79812
G1 X110.906 Y113.523 E3.81465
G1 X110.459 Y113.592 E3.83119
G1 X110.012 Y113.613 E3.84757
G1 X109.565 Y113.592 E3.86394
G1 X109.118 Y113.523 E3.88049
G1 X108.68 Y113.412 E3.89702
G1 X108.267 Y113.262 E3.91309
G1 X107.86 Y113.065 E3.92964
G1 X107.474 Y112.831 E3.94615
G1 X107.125 Y112.566 E3.96218
G1 X106.786 Y112.251 E3.97911
G1 X106.498 Y111.924 E3.99506
G1 X106.232 Y111.555 E4.0117
G1 X106.006 Y111.162 E4.02829
G1 X105.826 Y110.766 E4.0442
G1 X105.677 Y110.322 E4.06133
G1 X105.581 Y109.9 E4.07717
G1 X105.526 Y109.454 E4.09361
G1 X105.514 Y108.99 E4.11059
G1 X105.546 Y108.567 E4.12611
G1 X105.628 Y108.1 E4.14346
G1 X105.746 Y107.682 E4.15935
G1 X105.911 Y107.262 E4.17586
G1 X106.116 Y106.863 E4.19227
G1 X106.356 Y106.491 E4.20847
G1 X106.645 Y106.13 E4.22539
G1 X106.94 Y105.826 E4.24088
G1 X107.299 Y105.526 E4.258
G1 X107.664 Y105.276 E4.27419
G1 X108.066 Y105.059 E4.2909
G1 X108.466 Y104.889 E4.3068
G1 X108.906 Y104.753 E4.32365
G1 X109.336 Y104.666 E4.3397
G1 X109.792 Y104.621 E4.35647
G1 X110.232 Y104.621 E4.37256
G1 X110.688 Y104.666 E4.38933
G0 F6000 X110.662 Y104.875
G1 F1500 E-2.11067
;MESH:inputBearing.stl
G0 F6000 X110.644 Y104.963
G0 X111.484 Y105.095
G0 X113.494 Y103.431
G0 X116.484 Y97.893
G0 X116.447 Y97.985
;TYPE:WALL-OUTER
G1 F1500 E4.38933
G1 F600 X115.84 Y97.956 E4.41156
G1 X115.237 Y98.042 E4.43385
G1 X114.662 Y98.242 E4.45612
G1 X114.135 Y98.545 E4.47836
G1 X113.674 Y98.945 E4.50069
G1 X113.298 Y99.423 E4.52294
G1 X113.019 Y99.965 E4.54524
G1 X112.847 Y100.549 E4.56752
G1 X112.79 Y101.155 E4.58979
G1 X112.847 Y101.761 E4.61205
G1 X113.019 Y102.345 E4.63433
G1 X113.298 Y102.887 E4.65663
G1 X113.674 Y103.365 E4.67888
G1 X114.135 Y103.765 E4.70121
G1 X114.662 Y104.068 E4.72345
G1 X115.237 Y104.268 E4.74573
G1 X115.84 Y104.354 E4.76801
G1 X116.447 Y104.325 E4.79024
G1 X117.04 Y104.182 E4.81256
G1 X117.593 Y103.929 E4.83481
G1 X118.09 Y103.576 E4.85711
G1 X118.51 Y103.134 E4.87942
G1 X118.839 Y102.622 E4.90169
G1 X119.065 Y102.058 E4.92392
G1 X119.18 Y101.458 E4.94627
G1 X119.18 Y100.852 E4.96844
G1 X119.065 Y100.252 E4.99079
G1 X118.839 Y99.688 E5.01302
G1 X118.51 Y99.176 E5.03528
G1 X118.09 Y98.734 E5.05759
G1 X117.593 Y98.381 E5.0799
G1 X117.04 Y98.128 E5.10214
G1 X116.447 Y97.985 E5.12446
G0 F6000 X116.531 Y97.697
G1 F600 X116.947 Y97.788 E5.14004
G1 X117.359 Y97.933 E5.15602
G1 X117.733 Y98.12 E5.17132
G1 X118.104 Y98.366 E5.18761
G1 X118.425 Y98.64 E5.20305
G1 X118.717 Y98.961 E5.21892
G1 X118.973 Y99.321 E5.23508
G1 X119.17 Y99.688 E5.25032
G1 X119.326 Y100.09 E5.2661
G1 X119.43 Y100.507 E5.28182
G1 X119.484 Y100.946 E5.29801
G1 X119.484 Y101.364 E5.3133
G1 X119.43 Y101.803 E5.32948
G1 X119.326 Y102.22 E5.34521
G1 X119.171 Y102.62 E5.3609
G1 X118.973 Y102.989 E5.37622
G1 X118.717 Y103.349 E5.39238
G1 X118.425 Y103.67 E5.40826
G1 X118.104 Y103.944 E5.4237
G1 X117.733 Y104.19 E5.43999
G1 X117.359 Y104.377 E5.45528
G1 X116.947 Y104.522 E5.47126
G1 X116.531 Y104.613 E5.48684
G1 X116.101 Y104.652 E5.50264
G1 X115.667 Y104.638 E5.51853
G1 X115.242 Y104.573 E5.53426
G1 X114.826 Y104.455 E5.55008
G1 X114.435 Y104.289 E5.56562
G1 X114.059 Y104.072 E5.5815
G1 X113.715 Y103.812 E5.59728
G1 X113.407 Y103.514 E5.61296
G1 X113.135 Y103.175 E5.62886
G1 X112.911 Y102.813 E5.64443
G1 X112.73 Y102.422 E5.6602
G1 X112.599 Y102.008 E5.67608
G1 X112.519 Y101.581 E5.69198
G1 X112.493 Y101.155 E5.70759
G1 X112.519 Y100.729 E5.72321
G1 X112.599 Y100.302 E5.7391
G1 X112.73 Y99.888 E5.75499
G1 X112.911 Y99.497 E5.77075
G1 X113.135 Y99.135 E5.78633
G1 X113.407 Y98.796 E5.80223
G1 X113.715 Y98.497 E5.81793
G1 X114.059 Y98.238 E5.83369
G1 X114.435 Y98.021 E5.84957
G1 X114.826 Y97.855 E5.86511
G1 X115.242 Y97.737 E5.88093
G1 X115.667 Y97.672 E5.89666
G1 X116.101 Y97.658 E5.91255
G1 X116.531 Y97.697 E5.92834
G1 F1500 E-0.57166
;MESH:outputBearing.stl(1)
G0 F6000 X116.525 Y97.799
G0 X117.086 Y97.996
G0 X117.662 Y98.26
G0 X118.182 Y98.628
G0 X118.62 Y99.09
G0 X118.963 Y99.624
G0 X119.199 Y100.213
G0 X119.319 Y100.84
G0 X119.319 Y101.47
G0 X119.199 Y102.097
G0 X118.963 Y102.686
G0 X118.62 Y103.22
G0 X118.182 Y103.682
G0 X117.662 Y104.05
G0 X117.086 Y104.314
G0 X116.263 Y104.46
G0 X116.255 Y105.505
G0 X116.329 Y112.509
G0 X116.411 Y113.588
G0 X117.024 Y113.799
;TYPE:WALL-INNER
G1 F1500 E5.92834
G1 F600 X117.242 Y113.826 E5.93638
G1 X117.645 Y113.917 E5.9515
G1 X117.673 Y113.926 E5.95257
G1 X118.033 Y114.048 E5.96648
