;FLAVOR:Marlin
;TIME:645
;Filament used: 0.408409m
;Layer height: 0.2
;MINX:53.713
;MINY:108.955
;MINZ:0.2
;MAXX:166.287
;MAXY:114.048
;MAXZ:7.4
;Generated with Cura_SteamEngine 4.8.0
M140 S60
M105
M190 S60
M104 S220
M105
M109 S220
M82 ;absolute extrusion mode
; Ender 3 Custom Start G-code
G92 E0 ; Reset Extruder
G28 ; Home all axes
G1 Z2.0 F3000 ; Move Z Axis up little to prevent scratching of Heat Bed
G1 X0.1 Y20 Z0.3 F5000.0 ; Move to start position
G1 X0.1 Y200.0 Z0.3 F1500.0 E15 ; Draw the first line
G1 X0.4 Y200.0 Z0.3 F5000.0 ; Move to side a little
G1 X0.4 Y20 Z0.3 F1500.0 E30 ; Draw the second line
G92 E0 ; Reset Extruder
G1 Z2.0 F3000 ; Move Z Axis up little to prevent scratching of Heat Bed
G1 X5 Y20 Z0.3 F5000.0 ; Move over to prevent blob squish
G92 E0
G92 E0
G1 F1500 E-6.5
;LAYER_COUNT:32
;LAYER:0
M107
;MESH:steeringRod.stl(1)
G0 F6000 X57.759 Y110.855 Z0.2
;TYPE:WALL-INNER
G1 F1500 E0
G1 F600 X55.459 Y113.155 E0.119
G1 X55.249 Y113.292 E0.12818
G1 X55.058 Y113.34 E0.13538
G1 X54.868 Y113.325 E0.14236
G1 X54.687 Y113.246 E0.14958
G1 X54.55 Y113.12 E0.15639
G1 X54.455 Y112.944 E0.16371
G1 X54.424 Y112.755 E0.17071
G1 X54.455 Y112.566 E0.17772
G1 X54.565 Y112.364 E0.18614
G1 X54.756 Y112.16 E0.19636
G1 X56.822 Y110.094 E0.30326
G1 X56.83 Y110.094 E0.30355
G1 X57.19 Y109.762 E0.32147
G1 X57.365 Y109.686 E0.32845
G1 X57.748 Y109.655 E0.34251
G1 X162.248 Y109.655 E4.16576
G1 X162.635 Y109.686 E4.17996
G1 X162.812 Y109.763 E4.18702
G1 X163.114 Y110.03 E4.20177
G1 X165.394 Y112.31 E4.31974
G1 X165.426 Y112.346 E4.3215
G1 X165.545 Y112.566 E4.33065
G1 X165.576 Y112.755 E4.33766
G1 X165.545 Y112.944 E4.34467
G1 X165.45 Y113.12 E4.35199
G1 X165.313 Y113.246 E4.3588
G1 X165.132 Y113.325 E4.36602
G1 X164.942 Y113.34 E4.37299
G1 X164.753 Y113.293 E4.38012
G1 X164.574 Y113.176 E4.38794
G1 X162.239 Y110.855 E4.5084
G1 X57.759 Y110.855 E8.33092
G0 F6000 X57.925 Y111.255
;TYPE:WALL-OUTER
G1 F600 X55.714 Y113.466 E8.44532
G1 X55.41 Y113.664 E8.45859
G1 X55.091 Y113.745 E8.47063
G1 X54.768 Y113.718 E8.48249
G1 X54.466 Y113.586 E8.49455
G1 X54.229 Y113.367 E8.50635
G1 X54.071 Y113.076 E8.51847
G1 X54.018 Y112.755 E8.53037
G1 X54.071 Y112.434 E8.54227
G1 X54.236 Y112.13 E8.55493
G1 X54.473 Y111.877 E8.56761
G1 X56.656 Y109.694 E8.68056
G1 X56.674 Y109.694 E8.68122
G1 X56.968 Y109.423 E8.69585
G1 X57.267 Y109.292 E8.70779
G1 X57.728 Y109.255 E8.72471
G1 X162.32 Y109.255 E12.55133
G1 X162.327 Y109.26 E12.55165
G1 X162.733 Y109.292 E12.56655
G1 X163.031 Y109.423 E12.57846
G1 X163.387 Y109.737 E12.59582
G1 X165.682 Y112.032 E12.71457
G1 X165.758 Y112.119 E12.71879
G1 X165.929 Y112.434 E12.73191
G1 X165.982 Y112.755 E12.74381
G1 X165.929 Y113.076 E12.75571
G1 X165.771 Y113.367 E12.76783
G1 X165.534 Y113.586 E12.77963
G1 X165.232 Y113.718 E12.79169
G1 X164.909 Y113.745 E12.80355
G1 X164.59 Y113.664 E12.81559
G1 X164.317 Y113.487 E12.8275
G1 X164.311 Y113.479 E12.82786
G1 X162.074 Y111.255 E12.94327
G1 X57.925 Y111.255 E16.75368
G0 F6000 X57.757 Y110.849
G0 X57.597 Y110.465
;TYPE:SKIN
G1 F600 X55.218 Y112.846 E16.88914
G1 X55.023 Y112.947 E16.89798
G1 X54.903 Y112.915 E16.90297
G1 X54.828 Y112.814 E16.90804
G1 X54.828 Y112.698 E16.91271
G1 X54.885 Y112.591 E16.91758
G1 X55.061 Y112.405 E16.92789
G1 X56.982 Y110.484 E17.03722
G1 X57.409 Y110.092 E17.06055
G1 X57.462 Y110.068 E17.06289
G1 X57.754 Y110.045 E17.07468
G1 X162.242 Y110.045 E21.27977
G1 X162.539 Y110.068 E21.29176
G1 X162.6 Y110.095 E21.29445
G1 X162.856 Y110.322 E21.30822
G1 X165.106 Y112.572 E21.43628
G1 X165.182 Y112.755 E21.44425
G1 X165.138 Y112.877 E21.44947
G1 X165.037 Y112.941 E21.45428
G1 X164.911 Y112.931 E21.45937
G1 X164.824 Y112.874 E21.46355
G1 X162.399 Y110.465 E21.60112
G1 X57.597 Y110.465 E25.81885
G0 F6000 X57.71 Y110.737
G0 X55.179 Y113.133
G0 X54.91 Y113.157
G0 X54.687 Y113.013
G0 X54.597 Y112.755
G0 X54.969 Y112.103
G0 X55.278 Y112.412
G1 F600 X55.352 Y112.486 E25.82306
G0 F6000 X55.635 Y112.203
G1 F600 X55.56 Y112.129 E25.8273
G0 F6000 X55.843 Y111.846
G1 F600 X55.918 Y111.92 E25.83154
G0 F6000 X56.2 Y111.637
G1 F600 X56.126 Y111.563 E25.83575
G0 F6000 X56.409 Y111.28
G1 F600 X56.482 Y111.354 E25.83994
G0 F6000 X56.765 Y111.07
G1 F600 X56.692 Y110.998 E25.84406
G0 F6000 X56.975 Y110.715
G1 F600 X57.047 Y110.788 E25.84819
G0 F6000 X57.33 Y110.505
G1 F600 X57.265 Y110.44 E25.85189
G0 F6000 X57.607 Y110.216
G1 F600 X57.694 Y110.303 E25.85684
G0 F6000 X58.161 Y110.204
G1 F600 X58.26 Y110.303 E25.86248
G0 F6000 X58.727 Y110.204
G1 F600 X58.826 Y110.303 E25.86811
G0 F6000 X59.293 Y110.204
G1 F600 X59.392 Y110.303 E25.87374
G0 F6000 X59.858 Y110.204
G1 F600 X59.957 Y110.303 E25.87938
G0 F6000 X60.424 Y110.204
G1 F600 X60.523 Y110.303 E25.88501
G0 F6000 X60.99 Y110.204
G1 F600 X61.089 Y110.303 E25.89065
G0 F6000 X61.555 Y110.204
G1 F600 X61.654 Y110.303 E25.89628
G0 F6000 X62.121 Y110.204
G1 F600 X62.22 Y110.303 E25.90192
G0 F6000 X62.687 Y110.204
G1 F600 X62.786 Y110.303 E25.90755
G0 F6000 X63.252 Y110.204
G1 F600 X63.351 Y110.303 E25.91319
G0 F6000 X63.818 Y110.204
G1 F600 X63.917 Y110.303 E25.91882
G0 F6000 X64.384 Y110.204
G1 F600 X64.483 Y110.303 E25.92446
G0 F6000 X64.949 Y110.204
G1 F600 X65.048 Y110.303 E25.93009
G0 F6000 X65.515 Y110.204
G1 F600 X65.614 Y110.303 E25.93572
G0 F6000 X66.081 Y110.204
G1 F600 X66.18 Y110.303 E25.94136
G0 F6000 X66.646 Y110.204
G1 F600 X66.745 Y110.303 E25.94699
G0 F6000 X67.212 Y110.204
G1 F600 X67.311 Y110.303 E25.95263
G0 F6000 X67.778 Y110.204
G1 F600 X67.877 Y110.303 E25.95826
G0 F6000 X68.343 Y110.204
G1 F600 X68.442 Y110.303 E25.9639
G0 F6000 X68.909 Y110.204
G1 F600 X69.008 Y110.303 E25.96953
G0 F6000 X69.475 Y110.204
G1 F600 X69.574 Y110.303 E25.97517
G0 F6000 X70.041 Y110.204
G1 F600 X70.14 Y110.303 E25.9808
G0 F6000 X70.606 Y110.204
G1 F600 X70.705 Y110.303 E25.98644
G0 F6000 X71.172 Y110.204
G1 F600 X71.271 Y110.303 E25.99207
G0 F6000 X71.738 Y110.204
G1 F600 X71.837 Y110.303 E25.9977
G0 F6000 X72.303 Y110.204
G1 F600 X72.402 Y110.303 E26.00334
G0 F6000 X72.869 Y110.204
G1 F600 X72.968 Y110.303 E26.00897
G0 F6000 X73.435 Y110.204
G1 F600 X73.534 Y110.303 E26.01461
G0 F6000 X74 Y110.204
G1 F600 X74.099 Y110.303 E26.02024
G0 F6000 X74.566 Y110.204
G1 F600 X74.665 Y110.303 E26.02588
G0 F6000 X75.132 Y110.204
G1 F600 X75.231 Y110.303 E26.03151
G0 F6000 X75.697 Y110.204
G1 F600 X75.796 Y110.303 E26.03715
G0 F6000 X76.263 Y110.204
G1 F600 X76.362 Y110.303 E26.04278
G0 F6000 X76.829 Y110.204
G1 F600 X76.928 Y110.303 E26.04842
G0 F6000 X77.394 Y110.204
G1 F600 X77.493 Y110.303 E26.05405
G0 F6000 X77.96 Y110.204
G1 F600 X78.059 Y110.303 E26.05968
G0 F6000 X78.526 Y110.204
G1 F600 X78.625 Y110.303 E26.06532
G0 F6000 X79.092 Y110.204
G1 F600 X79.191 Y110.303 E26.07095
G0 F6000 X79.657 Y110.204
G1 F600 X79.756 Y110.303 E26.07659
G0 F6000 X80.223 Y110.204
G1 F600 X80.322 Y110.303 E26.08222
G0 F6000 X80.789 Y110.204
G1 F600 X80.888 Y110.303 E26.08786
G0 F6000 X81.354 Y110.204
G1 F600 X81.453 Y110.303 E26.09349
G0 F6000 X81.92 Y110.204
G1 F600 X82.019 Y110.303 E26.09913
G0 F6000 X82.486 Y110.204
G1 F600 X82.585 Y110.303 E26.10476
G0 F6000 X83.051 Y110.204
G1 F600 X83.15 Y110.303 E26.1104
G0 F6000 X83.617 Y110.204
G1 F600 X83.716 Y110.303 E26.11603
G0 F6000 X84.183 Y110.204
G1 F600 X84.282 Y110.303 E26.12166
G0 F6000 X84.748 Y110.204
G1 F600 X84.847 Y110.303 E26.1273
G0 F6000 X85.314 Y110.204
G1 F600 X85.413 Y110.303 E26.13293
G0 F6000 X85.88 Y110.204
G1 F600 X85.979 Y110.303 E26.13857
G0 F6000 X86.445 Y110.204
G1 F600 X86.544 Y110.303 E26.1442
G0 F6000 X87.011 Y110.204
G1 F600 X87.11 Y110.303 E26.14984
G0 F6000 X87.577 Y110.204
G1 F600 X87.676 Y110.303 E26.15547
G0 F6000 X88.142 Y110.204
G1 F600 X88.241 Y110.303 E26.16111
G0 F6000 X88.708 Y110.204
G1 F600 X88.807 Y110.303 E26.16674
G0 F6000 X89.274 Y110.204
G1 F600 X89.373 Y110.303 E26.17238
G0 F6000 X89.84 Y110.204
G1 F600 X89.939 Y110.303 E26.17801
G0 F6000 X90.405 Y110.204
G1 F600 X90.504 Y110.303 E26.18364
G0 F6000 X90.971 Y110.204
G1 F600 X91.07 Y110.303 E26.18928
G0 F6000 X91.537 Y110.204
G1 F600 X91.636 Y110.303 E26.19491
G0 F6000 X92.102 Y110.204
G1 F600 X92.201 Y110.303 E26.20055
G0 F6000 X92.668 Y110.204
G1 F600 X92.767 Y110.303 E26.20618
G0 F6000 X93.234 Y110.204
G1 F600 X93.333 Y110.303 E26.21182
G0 F6000 X93.799 Y110.204
G1 F600 X93.898 Y110.303 E26.21745
G0 F6000 X94.365 Y110.204
G1 F600 X94.464 Y110.303 E26.22309
G0 F6000 X94.931 Y110.204
G1 F600 X95.03 Y110.303 E26.22872
G0 F6000 X95.496 Y110.204
G1 F600 X95.595 Y110.303 E26.23436
G0 F6000 X96.062 Y110.204
G1 F600 X96.161 Y110.303 E26.23999
G0 F6000 X96.628 Y110.204
G1 F600 X96.727 Y110.303 E26.24562
G0 F6000 X97.193 Y110.204
G1 F600 X97.292 Y110.303 E26.25126
G0 F6000 X97.759 Y110.204
G1 F600 X97.858 Y110.303 E26.25689
G0 F6000 X98.325 Y110.204
G1 F600 X98.424 Y110.303 E26.26253
G0 F6000 X98.891 Y110.204
G1 F600 X98.989 Y110.303 E26.26813
G0 F6000 X99.456 Y110.204
G1 F600 X99.555 Y110.303 E26.27377
G0 F6000 X100.022 Y110.204
G1 F600 X100.121 Y110.303 E26.2794
G0 F6000 X100.588 Y110.204
G1 F600 X100.687 Y110.303 E26.28504
G0 F6000 X101.153 Y110.204
G1 F600 X101.252 Y110.303 E26.29067
G0 F6000 X101.719 Y110.204
G1 F600 X101.818 Y110.303 E26.29631
G0 F6000 X102.285 Y110.204
G1 F600 X102.384 Y110.303 E26.30194
G0 F6000 X102.85 Y110.204
G1 F600 X102.949 Y110.303 E26.30758
G0 F6000 X103.416 Y110.204
G1 F600 X103.515 Y110.303 E26.31321
G0 F6000 X103.982 Y110.204
G1 F600 X104.081 Y110.303 E26.31885
G0 F6000 X104.547 Y110.204
G1 F600 X104.646 Y110.303 E26.32448
G0 F6000 X105.113 Y110.204
G1 F600 X105.212 Y110.303 E26.33011
G0 F6000 X105.679 Y110.204
G1 F600 X105.778 Y110.303 E26.33575
G0 F6000 X106.244 Y110.204
G1 F600 X106.343 Y110.303 E26.34138
G0 F6000 X106.81 Y110.204
G1 F600 X106.909 Y110.303 E26.34702
G0 F6000 X107.376 Y110.204
G1 F600 X107.475 Y110.303 E26.35265
G0 F6000 X107.941 Y110.204
G1 F600 X108.04 Y110.303 E26.35829
G0 F6000 X108.507 Y110.204
G1 F600 X108.606 Y110.303 E26.36392
G0 F6000 X109.073 Y110.204
G1 F600 X109.172 Y110.303 E26.36956
G0 F6000 X109.639 Y110.204
G1 F600 X109.738 Y110.303 E26.37519
G0 F6000 X110.205 Y110.205
G1 F600 X110.304 Y110.304 E26.38083
G0 F6000 X110.771 Y110.205
G1 F600 X110.87 Y110.304 E26.38646
G0 F6000 X111.336 Y110.205
G1 F600 X111.435 Y110.304 E26.39209
G0 F6000 X111.902 Y110.205
G1 F600 X112.001 Y110.304 E26.39773
G0 F6000 X112.468 Y110.205
G1 F600 X112.567 Y110.304 E26.40336
G0 F6000 X113.033 Y110.205
G1 F600 X113.132 Y110.304 E26.409
G0 F6000 X113.599 Y110.205
G1 F600 X113.698 Y110.304 E26.41463
G0 F6000 X114.165 Y110.205
G1 F600 X114.264 Y110.304 E26.42027
G0 F6000 X114.73 Y110.205
G1 F600 X114.829 Y110.304 E26.4259
G0 F6000 X115.296 Y110.205
G1 F600 X115.395 Y110.304 E26.43154
G0 F6000 X115.862 Y110.205
G1 F600 X115.961 Y110.304 E26.43717
G0 F6000 X116.427 Y110.205
G1 F600 X116.526 Y110.304 E26.44281
G0 F6000 X116.993 Y110.205
G1 F600 X117.092 Y110.304 E26.44844
G0 F6000 X117.559 Y110.205
G1 F600 X117.658 Y110.304 E26.45408
G0 F6000 X118.125 Y110.205
G1 F600 X118.224 Y110.304 E26.45971
G0 F6000 X118.69 Y110.205
G1 F600 X118.789 Y110.304 E26.46534
G0 F6000 X119.256 Y110.205
G1 F600 X119.355 Y110.304 E26.47098
G0 F6000 X119.822 Y110.205
G1 F600 X119.921 Y110.304 E26.47661
G0 F6000 X120.387 Y110.205
G1 F600 X120.486 Y110.304 E26.48225
G0 F6000 X120.953 Y110.205
G1 F600 X121.052 Y110.304 E26.48788
G0 F6000 X121.519 Y110.205
G1 F600 X121.618 Y110.304 E26.49352
G0 F6000 X122.084 Y110.205
G1 F600 X122.183 Y110.304 E26.49915
G0 F6000 X122.65 Y110.205
G1 F600 X122.749 Y110.304 E26.50479
G0 F6000 X123.216 Y110.205
G1 F600 X123.315 Y110.304 E26.51042
G0 F6000 X123.781 Y110.205
G1 F600 X123.88 Y110.304 E26.51606
G0 F6000 X124.347 Y110.205
G1 F600 X124.446 Y110.304 E26.52169
G0 F6000 X124.913 Y110.205
G1 F600 X125.012 Y110.304 E26.52732
G0 F6000 X125.478 Y110.205
G1 F600 X125.577 Y110.304 E26.53296
G0 F6000 X126.044 Y110.205
G1 F600 X126.143 Y110.304 E26.53859
G0 F6000 X126.61 Y110.205
G1 F600 X126.709 Y110.304 E26.54423
G0 F6000 X127.175 Y110.205
G1 F600 X127.274 Y110.304 E26.54986
G0 F6000 X127.741 Y110.205
G1 F600 X127.84 Y110.304 E26.5555
G0 F6000 X128.307 Y110.205
G1 F600 X128.406 Y110.304 E26.56113
G0 F6000 X128.873 Y110.205
G1 F600 X128.972 Y110.304 E26.56677
G0 F6000 X129.438 Y110.205
G1 F600 X129.537 Y110.304 E26.5724
G0 F6000 X130.004 Y110.205
G1 F600 X130.103 Y110.304 E26.57804
G0 F6000 X130.57 Y110.205
G1 F600 X130.669 Y110.304 E26.58367
G0 F6000 X131.135 Y110.205
G1 F600 X131.234 Y110.304 E26.5893
G0 F6000 X131.701 Y110.205
G1 F600 X131.8 Y110.304 E26.59494
G0 F6000 X132.267 Y110.205
G1 F600 X132.366 Y110.304 E26.60057
G0 F6000 X132.832 Y110.205
G1 F600 X132.931 Y110.304 E26.60621
G0 F6000 X133.398 Y110.205
G1 F600 X133.497 Y110.304 E26.61184
G0 F6000 X133.964 Y110.205
G1 F600 X134.063 Y110.304 E26.61748
G0 F6000 X134.529 Y110.205
G1 F600 X134.628 Y110.304 E26.62311
G0 F6000 X135.095 Y110.205
G1 F600 X135.194 Y110.304 E26.62875
G0 F6000 X135.661 Y110.205
G1 F600 X135.76 Y110.304 E26.63438
G0 F6000 X136.226 Y110.205
G1 F600 X136.325 Y110.304 E26.64002
G0 F6000 X136.792 Y110.205
G1 F600 X136.891 Y110.304 E26.64565
G0 F6000 X137.358 Y110.205
G1 F600 X137.457 Y110.304 E26.65128
G0 F6000 X137.924 Y110.205
G1 F600 X138.023 Y110.304 E26.65692
G0 F6000 X138.489 Y110.205
G1 F600 X138.588 Y110.304 E26.66255
G0 F6000 X139.055 Y110.205
G1 F600 X139.154 Y110.304 E26.66819
G0 F6000 X139.621 Y110.205
G1 F600 X139.72 Y110.304 E26.67382
G0 F6000 X140.186 Y110.205
G1 F600 X140.285 Y110.304 E26.67946
G0 F6000 X140.752 Y110.205
G1 F600 X140.851 Y110.304 E26.68509
G0 F6000 X141.318 Y110.205
G1 F600 X141.417 Y110.304 E26.69073
G0 F6000 X141.883 Y110.205
G1 F600 X141.982 Y110.304 E26.69636
G0 F6000 X142.449 Y110.205
G1 F600 X142.548 Y110.304 E26.702
G0 F6000 X143.015 Y110.205
G1 F600 X143.114 Y110.304 E26.70763
G0 F6000 X143.58 Y110.205
G1 F600 X143.679 Y110.304 E26.71326
G0 F6000 X144.146 Y110.205
G1 F600 X144.245 Y110.304 E26.7189
G0 F6000 X144.712 Y110.205
G1 F600 X144.811 Y110.304 E26.72453
G0 F6000 X145.277 Y110.205
G1 F600 X145.376 Y110.304 E26.73017
G0 F6000 X145.843 Y110.205
G1 F600 X145.942 Y110.304 E26.7358
G0 F6000 X146.409 Y110.205
G1 F600 X146.508 Y110.304 E26.74144
G0 F6000 X146.974 Y110.205
G1 F600 X147.073 Y110.304 E26.74707
G0 F6000 X147.54 Y110.205
G1 F600 X147.639 Y110.304 E26.75271
G0 F6000 X148.106 Y110.205
G1 F600 X148.205 Y110.304 E26.75834
G0 F6000 X148.672 Y110.205
G1 F600 X148.771 Y110.304 E26.76398
G0 F6000 X149.237 Y110.205
G1 F600 X149.336 Y110.304 E26.76961
G0 F6000 X149.803 Y110.205
G1 F600 X149.902 Y110.304 E26.77524
G0 F6000 X150.369 Y110.205
G1 F600 X150.468 Y110.304 E26.78088
G0 F6000 X150.934 Y110.205
G1 F600 X151.033 Y110.304 E26.78651
G0 F6000 X151.5 Y110.205
G1 F600 X151.599 Y110.304 E26.79215
G0 F6000 X152.066 Y110.205
G1 F600 X152.165 Y110.304 E26.79778
G0 F6000 X152.631 Y110.205
G1 F600 X152.73 Y110.304 E26.80342
G0 F6000 X153.197 Y110.205
G1 F600 X153.296 Y110.304 E26.80905
G0 F6000 X153.763 Y110.205
G1 F600 X153.862 Y110.304 E26.81469
G0 F6000 X154.328 Y110.205
G1 F600 X154.427 Y110.304 E26.82032
G0 F6000 X154.894 Y110.205
G1 F600 X154.993 Y110.304 E26.82596
G0 F6000 X155.46 Y110.205
G1 F600 X155.559 Y110.304 E26.83159
G0 F6000 X156.025 Y110.205
G1 F600 X156.124 Y110.304 E26.83722
G0 F6000 X156.591 Y110.205
G1 F600 X156.69 Y110.304 E26.84286
G0 F6000 X157.157 Y110.205
G1 F600 X157.256 Y110.304 E26.84849
G0 F6000 X157.722 Y110.205
G1 F600 X157.821 Y110.304 E26.85413
G0 F6000 X158.288 Y110.205
G1 F600 X158.387 Y110.304 E26.85976
G0 F6000 X158.854 Y110.205
G1 F600 X158.953 Y110.304 E26.8654
G0 F6000 X159.42 Y110.205
G1 F600 X159.519 Y110.304 E26.87103
G0 F6000 X159.985 Y110.205
G1 F600 X160.084 Y110.304 E26.87667
G0 F6000 X160.551 Y110.205
G1 F600 X160.65 Y110.304 E26.8823
G0 F6000 X161.117 Y110.205
G1 F600 X161.216 Y110.304 E26.88794
G0 F6000 X161.682 Y110.205
G1 F600 X161.781 Y110.304 E26.89357
G0 F6000 X162.249 Y110.206
G1 F600 X162.347 Y110.304 E26.89915
G0 F6000 X162.309 Y110.686
;MESH:NONMESH
G0 F300 X162.309 Y110.686 Z0.44
G0 F6000 X162.309 Y110.745
G0 X164.822 Y113.133
G0 X165.09 Y113.157
G0 X165.313 Y113.013
